(G-CODE GENERATED BY FLATCAM v8.994 - www.flatcam.org - Version Date: 2020/11/7)

(Name: kicad-F_Cu.gbr_iso_combined_cnc)
(Type: G-code from Geometry)
(Units: MM)

(Created on Saturday, 12 October 2024 at 21:37)

(This preprocessor is used with a motion controller loaded with GRBL firmware.)
(It is configured to be compatible with almost any version of GRBL firmware.)

(TOOL DIAMETER: 0.4 mm)
(Feedrate_XY: 120.0 mm/min)
(Feedrate_Z: 60.0 mm/min)
(Feedrate rapids 1500.0 mm/min)

(Z_Cut: 0.0 mm)
(Z_Move: 2.0 mm)
(Z Start: None mm)
(Z End: 15.0 mm)
(X,Y End: None mm)
(Steps per circle: 64)
(Steps per circle: 64)
(Preprocessor Geometry: GRBL_11_no_M6)

(X range:    0.8005 ...   47.7003  mm)
(Y range:    0.7997 ...   52.2003  mm)

(Spindle Speed: 0.0 RPM)
G21
G90
G17
G94


G01 F120.00

M5             
G00 Z15.0000
G00 X0.0000 Y0.0000                
T1
(MSG, Change to Tool Dia = 0.4000)
M0
G00 Z15.0000
        
M03
G01 F120.00
G00 X0.8014 Y1.1055
G01 F60.00
G01 Z0.0000
G01 F120.00
G01 X0.8041 Y1.0866 F120.00
G01 X0.8186 Y1.0208 F120.00
G01 X0.8248 Y1.0018 F120.00
G01 X0.8329 Y0.9835 F120.00
G01 X0.8427 Y0.9661 F120.00
G01 X0.8542 Y0.9497 F120.00
G01 X0.9063 Y0.8892 F120.00
G01 X0.9200 Y0.8749 F120.00
G01 X0.9351 Y0.8620 F120.00
G01 X0.9514 Y0.8506 F120.00
G01 X0.9688 Y0.8409 F120.00
G01 X0.9870 Y0.8330 F120.00
G01 X1.0011 Y0.8283 F120.00
G01 X1.0773 Y0.8061 F120.00
G01 X1.0866 Y0.8041 F120.00
G01 X1.1008 Y0.8019 F120.00
G01 X1.1197 Y0.8006 F120.00
G01 X17.0352 Y0.8005 F120.00
G01 X17.0561 Y0.8012 F120.00
G01 X17.0660 Y0.8020 F120.00
G01 X17.0807 Y0.8042 F120.00
G01 X17.0951 Y0.8074 F120.00
G01 X17.1140 Y0.8134 F120.00
G01 X17.1841 Y0.8396 F120.00
G01 X17.1977 Y0.8457 F120.00
G01 X17.2065 Y0.8503 F120.00
G01 X17.2233 Y0.8608 F120.00
G01 X17.2391 Y0.8729 F120.00
G01 X17.2536 Y0.8865 F120.00
G01 X17.2666 Y0.9014 F120.00
G01 X17.3144 Y0.9653 F120.00
G01 X17.3251 Y0.9821 F120.00
G01 X17.3320 Y0.9953 F120.00
G01 X17.3361 Y1.0043 F120.00
G01 X17.3396 Y1.0136 F120.00
G01 X17.3441 Y1.0278 F120.00
G01 X17.3466 Y1.0374 F120.00
G01 X17.3493 Y1.0521 F120.00
G01 X17.3509 Y1.0669 F120.00
G01 X17.3562 Y1.1415 F120.00
G01 X17.3561 Y1.1614 F120.00
G01 X17.3553 Y1.1713 F120.00
G01 X17.3533 Y1.1861 F120.00
G01 X17.3501 Y1.2006 F120.00
G01 X17.3474 Y1.2102 F120.00
G01 X17.3406 Y1.2288 F120.00
G01 X17.3319 Y1.2467 F120.00
G01 X17.2937 Y1.3163 F120.00
G01 X17.2885 Y1.3243 F120.00
G01 X17.2801 Y1.3358 F120.00
G01 X17.2740 Y1.3432 F120.00
G01 X17.2643 Y1.3536 F120.00
G01 X9.3782 Y9.2397 F120.00
G01 X9.2906 Y9.3708 F120.00
G01 X9.2303 Y9.5165 F120.00
G01 X9.1995 Y9.6712 F120.00
G01 X9.1995 Y12.5342 F120.00
G01 X9.1992 Y12.5449 F120.00
G01 X9.1984 Y12.5556 F120.00
G01 X9.1949 Y12.5868 F120.00
G01 X9.1925 Y12.6013 F120.00
G01 X9.1889 Y12.6156 F120.00
G01 X9.1860 Y12.6250 F120.00
G01 X9.1826 Y12.6342 F120.00
G01 X9.1767 Y12.6477 F120.00
G01 X9.1340 Y12.7260 F120.00
G01 X9.1261 Y12.7379 F120.00
G01 X9.1204 Y12.7455 F120.00
G01 X9.1112 Y12.7564 F120.00
G01 X9.1046 Y12.7633 F120.00
G01 X4.9182 Y16.9497 F120.00
G01 X4.8306 Y17.0808 F120.00
G01 X4.7703 Y17.2265 F120.00
G01 X4.7395 Y17.3812 F120.00
G01 X4.7393 Y18.8891 F120.00
G01 X4.7373 Y18.9090 F120.00
G01 X4.7345 Y18.9237 F120.00
G01 X4.7181 Y18.9880 F120.00
G01 X4.7124 Y19.0066 F120.00
G01 X4.7049 Y19.0246 F120.00
G01 X4.6981 Y19.0375 F120.00
G01 X4.6877 Y19.0540 F120.00
G01 X4.6757 Y19.0693 F120.00
G01 X4.6657 Y19.0800 F120.00
G01 X4.6163 Y19.1294 F120.00
G01 X4.6016 Y19.1427 F120.00
G01 X4.5898 Y19.1517 F120.00
G01 X4.5729 Y19.1623 F120.00
G01 X4.5597 Y19.1691 F120.00
G01 X4.5460 Y19.1749 F120.00
G01 X4.5319 Y19.1797 F120.00
G01 X4.5174 Y19.1834 F120.00
G01 X4.4443 Y19.1993 F120.00
G01 X4.4246 Y19.2020 F120.00
G01 X4.4048 Y19.2028 F120.00
G01 X4.3899 Y19.2021 F120.00
G01 X4.3702 Y19.1995 F120.00
G01 X4.3509 Y19.1949 F120.00
G01 X4.3368 Y19.1902 F120.00
G01 X4.2713 Y19.1658 F120.00
G01 X4.2575 Y19.1601 F120.00
G01 X4.2442 Y19.1533 F120.00
G01 X4.2315 Y19.1456 F120.00
G01 X4.2194 Y19.1370 F120.00
G01 X4.2079 Y19.1275 F120.00
G01 X4.1972 Y19.1172 F120.00
G01 X4.1841 Y19.1022 F120.00
G01 X4.1392 Y19.0423 F120.00
G01 X4.1329 Y19.0334 F120.00
G01 X4.1271 Y19.0242 F120.00
G01 X4.1222 Y19.0154 F120.00
G01 X4.1176 Y19.0061 F120.00
G01 X4.0647 Y18.9353 F120.00
G01 X3.9955 Y18.8835 F120.00
G01 X3.9111 Y18.8521 F120.00
G01 X3.8872 Y18.8495 F120.00
G01 X2.1128 Y18.8495 F120.00
G01 X2.0889 Y18.8521 F120.00
G01 X2.0045 Y18.8835 F120.00
G01 X1.9353 Y18.9353 F120.00
G01 X1.8835 Y19.0045 F120.00
G01 X1.8521 Y19.0889 F120.00
G01 X1.8495 Y19.1129 F120.00
G01 X1.8495 Y20.8872 F120.00
G01 X1.8521 Y20.9111 F120.00
G01 X1.8835 Y20.9955 F120.00
G01 X1.9353 Y21.0647 F120.00
G01 X2.0062 Y21.1177 F120.00
G01 X2.0170 Y21.1228 F120.00
G01 X2.0300 Y21.1299 F120.00
G01 X2.0424 Y21.1380 F120.00
G01 X2.0542 Y21.1470 F120.00
G01 X2.1181 Y21.2026 F120.00
G01 X2.1318 Y21.2171 F120.00
G01 X2.1439 Y21.2328 F120.00
G01 X2.1520 Y21.2453 F120.00
G01 X2.1591 Y21.2584 F120.00
G01 X2.1652 Y21.2720 F120.00
G01 X2.1703 Y21.2860 F120.00
G01 X2.1939 Y21.3670 F120.00
G01 X2.1959 Y21.3763 F120.00
G01 X2.1981 Y21.3904 F120.00
G01 X2.1994 Y21.4094 F120.00
G01 X2.1995 Y22.5859 F120.00
G01 X2.1985 Y22.6117 F120.00
G01 X2.1967 Y22.6264 F120.00
G01 X2.1948 Y22.6362 F120.00
G01 X2.1912 Y22.6505 F120.00
G01 X2.1882 Y22.6600 F120.00
G01 X2.1584 Y22.7393 F120.00
G01 X2.1521 Y22.7527 F120.00
G01 X2.1447 Y22.7657 F120.00
G01 X2.1363 Y22.7780 F120.00
G01 X2.1271 Y22.7897 F120.00
G01 X2.1205 Y22.7971 F120.00
G01 X2.1099 Y22.8076 F120.00
G01 X2.0946 Y22.8203 F120.00
G01 X2.0343 Y22.8654 F120.00
G01 X2.0205 Y22.8743 F120.00
G01 X2.0075 Y22.8813 F120.00
G01 X1.9353 Y22.9353 F120.00
G01 X1.8835 Y23.0045 F120.00
G01 X1.8521 Y23.0889 F120.00
G01 X1.8495 Y23.1129 F120.00
G01 X1.8495 Y24.8872 F120.00
G01 X1.8521 Y24.9111 F120.00
G01 X1.8835 Y24.9955 F120.00
G01 X1.9353 Y25.0647 F120.00
G01 X2.0045 Y25.1165 F120.00
G01 X2.0889 Y25.1479 F120.00
G01 X2.1129 Y25.1505 F120.00
G01 X3.8872 Y25.1505 F120.00
G01 X3.9111 Y25.1479 F120.00
G01 X3.9955 Y25.1165 F120.00
G01 X4.0647 Y25.0647 F120.00
G01 X4.1165 Y24.9955 F120.00
G01 X4.1479 Y24.9111 F120.00
G01 X4.1505 Y24.8872 F120.00
G01 X4.1505 Y23.1128 F120.00
G01 X4.1479 Y23.0889 F120.00
G01 X4.1165 Y23.0045 F120.00
G01 X4.0647 Y22.9353 F120.00
G01 X3.9939 Y22.8823 F120.00
G01 X3.9830 Y22.8772 F120.00
G01 X3.9700 Y22.8701 F120.00
G01 X3.9576 Y22.8620 F120.00
G01 X3.9458 Y22.8530 F120.00
G01 X3.8819 Y22.7974 F120.00
G01 X3.8682 Y22.7829 F120.00
G01 X3.8561 Y22.7672 F120.00
G01 X3.8480 Y22.7547 F120.00
G01 X3.8432 Y22.7460 F120.00
G01 X3.8367 Y22.7326 F120.00
G01 X3.8313 Y22.7187 F120.00
G01 X3.8086 Y22.6422 F120.00
G01 X3.8041 Y22.6237 F120.00
G01 X3.8014 Y22.6049 F120.00
G01 X3.8005 Y22.5859 F120.00
G01 X3.8006 Y21.4070 F120.00
G01 X3.8015 Y21.3883 F120.00
G01 X3.8033 Y21.3736 F120.00
G01 X3.8074 Y21.3542 F120.00
G01 X3.8118 Y21.3401 F120.00
G01 X3.8415 Y21.2607 F120.00
G01 X3.8503 Y21.2429 F120.00
G01 X3.8608 Y21.2260 F120.00
G01 X3.8697 Y21.2141 F120.00
G01 X3.8795 Y21.2029 F120.00
G01 X3.8901 Y21.1924 F120.00
G01 X3.9014 Y21.1828 F120.00
G01 X3.9657 Y21.1346 F120.00
G01 X3.9795 Y21.1257 F120.00
G01 X3.9925 Y21.1187 F120.00
G01 X4.0647 Y21.0647 F120.00
G01 X4.1165 Y20.9955 F120.00
G01 X4.1592 Y20.8815 F120.00
G01 X4.1651 Y20.8691 F120.00
G01 X4.1867 Y20.8297 F120.00
G01 X4.1919 Y20.8211 F120.00
G01 X4.1976 Y20.8128 F120.00
G01 X4.2037 Y20.8048 F120.00
G01 X4.2102 Y20.7971 F120.00
G01 X4.2171 Y20.7897 F120.00
G01 X4.2244 Y20.7827 F120.00
G01 X4.2359 Y20.7729 F120.00
G01 X4.2958 Y20.7280 F120.00
G01 X4.3123 Y20.7169 F120.00
G01 X4.3253 Y20.7096 F120.00
G01 X4.3388 Y20.7034 F120.00
G01 X4.3481 Y20.6998 F120.00
G01 X4.3623 Y20.6953 F120.00
G01 X4.3768 Y20.6919 F120.00
G01 X4.3964 Y20.6890 F120.00
G01 X4.4760 Y20.6833 F120.00
G01 X4.4909 Y20.6832 F120.00
G01 X4.5058 Y20.6841 F120.00
G01 X4.5157 Y20.6854 F120.00
G01 X4.5303 Y20.6882 F120.00
G01 X4.5494 Y20.6936 F120.00
G01 X4.5633 Y20.6989 F120.00
G01 X4.5724 Y20.7030 F120.00
G01 X4.6425 Y20.7410 F120.00
G01 X4.6548 Y20.7483 F120.00
G01 X4.6627 Y20.7537 F120.00
G01 X4.6740 Y20.7623 F120.00
G01 X4.6847 Y20.7718 F120.00
G01 X4.7976 Y20.8847 F120.00
G01 X4.9626 Y21.0002 F120.00
G01 X5.1450 Y21.0852 F120.00
G01 X5.3395 Y21.1374 F120.00
G01 X5.5400 Y21.1549 F120.00
G01 X5.7406 Y21.1373 F120.00
G01 X5.9350 Y21.0852 F120.00
G01 X6.1175 Y21.0002 F120.00
G01 X6.2824 Y20.8847 F120.00
G01 X6.4247 Y20.7424 F120.00
G01 X6.5481 Y20.5663 F120.00
G01 X6.5576 Y20.5544 F120.00
G01 X6.5775 Y20.5315 F120.00
G01 X6.5877 Y20.5211 F120.00
G01 X6.5986 Y20.5114 F120.00
G01 X6.6143 Y20.4999 F120.00
G01 X6.6309 Y20.4899 F120.00
G01 X6.6976 Y20.4561 F120.00
G01 X6.7157 Y20.4480 F120.00
G01 X6.7251 Y20.4447 F120.00
G01 X6.7394 Y20.4405 F120.00
G01 X6.7589 Y20.4367 F120.00
G01 X6.7786 Y20.4348 F120.00
G01 X6.7985 Y20.4349 F120.00
G01 X6.8877 Y20.4441 F120.00
G01 X6.9024 Y20.4469 F120.00
G01 X6.9120 Y20.4494 F120.00
G01 X6.9308 Y20.4558 F120.00
G01 X6.9399 Y20.4597 F120.00
G01 X6.9533 Y20.4663 F120.00
G01 X6.9702 Y20.4767 F120.00
G01 X6.9822 Y20.4856 F120.00
G01 X7.0404 Y20.5322 F120.00
G01 X7.0476 Y20.5385 F120.00
G01 X7.0577 Y20.5485 F120.00
G01 X7.0641 Y20.5556 F120.00
G01 X7.0729 Y20.5668 F120.00
G01 X7.1957 Y20.7420 F120.00
G01 X7.3380 Y20.8843 F120.00
G01 X7.3797 Y20.9136 F120.00
G01 X7.3797 Y20.7810 F120.00
G01 X7.3446 Y20.7492 F120.00
G01 X7.3341 Y20.7389 F120.00
G01 X7.2715 Y20.6698 F120.00
G01 X7.2623 Y20.6584 F120.00
G01 X7.2097 Y20.5874 F120.00
G01 X7.2017 Y20.5751 F120.00
G01 X7.1540 Y20.4950 F120.00
G01 X7.1139 Y20.4108 F120.00
G01 X7.1077 Y20.3963 F120.00
G01 X7.0754 Y20.3053 F120.00
G01 X7.0523 Y20.2144 F120.00
G01 X7.0500 Y20.2039 F120.00
G01 X7.0351 Y20.1029 F120.00
G01 X7.0302 Y20.0098 F120.00
G01 X7.0302 Y19.9902 F120.00
G01 X7.0343 Y19.9069 F120.00
G01 X7.0363 Y19.8873 F120.00
G01 X7.0502 Y19.7952 F120.00
G01 X7.0752 Y19.6952 F120.00
G01 X7.1092 Y19.6001 F120.00
G01 X7.1139 Y19.5892 F120.00
G01 X7.1496 Y19.5138 F120.00
G01 X7.1561 Y19.5012 F120.00
G01 X7.2017 Y19.4249 F120.00
G01 X7.2103 Y19.4117 F120.00
G01 X7.2653 Y19.3377 F120.00
G01 X7.2747 Y19.3265 F120.00
G01 X7.2997 Y19.2989 F120.00
G01 X7.2997 Y19.1539 F120.00
G01 X7.1957 Y19.2580 F120.00
G01 X7.0725 Y19.4337 F120.00
G01 X7.0630 Y19.4456 F120.00
G01 X7.0431 Y19.4685 F120.00
G01 X7.0364 Y19.4755 F120.00
G01 X7.0293 Y19.4822 F120.00
G01 X7.0182 Y19.4916 F120.00
G01 X7.0064 Y19.5001 F120.00
G01 X6.9940 Y19.5078 F120.00
G01 X6.9186 Y19.5461 F120.00
G01 X6.9002 Y19.5537 F120.00
G01 X6.8812 Y19.5595 F120.00
G01 X6.8617 Y19.5633 F120.00
G01 X6.8469 Y19.5649 F120.00
G01 X6.8271 Y19.5653 F120.00
G01 X6.8122 Y19.5643 F120.00
G01 X6.7378 Y19.5566 F120.00
G01 X6.7182 Y19.5531 F120.00
G01 X6.6991 Y19.5476 F120.00
G01 X6.6807 Y19.5403 F120.00
G01 X6.6673 Y19.5337 F120.00
G01 X6.6545 Y19.5261 F120.00
G01 X6.6423 Y19.5175 F120.00
G01 X6.5766 Y19.4647 F120.00
G01 X6.5696 Y19.4582 F120.00
G01 X6.5597 Y19.4480 F120.00
G01 X6.5477 Y19.4332 F120.00
G01 X6.4207 Y19.2519 F120.00
G01 X6.4014 Y19.2279 F120.00
G01 X6.3956 Y19.2200 F120.00
G01 X6.3853 Y19.2033 F120.00
G01 X6.3766 Y19.1857 F120.00
G01 X6.3697 Y19.1673 F120.00
G01 X6.3473 Y19.0910 F120.00
G01 X6.3441 Y19.0771 F120.00
G01 X6.3419 Y19.0630 F120.00
G01 X6.3407 Y19.0488 F120.00
G01 X6.3405 Y19.0392 F120.00
G01 X6.3405 Y17.9258 F120.00
G01 X6.3411 Y17.9097 F120.00
G01 X6.3451 Y17.8732 F120.00
G01 X6.3486 Y17.8539 F120.00
G01 X6.3525 Y17.8397 F120.00
G01 X6.3592 Y17.8212 F120.00
G01 X6.3655 Y17.8079 F120.00
G01 X6.4036 Y17.7381 F120.00
G01 X6.4112 Y17.7260 F120.00
G01 X6.4196 Y17.7145 F120.00
G01 X6.4288 Y17.7036 F120.00
G01 X6.4354 Y17.6967 F120.00
G01 X10.6218 Y13.5103 F120.00
G01 X10.7094 Y13.3792 F120.00
G01 X10.7697 Y13.2335 F120.00
G01 X10.8005 Y13.0788 F120.00
G01 X10.8006 Y10.2104 F120.00
G01 X10.8016 Y10.1944 F120.00
G01 X10.8058 Y10.1583 F120.00
G01 X10.8086 Y10.1439 F120.00
G01 X10.8140 Y10.1250 F120.00
G01 X10.8192 Y10.1112 F120.00
G01 X10.8255 Y10.0979 F120.00
G01 X10.8660 Y10.0240 F120.00
G01 X10.8712 Y10.0160 F120.00
G01 X10.8796 Y10.0045 F120.00
G01 X10.8857 Y9.9971 F120.00
G01 X10.8954 Y9.9867 F120.00
G01 X18.4867 Y2.3954 F120.00
G01 X18.4985 Y2.3845 F120.00
G01 X18.5310 Y2.3585 F120.00
G01 X18.5433 Y2.3503 F120.00
G01 X18.5604 Y2.3407 F120.00
G01 X18.5739 Y2.3347 F120.00
G01 X18.5877 Y2.3297 F120.00
G01 X18.6640 Y2.3073 F120.00
G01 X18.6779 Y2.3041 F120.00
G01 X18.6873 Y2.3025 F120.00
G01 X18.7015 Y2.3010 F120.00
G01 X18.7158 Y2.3005 F120.00
G01 X29.0342 Y2.3005 F120.00
G01 X29.0503 Y2.3011 F120.00
G01 X29.0868 Y2.3051 F120.00
G01 X29.1013 Y2.3075 F120.00
G01 X29.1203 Y2.3125 F120.00
G01 X29.1388 Y2.3192 F120.00
G01 X29.1564 Y2.3278 F120.00
G01 X29.2219 Y2.3636 F120.00
G01 X29.2379 Y2.3739 F120.00
G01 X29.2455 Y2.3796 F120.00
G01 X29.2564 Y2.3888 F120.00
G01 X30.4897 Y3.6218 F120.00
G01 X30.6208 Y3.7094 F120.00
G01 X30.7665 Y3.7697 F120.00
G01 X30.9212 Y3.8005 F120.00
G01 X36.5342 Y3.8005 F120.00
G01 X36.5449 Y3.8008 F120.00
G01 X36.5556 Y3.8016 F120.00
G01 X36.5868 Y3.8051 F120.00
G01 X36.6013 Y3.8075 F120.00
G01 X36.6156 Y3.8111 F120.00
G01 X36.6296 Y3.8156 F120.00
G01 X36.6433 Y3.8212 F120.00
G01 X36.6564 Y3.8278 F120.00
G01 X36.7177 Y3.8613 F120.00
G01 X36.7300 Y3.8686 F120.00
G01 X36.7418 Y3.8767 F120.00
G01 X36.7492 Y3.8826 F120.00
G01 X36.7633 Y3.8954 F120.00
G01 X39.6046 Y6.7367 F120.00
G01 X39.6120 Y6.7445 F120.00
G01 X39.6189 Y6.7526 F120.00
G01 X39.6386 Y6.7771 F120.00
G01 X39.6444 Y6.7850 F120.00
G01 X39.6523 Y6.7975 F120.00
G01 X39.6593 Y6.8104 F120.00
G01 X39.6653 Y6.8239 F120.00
G01 X39.6703 Y6.8377 F120.00
G01 X39.6939 Y6.9186 F120.00
G01 X39.6967 Y6.9326 F120.00
G01 X39.6981 Y6.9420 F120.00
G01 X39.6994 Y6.9610 F120.00
G01 X39.6995 Y10.5788 F120.00
G01 X39.7303 Y10.7335 F120.00
G01 X39.7906 Y10.8792 F120.00
G01 X39.8782 Y11.0103 F120.00
G01 X46.1046 Y17.2367 F120.00
G01 X46.1155 Y17.2485 F120.00
G01 X46.1415 Y17.2810 F120.00
G01 X46.1523 Y17.2975 F120.00
G01 X46.1593 Y17.3104 F120.00
G01 X46.1653 Y17.3239 F120.00
G01 X46.1703 Y17.3377 F120.00
G01 X46.1914 Y17.4094 F120.00
G01 X46.1949 Y17.4233 F120.00
G01 X46.1975 Y17.4373 F120.00
G01 X46.1990 Y17.4515 F120.00
G01 X46.1995 Y17.4658 F120.00
G01 X46.1995 Y29.5342 F120.00
G01 X46.1992 Y29.5449 F120.00
G01 X46.1984 Y29.5556 F120.00
G01 X46.1949 Y29.5868 F120.00
G01 X46.1925 Y29.6013 F120.00
G01 X46.1875 Y29.6203 F120.00
G01 X46.1808 Y29.6388 F120.00
G01 X46.1722 Y29.6564 F120.00
G01 X46.1364 Y29.7219 F120.00
G01 X46.1261 Y29.7379 F120.00
G01 X46.1174 Y29.7492 F120.00
G01 X46.1112 Y29.7564 F120.00
G01 X45.2633 Y30.6046 F120.00
G01 X45.2515 Y30.6155 F120.00
G01 X45.2229 Y30.6386 F120.00
G01 X45.2150 Y30.6444 F120.00
G01 X45.2025 Y30.6523 F120.00
G01 X45.1896 Y30.6593 F120.00
G01 X45.1807 Y30.6634 F120.00
G01 X45.1623 Y30.6703 F120.00
G01 X45.0860 Y30.6927 F120.00
G01 X45.0721 Y30.6959 F120.00
G01 X45.0532 Y30.6986 F120.00
G01 X45.0342 Y30.6995 F120.00
G01 X44.7496 Y30.6995 F120.00
G01 X44.7342 Y30.6989 F120.00
G01 X44.7190 Y30.6971 F120.00
G01 X44.6595 Y30.6850 F120.00
G01 X44.6405 Y30.6801 F120.00
G01 X44.6266 Y30.6752 F120.00
G01 X44.6176 Y30.6714 F120.00
G01 X44.6088 Y30.6671 F120.00
G01 X44.5959 Y30.6599 F120.00
G01 X44.5837 Y30.6518 F120.00
G01 X44.5758 Y30.6459 F120.00
G01 X44.5109 Y30.5915 F120.00
G01 X44.5004 Y30.5810 F120.00
G01 X44.4906 Y30.5697 F120.00
G01 X44.4817 Y30.5577 F120.00
G01 X44.4737 Y30.5452 F120.00
G01 X44.4646 Y30.5275 F120.00
G01 X44.4573 Y30.5091 F120.00
G01 X44.4348 Y30.4377 F120.00
G01 X44.4309 Y30.4233 F120.00
G01 X44.4273 Y30.4038 F120.00
G01 X44.4259 Y30.3889 F120.00
G01 X44.4258 Y30.3691 F120.00
G01 X44.4277 Y30.3493 F120.00
G01 X44.4293 Y30.3395 F120.00
G01 X44.4327 Y30.3250 F120.00
G01 X44.4512 Y30.2576 F120.00
G01 X44.4570 Y30.2395 F120.00
G01 X44.4626 Y30.2264 F120.00
G01 X44.4690 Y30.2136 F120.00
G01 X44.5023 Y30.1592 F120.00
G01 X44.5433 Y30.0357 F120.00
G01 X44.5505 Y29.9648 F120.00
G01 X44.5505 Y27.0352 F120.00
G01 X44.5433 Y26.9643 F120.00
G01 X44.5023 Y26.8408 F120.00
G01 X44.4327 Y26.7279 F120.00
G01 X44.4145 Y26.7053 F120.00
G01 X44.4056 Y26.6935 F120.00
G01 X44.3977 Y26.6811 F120.00
G01 X44.3907 Y26.6681 F120.00
G01 X44.3847 Y26.6547 F120.00
G01 X44.3783 Y26.6362 F120.00
G01 X44.3573 Y26.5645 F120.00
G01 X44.3551 Y26.5553 F120.00
G01 X44.3525 Y26.5412 F120.00
G01 X44.3510 Y26.5270 F120.00
G01 X44.3505 Y26.5128 F120.00
G01 X44.3505 Y25.6245 F120.00
G01 X44.3510 Y25.6102 F120.00
G01 X44.3519 Y25.6008 F120.00
G01 X44.3541 Y25.5866 F120.00
G01 X44.3686 Y25.5208 F120.00
G01 X44.3731 Y25.5065 F120.00
G01 X44.3767 Y25.4971 F120.00
G01 X44.3807 Y25.4880 F120.00
G01 X44.3876 Y25.4746 F120.00
G01 X44.3954 Y25.4619 F120.00
G01 X44.4073 Y25.4458 F120.00
G01 X44.4563 Y25.3892 F120.00
G01 X44.4700 Y25.3749 F120.00
G01 X44.4774 Y25.3682 F120.00
G01 X44.4891 Y25.3590 F120.00
G01 X44.5014 Y25.3506 F120.00
G01 X44.5143 Y25.3432 F120.00
G01 X44.5232 Y25.3388 F120.00
G01 X44.5370 Y25.3330 F120.00
G01 X44.5511 Y25.3283 F120.00
G01 X44.6182 Y25.3086 F120.00
G01 X44.6320 Y25.3051 F120.00
G01 X44.6508 Y25.3019 F120.00
G01 X44.6697 Y25.3006 F120.00
G01 X44.8272 Y25.3005 F120.00
G01 X44.8511 Y25.2979 F120.00
G01 X44.9355 Y25.2665 F120.00
G01 X45.0047 Y25.2147 F120.00
G01 X45.0565 Y25.1455 F120.00
G01 X45.0879 Y25.0611 F120.00
G01 X45.0905 Y25.0372 F120.00
G01 X45.0905 Y23.9628 F120.00
G01 X45.0879 Y23.9389 F120.00
G01 X45.0565 Y23.8545 F120.00
G01 X45.0047 Y23.7853 F120.00
G01 X44.9649 Y23.7554 F120.00
G01 X44.9380 Y23.7321 F120.00
G01 X44.9281 Y23.7219 F120.00
G01 X44.9189 Y23.7110 F120.00
G01 X44.9104 Y23.6995 F120.00
G01 X44.9053 Y23.6915 F120.00
G01 X44.8647 Y23.6175 F120.00
G01 X44.8565 Y23.5994 F120.00
G01 X44.8502 Y23.5806 F120.00
G01 X44.8466 Y23.5661 F120.00
G01 X44.8436 Y23.5465 F120.00
G01 X44.8426 Y23.5267 F120.00
G01 X44.8431 Y23.5118 F120.00
G01 X44.8481 Y23.4421 F120.00
G01 X44.8505 Y23.4224 F120.00
G01 X44.8548 Y23.4030 F120.00
G01 X44.8593 Y23.3888 F120.00
G01 X44.8649 Y23.3750 F120.00
G01 X44.8738 Y23.3573 F120.00
G01 X44.8817 Y23.3446 F120.00
G01 X44.8875 Y23.3365 F120.00
G01 X44.9293 Y23.2806 F120.00
G01 X44.9383 Y23.2695 F120.00
G01 X44.9514 Y23.2557 F120.00
G01 X44.9621 Y23.2462 F120.00
G01 X45.0043 Y23.2143 F120.00
G01 X45.0560 Y23.1453 F120.00
G01 X45.0874 Y23.0610 F120.00
G01 X45.0900 Y23.0371 F120.00
G01 X45.0900 Y22.9500 F120.00
G01 X44.9900 Y22.9500 F120.00
G01 X44.9898 Y23.0098 F120.00
G01 X44.9878 Y23.0293 F120.00
G01 X44.9851 Y23.0438 F120.00
G01 X44.9799 Y23.0627 F120.00
G01 X44.9728 Y23.0810 F120.00
G01 X44.9664 Y23.0943 F120.00
G01 X44.9615 Y23.1028 F120.00
G01 X44.9506 Y23.1191 F120.00
G01 X44.9382 Y23.1343 F120.00
G01 X44.9314 Y23.1414 F120.00
G01 X44.9206 Y23.1514 F120.00
G01 X44.9052 Y23.1635 F120.00
G01 X44.8886 Y23.1740 F120.00
G01 X44.8799 Y23.1786 F120.00
G01 X44.8665 Y23.1848 F120.00
G01 X44.8481 Y23.1914 F120.00
G01 X44.8290 Y23.1962 F120.00
G01 X44.8193 Y23.1978 F120.00
G01 X44.8047 Y23.1995 F120.00
G01 X44.7900 Y23.2000 F120.00
G01 X41.9835 Y23.2003 F120.00
G01 X41.9894 Y23.2111 F120.00
G01 X41.9937 Y23.2201 F120.00
G01 X42.0191 Y23.2813 F120.00
G01 X42.0242 Y23.2950 F120.00
G01 X42.0271 Y23.3043 F120.00
G01 X42.0305 Y23.3185 F120.00
G01 X42.0328 Y23.3329 F120.00
G01 X42.0341 Y23.3475 F120.00
G01 X42.0343 Y23.3621 F120.00
G01 X42.0330 Y23.3815 F120.00
G01 X42.0207 Y23.4653 F120.00
G01 X42.0173 Y23.4798 F120.00
G01 X42.0129 Y23.4940 F120.00
G01 X42.0074 Y23.5078 F120.00
G01 X42.0008 Y23.5212 F120.00
G01 X41.9906 Y23.5383 F120.00
G01 X41.9819 Y23.5503 F120.00
G01 X41.9265 Y23.6145 F120.00
G01 X41.9161 Y23.6251 F120.00
G01 X41.9087 Y23.6318 F120.00
G01 X41.8970 Y23.6410 F120.00
G01 X41.8847 Y23.6494 F120.00
G01 X41.8718 Y23.6568 F120.00
G01 X41.8583 Y23.6633 F120.00
G01 X41.8445 Y23.6687 F120.00
G01 X41.8350 Y23.6717 F120.00
G01 X41.7588 Y23.6939 F120.00
G01 X41.7401 Y23.6975 F120.00
G01 X41.7259 Y23.6990 F120.00
G01 X41.7164 Y23.6994 F120.00
G01 X41.1084 Y23.6993 F120.00
G01 X41.0935 Y23.6979 F120.00
G01 X41.0738 Y23.6945 F120.00
G01 X41.0048 Y23.6769 F120.00
G01 X40.9909 Y23.6724 F120.00
G01 X40.9818 Y23.6689 F120.00
G01 X40.9686 Y23.6627 F120.00
G01 X40.9600 Y23.6581 F120.00
G01 X40.9436 Y23.6477 F120.00
G01 X40.9357 Y23.6419 F120.00
G01 X40.9246 Y23.6325 F120.00
G01 X40.8681 Y23.5763 F120.00
G01 X40.8548 Y23.5616 F120.00
G01 X40.8430 Y23.5457 F120.00
G01 X40.8352 Y23.5329 F120.00
G01 X40.8306 Y23.5242 F120.00
G01 X40.8226 Y23.5060 F120.00
G01 X40.8193 Y23.4966 F120.00
G01 X40.8152 Y23.4823 F120.00
G01 X40.7993 Y23.4092 F120.00
G01 X40.7966 Y23.3945 F120.00
G01 X40.7951 Y23.3797 F120.00
G01 X40.7947 Y23.3698 F120.00
G01 X40.7950 Y23.3549 F120.00
G01 X40.7959 Y23.3450 F120.00
G01 X40.7990 Y23.3254 F120.00
G01 X40.8026 Y23.3109 F120.00
G01 X40.8056 Y23.3014 F120.00
G01 X40.8334 Y23.2270 F120.00
G01 X40.8390 Y23.2143 F120.00
G01 X40.8465 Y23.2003 F120.00
G01 X37.8152 Y23.2003 F120.00
G01 X37.8257 Y23.2143 F120.00
G01 X37.8651 Y23.2440 F120.00
G01 X37.8919 Y23.2673 F120.00
G01 X37.8987 Y23.2740 F120.00
G01 X37.9082 Y23.2847 F120.00
G01 X37.9168 Y23.2960 F120.00
G01 X37.9222 Y23.3039 F120.00
G01 X37.9295 Y23.3162 F120.00
G01 X37.9629 Y23.3775 F120.00
G01 X37.9696 Y23.3908 F120.00
G01 X37.9735 Y23.4000 F120.00
G01 X37.9784 Y23.4140 F120.00
G01 X37.9834 Y23.4332 F120.00
G01 X37.9858 Y23.4479 F120.00
G01 X37.9873 Y23.4677 F120.00
G01 X37.9869 Y23.4876 F120.00
G01 X37.9819 Y23.5573 F120.00
G01 X37.9795 Y23.5770 F120.00
G01 X37.9764 Y23.5916 F120.00
G01 X37.9723 Y23.6059 F120.00
G01 X37.9671 Y23.6198 F120.00
G01 X37.9609 Y23.6334 F120.00
G01 X37.9536 Y23.6464 F120.00
G01 X37.9455 Y23.6589 F120.00
G01 X37.9007 Y23.7188 F120.00
G01 X37.8917 Y23.7299 F120.00
G01 X37.8786 Y23.7437 F120.00
G01 X37.8679 Y23.7532 F120.00
G01 X37.8253 Y23.7853 F120.00
G01 X37.7735 Y23.8545 F120.00
G01 X37.7421 Y23.9389 F120.00
G01 X37.7395 Y23.9629 F120.00
G01 X37.7395 Y25.0372 F120.00
G01 X37.7421 Y25.0611 F120.00
G01 X37.7735 Y25.1455 F120.00
G01 X37.8253 Y25.2147 F120.00
G01 X37.8945 Y25.2665 F120.00
G01 X37.9789 Y25.2979 F120.00
G01 X38.0029 Y25.3005 F120.00
G01 X42.4350 Y25.3007 F120.00
G01 X42.4492 Y25.3019 F120.00
G01 X42.4634 Y25.3041 F120.00
G01 X42.5292 Y25.3186 F120.00
G01 X42.5435 Y25.3231 F120.00
G01 X42.5529 Y25.3267 F120.00
G01 X42.5665 Y25.3329 F120.00
G01 X42.5754 Y25.3376 F120.00
G01 X42.5881 Y25.3454 F120.00
G01 X42.6042 Y25.3573 F120.00
G01 X42.6645 Y25.4096 F120.00
G01 X42.6751 Y25.4200 F120.00
G01 X42.6850 Y25.4312 F120.00
G01 X42.6910 Y25.4391 F120.00
G01 X42.6994 Y25.4514 F120.00
G01 X42.7068 Y25.4643 F120.00
G01 X42.7112 Y25.4732 F120.00
G01 X42.7170 Y25.4870 F120.00
G01 X42.7217 Y25.5011 F120.00
G01 X42.7439 Y25.5773 F120.00
G01 X42.7475 Y25.5960 F120.00
G01 X42.7493 Y25.6150 F120.00
G01 X42.7495 Y26.5128 F120.00
G01 X42.7492 Y26.5235 F120.00
G01 X42.7484 Y26.5342 F120.00
G01 X42.7449 Y26.5654 F120.00
G01 X42.7414 Y26.5847 F120.00
G01 X42.7389 Y26.5942 F120.00
G01 X42.7344 Y26.6082 F120.00
G01 X42.7267 Y26.6262 F120.00
G01 X42.6840 Y26.7045 F120.00
G01 X42.6761 Y26.7165 F120.00
G01 X42.6673 Y26.7280 F120.00
G01 X42.5977 Y26.8408 F120.00
G01 X42.5567 Y26.9643 F120.00
G01 X42.5495 Y27.0352 F120.00
G01 X42.5495 Y29.9648 F120.00
G01 X42.5567 Y30.0357 F120.00
G01 X42.5977 Y30.1592 F120.00
G01 X42.6262 Y30.2054 F120.00
G01 X42.6348 Y30.2209 F120.00
G01 X42.6423 Y30.2378 F120.00
G01 X42.6612 Y30.2897 F120.00
G01 X42.6669 Y30.3084 F120.00
G01 X42.6708 Y30.3277 F120.00
G01 X42.6729 Y30.3472 F120.00
G01 X42.6729 Y30.3668 F120.00
G01 X42.6711 Y30.3863 F120.00
G01 X42.6612 Y30.4555 F120.00
G01 X42.6574 Y30.4750 F120.00
G01 X42.6516 Y30.4940 F120.00
G01 X42.6461 Y30.5078 F120.00
G01 X42.6396 Y30.5212 F120.00
G01 X42.6321 Y30.5341 F120.00
G01 X42.6237 Y30.5464 F120.00
G01 X42.6143 Y30.5580 F120.00
G01 X42.5653 Y30.6145 F120.00
G01 X42.5512 Y30.6285 F120.00
G01 X42.5358 Y30.6410 F120.00
G01 X42.5192 Y30.6520 F120.00
G01 X42.5016 Y30.6612 F120.00
G01 X42.4832 Y30.6687 F120.00
G01 X42.3976 Y30.6939 F120.00
G01 X42.3836 Y30.6967 F120.00
G01 X42.3741 Y30.6981 F120.00
G01 X42.3599 Y30.6993 F120.00
G01 X42.3504 Y30.6995 F120.00
G01 X38.6445 Y30.6994 F120.00
G01 X38.6291 Y30.6985 F120.00
G01 X38.6139 Y30.6963 F120.00
G01 X38.5547 Y30.6840 F120.00
G01 X38.5358 Y30.6786 F120.00
G01 X38.5176 Y30.6714 F120.00
G01 X38.5002 Y30.6624 F120.00
G01 X38.4877 Y30.6546 F120.00
G01 X38.4797 Y30.6489 F120.00
G01 X38.4109 Y30.5915 F120.00
G01 X38.3970 Y30.5773 F120.00
G01 X38.3906 Y30.5697 F120.00
G01 X38.3817 Y30.5577 F120.00
G01 X38.3713 Y30.5408 F120.00
G01 X38.3667 Y30.5320 F120.00
G01 X38.3607 Y30.5184 F120.00
G01 X38.3557 Y30.5043 F120.00
G01 X38.3348 Y30.4377 F120.00
G01 X38.3309 Y30.4233 F120.00
G01 X38.3289 Y30.4136 F120.00
G01 X38.3267 Y30.3988 F120.00
G01 X38.3259 Y30.3889 F120.00
G01 X38.3257 Y30.3740 F120.00
G01 X38.3270 Y30.3542 F120.00
G01 X38.3303 Y30.3347 F120.00
G01 X38.3512 Y30.2576 F120.00
G01 X38.3554 Y30.2440 F120.00
G01 X38.3626 Y30.2264 F120.00
G01 X38.3690 Y30.2136 F120.00
G01 X38.4023 Y30.1592 F120.00
G01 X38.4433 Y30.0357 F120.00
G01 X38.4505 Y29.9648 F120.00
G01 X38.4505 Y27.0352 F120.00
G01 X38.4433 Y26.9643 F120.00
G01 X38.4023 Y26.8408 F120.00
G01 X38.3348 Y26.7312 F120.00
G01 X38.2438 Y26.6402 F120.00
G01 X38.1342 Y26.5727 F120.00
G01 X38.0107 Y26.5317 F120.00
G01 X37.9398 Y26.5245 F120.00
G01 X36.9602 Y26.5245 F120.00
G01 X36.8893 Y26.5317 F120.00
G01 X36.7658 Y26.5727 F120.00
G01 X36.6562 Y26.6402 F120.00
G01 X36.5652 Y26.7312 F120.00
G01 X36.4977 Y26.8408 F120.00
G01 X36.4567 Y26.9643 F120.00
G01 X36.4495 Y27.0352 F120.00
G01 X36.4495 Y28.2342 F120.00
G01 X36.4489 Y28.2503 F120.00
G01 X36.4449 Y28.2868 F120.00
G01 X36.4425 Y28.3013 F120.00
G01 X36.4389 Y28.3156 F120.00
G01 X36.4326 Y28.3342 F120.00
G01 X36.4245 Y28.3521 F120.00
G01 X36.3864 Y28.4219 F120.00
G01 X36.3788 Y28.4340 F120.00
G01 X36.3704 Y28.4455 F120.00
G01 X36.3612 Y28.4564 F120.00
G01 X36.3546 Y28.4633 F120.00
G01 X36.2133 Y28.6046 F120.00
G01 X36.2055 Y28.6120 F120.00
G01 X36.1767 Y28.6355 F120.00
G01 X36.1650 Y28.6444 F120.00
G01 X36.1483 Y28.6547 F120.00
G01 X36.1352 Y28.6614 F120.00
G01 X36.1216 Y28.6670 F120.00
G01 X36.1076 Y28.6717 F120.00
G01 X36.0406 Y28.6914 F120.00
G01 X36.0221 Y28.6959 F120.00
G01 X36.0032 Y28.6986 F120.00
G01 X35.9842 Y28.6995 F120.00
G01 X34.3484 Y28.6995 F120.00
G01 X34.3334 Y28.6989 F120.00
G01 X34.3185 Y28.6973 F120.00
G01 X34.2989 Y28.6933 F120.00
G01 X34.2395 Y28.6781 F120.00
G01 X34.2255 Y28.6740 F120.00
G01 X34.2163 Y28.6707 F120.00
G01 X34.2029 Y28.6649 F120.00
G01 X34.1900 Y28.6581 F120.00
G01 X34.1776 Y28.6504 F120.00
G01 X34.1619 Y28.6388 F120.00
G01 X34.1510 Y28.6292 F120.00
G01 X34.0913 Y28.5692 F120.00
G01 X34.0817 Y28.5577 F120.00
G01 X34.0758 Y28.5498 F120.00
G01 X34.0677 Y28.5372 F120.00
G01 X34.0606 Y28.5242 F120.00
G01 X34.0526 Y28.5060 F120.00
G01 X34.0465 Y28.4871 F120.00
G01 X34.0293 Y28.4092 F120.00
G01 X34.0274 Y28.3994 F120.00
G01 X34.0255 Y28.3846 F120.00
G01 X34.0247 Y28.3698 F120.00
G01 X34.0250 Y28.3549 F120.00
G01 X34.0265 Y28.3400 F120.00
G01 X34.0280 Y28.3302 F120.00
G01 X34.0313 Y28.3157 F120.00
G01 X34.0356 Y28.3014 F120.00
G01 X34.0634 Y28.2270 F120.00
G01 X34.0690 Y28.2143 F120.00
G01 X34.0765 Y28.2003 F120.00
G01 X31.3500 Y28.2000 F120.00
G01 X31.3353 Y28.1995 F120.00
G01 X31.3158 Y28.1971 F120.00
G01 X31.3062 Y28.1951 F120.00
G01 X31.2919 Y28.1914 F120.00
G01 X31.2735 Y28.1848 F120.00
G01 X31.2645 Y28.1808 F120.00
G01 X31.2514 Y28.1740 F120.00
G01 X31.2348 Y28.1635 F120.00
G01 X31.2194 Y28.1514 F120.00
G01 X31.2052 Y28.1379 F120.00
G01 X31.1954 Y28.1269 F120.00
G01 X31.1894 Y28.1191 F120.00
G01 X31.1785 Y28.1028 F120.00
G01 X31.1714 Y28.0899 F120.00
G01 X31.1672 Y28.0810 F120.00
G01 X31.1601 Y28.0627 F120.00
G01 X31.1549 Y28.0438 F120.00
G01 X31.1522 Y28.0293 F120.00
G01 X31.1502 Y28.0098 F120.00
G01 X31.1500 Y27.9500 F120.00
G01 X31.0500 Y27.9500 F120.00
G01 X31.0500 Y28.0371 F120.00
G01 X31.0526 Y28.0610 F120.00
G01 X31.0840 Y28.1453 F120.00
G01 X31.1357 Y28.2143 F120.00
G01 X31.1751 Y28.2440 F120.00
G01 X31.1985 Y28.2640 F120.00
G01 X31.2087 Y28.2740 F120.00
G01 X31.2151 Y28.2810 F120.00
G01 X31.2240 Y28.2922 F120.00
G01 X31.2322 Y28.3039 F120.00
G01 X31.2395 Y28.3162 F120.00
G01 X31.2729 Y28.3775 F120.00
G01 X31.2775 Y28.3863 F120.00
G01 X31.2835 Y28.4000 F120.00
G01 X31.2898 Y28.4188 F120.00
G01 X31.2943 Y28.4381 F120.00
G01 X31.2964 Y28.4529 F120.00
G01 X31.2974 Y28.4727 F120.00
G01 X31.2969 Y28.4876 F120.00
G01 X31.2919 Y28.5573 F120.00
G01 X31.2895 Y28.5770 F120.00
G01 X31.2864 Y28.5916 F120.00
G01 X31.2823 Y28.6059 F120.00
G01 X31.2771 Y28.6198 F120.00
G01 X31.2709 Y28.6334 F120.00
G01 X31.2636 Y28.6464 F120.00
G01 X31.2555 Y28.6589 F120.00
G01 X31.2107 Y28.7188 F120.00
G01 X31.2017 Y28.7299 F120.00
G01 X31.1920 Y28.7404 F120.00
G01 X31.1779 Y28.7532 F120.00
G01 X31.1353 Y28.7853 F120.00
G01 X31.0835 Y28.8545 F120.00
G01 X31.0521 Y28.9389 F120.00
G01 X31.0495 Y28.9629 F120.00
G01 X31.0495 Y30.0372 F120.00
G01 X31.0521 Y30.0611 F120.00
G01 X31.0835 Y30.1455 F120.00
G01 X31.1353 Y30.2147 F120.00
G01 X31.1747 Y30.2443 F120.00
G01 X31.2015 Y30.2676 F120.00
G01 X31.2115 Y30.2778 F120.00
G01 X31.2207 Y30.2887 F120.00
G01 X31.2291 Y30.3002 F120.00
G01 X31.2343 Y30.3082 F120.00
G01 X31.2749 Y30.3822 F120.00
G01 X31.2831 Y30.4003 F120.00
G01 X31.2894 Y30.4191 F120.00
G01 X31.2929 Y30.4336 F120.00
G01 X31.2960 Y30.4532 F120.00
G01 X31.2970 Y30.4730 F120.00
G01 X31.2965 Y30.4879 F120.00
G01 X31.2915 Y30.5576 F120.00
G01 X31.2891 Y30.5773 F120.00
G01 X31.2860 Y30.5919 F120.00
G01 X31.2819 Y30.6062 F120.00
G01 X31.2767 Y30.6202 F120.00
G01 X31.2704 Y30.6337 F120.00
G01 X31.2632 Y30.6467 F120.00
G01 X31.2551 Y30.6592 F120.00
G01 X31.2103 Y30.7191 F120.00
G01 X31.2013 Y30.7302 F120.00
G01 X31.1882 Y30.7440 F120.00
G01 X31.1775 Y30.7535 F120.00
G01 X31.1353 Y30.7853 F120.00
G01 X31.0835 Y30.8545 F120.00
G01 X31.0521 Y30.9389 F120.00
G01 X31.0495 Y30.9629 F120.00
G01 X31.0495 Y32.0372 F120.00
G01 X31.0521 Y32.0611 F120.00
G01 X31.0835 Y32.1455 F120.00
G01 X31.1353 Y32.2147 F120.00
G01 X31.1747 Y32.2443 F120.00
G01 X31.2015 Y32.2676 F120.00
G01 X31.2115 Y32.2778 F120.00
G01 X31.2207 Y32.2887 F120.00
G01 X31.2291 Y32.3002 F120.00
G01 X31.2343 Y32.3082 F120.00
G01 X31.2749 Y32.3822 F120.00
G01 X31.2831 Y32.4003 F120.00
G01 X31.2880 Y32.4143 F120.00
G01 X31.2929 Y32.4336 F120.00
G01 X31.2960 Y32.4532 F120.00
G01 X31.2970 Y32.4730 F120.00
G01 X31.2965 Y32.4879 F120.00
G01 X31.2915 Y32.5576 F120.00
G01 X31.2891 Y32.5773 F120.00
G01 X31.2860 Y32.5919 F120.00
G01 X31.2819 Y32.6062 F120.00
G01 X31.2767 Y32.6202 F120.00
G01 X31.2704 Y32.6337 F120.00
G01 X31.2632 Y32.6467 F120.00
G01 X31.2551 Y32.6592 F120.00
G01 X31.2103 Y32.7191 F120.00
G01 X31.2013 Y32.7302 F120.00
G01 X31.1882 Y32.7440 F120.00
G01 X31.1775 Y32.7535 F120.00
G01 X31.1353 Y32.7853 F120.00
G01 X31.0835 Y32.8545 F120.00
G01 X31.0521 Y32.9389 F120.00
G01 X31.0495 Y32.9629 F120.00
G01 X31.0495 Y34.0372 F120.00
G01 X31.0521 Y34.0611 F120.00
G01 X31.0835 Y34.1455 F120.00
G01 X31.1353 Y34.2147 F120.00
G01 X31.1747 Y34.2443 F120.00
G01 X31.2015 Y34.2676 F120.00
G01 X31.2115 Y34.2778 F120.00
G01 X31.2207 Y34.2887 F120.00
G01 X31.2291 Y34.3002 F120.00
G01 X31.2343 Y34.3082 F120.00
G01 X31.2749 Y34.3822 F120.00
G01 X31.2831 Y34.4003 F120.00
G01 X31.2880 Y34.4143 F120.00
G01 X31.2929 Y34.4336 F120.00
G01 X31.2960 Y34.4532 F120.00
G01 X31.2970 Y34.4730 F120.00
G01 X31.2965 Y34.4879 F120.00
G01 X31.2915 Y34.5576 F120.00
G01 X31.2891 Y34.5773 F120.00
G01 X31.2860 Y34.5919 F120.00
G01 X31.2819 Y34.6062 F120.00
G01 X31.2767 Y34.6202 F120.00
G01 X31.2704 Y34.6337 F120.00
G01 X31.2632 Y34.6467 F120.00
G01 X31.2551 Y34.6592 F120.00
G01 X31.2103 Y34.7191 F120.00
G01 X31.2013 Y34.7302 F120.00
G01 X31.1882 Y34.7440 F120.00
G01 X31.1775 Y34.7535 F120.00
G01 X31.1353 Y34.7853 F120.00
G01 X31.0835 Y34.8545 F120.00
G01 X31.0521 Y34.9389 F120.00
G01 X31.0495 Y34.9629 F120.00
G01 X31.0495 Y36.0372 F120.00
G01 X31.0521 Y36.0611 F120.00
G01 X31.0835 Y36.1455 F120.00
G01 X31.1353 Y36.2147 F120.00
G01 X31.1747 Y36.2443 F120.00
G01 X31.2015 Y36.2676 F120.00
G01 X31.2115 Y36.2778 F120.00
G01 X31.2207 Y36.2887 F120.00
G01 X31.2291 Y36.3002 F120.00
G01 X31.2343 Y36.3082 F120.00
G01 X31.2749 Y36.3822 F120.00
G01 X31.2831 Y36.4003 F120.00
G01 X31.2880 Y36.4143 F120.00
G01 X31.2929 Y36.4336 F120.00
G01 X31.2960 Y36.4532 F120.00
G01 X31.2970 Y36.4730 F120.00
G01 X31.2965 Y36.4879 F120.00
G01 X31.2915 Y36.5576 F120.00
G01 X31.2891 Y36.5773 F120.00
G01 X31.2860 Y36.5919 F120.00
G01 X31.2819 Y36.6062 F120.00
G01 X31.2767 Y36.6202 F120.00
G01 X31.2704 Y36.6337 F120.00
G01 X31.2632 Y36.6467 F120.00
G01 X31.2551 Y36.6592 F120.00
G01 X31.2103 Y36.7191 F120.00
G01 X31.2013 Y36.7302 F120.00
G01 X31.1882 Y36.7440 F120.00
G01 X31.1775 Y36.7535 F120.00
G01 X31.1353 Y36.7853 F120.00
G01 X31.0835 Y36.8545 F120.00
G01 X31.0521 Y36.9389 F120.00
G01 X31.0495 Y36.9628 F120.00
G01 X31.0496 Y38.0379 F120.00
G01 X31.0521 Y38.0611 F120.00
G01 X31.0835 Y38.1455 F120.00
G01 X31.1353 Y38.2147 F120.00
G01 X31.1747 Y38.2443 F120.00
G01 X31.2015 Y38.2676 F120.00
G01 X31.2115 Y38.2778 F120.00
G01 X31.2207 Y38.2887 F120.00
G01 X31.2291 Y38.3002 F120.00
G01 X31.2343 Y38.3082 F120.00
G01 X31.2749 Y38.3822 F120.00
G01 X31.2831 Y38.4003 F120.00
G01 X31.2880 Y38.4143 F120.00
G01 X31.2929 Y38.4336 F120.00
G01 X31.2960 Y38.4532 F120.00
G01 X31.2970 Y38.4730 F120.00
G01 X31.2965 Y38.4879 F120.00
G01 X31.2915 Y38.5576 F120.00
G01 X31.2891 Y38.5773 F120.00
G01 X31.2860 Y38.5919 F120.00
G01 X31.2819 Y38.6062 F120.00
G01 X31.2767 Y38.6202 F120.00
G01 X31.2704 Y38.6337 F120.00
G01 X31.2632 Y38.6467 F120.00
G01 X31.2551 Y38.6592 F120.00
G01 X31.2103 Y38.7191 F120.00
G01 X31.2013 Y38.7302 F120.00
G01 X31.1882 Y38.7440 F120.00
G01 X31.1775 Y38.7535 F120.00
G01 X31.1353 Y38.7853 F120.00
G01 X31.0835 Y38.8545 F120.00
G01 X31.0521 Y38.9389 F120.00
G01 X31.0495 Y38.9629 F120.00
G01 X31.0495 Y40.0372 F120.00
G01 X31.0521 Y40.0611 F120.00
G01 X31.0835 Y40.1455 F120.00
G01 X31.1353 Y40.2147 F120.00
G01 X31.1747 Y40.2443 F120.00
G01 X31.2015 Y40.2676 F120.00
G01 X31.2115 Y40.2778 F120.00
G01 X31.2207 Y40.2887 F120.00
G01 X31.2291 Y40.3002 F120.00
G01 X31.2343 Y40.3082 F120.00
G01 X31.2749 Y40.3822 F120.00
G01 X31.2831 Y40.4003 F120.00
G01 X31.2880 Y40.4143 F120.00
G01 X31.2929 Y40.4336 F120.00
G01 X31.2960 Y40.4532 F120.00
G01 X31.2970 Y40.4730 F120.00
G01 X31.2965 Y40.4879 F120.00
G01 X31.2915 Y40.5576 F120.00
G01 X31.2891 Y40.5773 F120.00
G01 X31.2860 Y40.5919 F120.00
G01 X31.2819 Y40.6062 F120.00
G01 X31.2767 Y40.6202 F120.00
G01 X31.2681 Y40.6381 F120.00
G01 X31.2632 Y40.6467 F120.00
G01 X31.2551 Y40.6592 F120.00
G01 X31.2103 Y40.7191 F120.00
G01 X31.2013 Y40.7302 F120.00
G01 X31.1882 Y40.7440 F120.00
G01 X31.1775 Y40.7535 F120.00
G01 X31.1353 Y40.7853 F120.00
G01 X31.0835 Y40.8545 F120.00
G01 X31.0521 Y40.9389 F120.00
G01 X31.0495 Y40.9629 F120.00
G01 X31.0495 Y42.0372 F120.00
G01 X31.0521 Y42.0611 F120.00
G01 X31.0835 Y42.1455 F120.00
G01 X31.1353 Y42.2147 F120.00
G01 X31.2045 Y42.2665 F120.00
G01 X31.2889 Y42.2979 F120.00
G01 X31.3129 Y42.3005 F120.00
G01 X35.3099 Y42.3005 F120.00
G01 X35.3206 Y42.3008 F120.00
G01 X35.3576 Y42.3045 F120.00
G01 X35.3722 Y42.3066 F120.00
G01 X35.3866 Y42.3098 F120.00
G01 X35.4053 Y42.3156 F120.00
G01 X35.4189 Y42.3212 F120.00
G01 X35.4321 Y42.3278 F120.00
G01 X35.4978 Y42.3637 F120.00
G01 X35.5144 Y42.3745 F120.00
G01 X35.5262 Y42.3837 F120.00
G01 X35.5372 Y42.3936 F120.00
G01 X35.5475 Y42.4044 F120.00
G01 X35.5599 Y42.4200 F120.00
G01 X35.5655 Y42.4282 F120.00
G01 X35.5731 Y42.4410 F120.00
G01 X35.6111 Y42.5111 F120.00
G01 X35.6189 Y42.5294 F120.00
G01 X35.6221 Y42.5388 F120.00
G01 X35.6259 Y42.5532 F120.00
G01 X35.6279 Y42.5629 F120.00
G01 X35.6300 Y42.5777 F120.00
G01 X35.6310 Y42.5926 F120.00
G01 X35.6310 Y42.6025 F120.00
G01 X35.6256 Y42.6821 F120.00
G01 X35.6240 Y42.6969 F120.00
G01 X35.6212 Y42.7116 F120.00
G01 X35.6188 Y42.7212 F120.00
G01 X35.6143 Y42.7354 F120.00
G01 X35.6088 Y42.7492 F120.00
G01 X35.5998 Y42.7669 F120.00
G01 X35.5891 Y42.7837 F120.00
G01 X35.5414 Y42.8474 F120.00
G01 X35.5290 Y42.8618 F120.00
G01 X35.5187 Y42.8718 F120.00
G01 X35.5078 Y42.8810 F120.00
G01 X35.4353 Y42.9353 F120.00
G01 X35.3835 Y43.0045 F120.00
G01 X35.3521 Y43.0889 F120.00
G01 X35.3495 Y43.1129 F120.00
G01 X35.3495 Y44.8872 F120.00
G01 X35.3521 Y44.9111 F120.00
G01 X35.3835 Y44.9955 F120.00
G01 X35.4353 Y45.0647 F120.00
G01 X35.5062 Y45.1177 F120.00
G01 X35.5170 Y45.1228 F120.00
G01 X35.5300 Y45.1299 F120.00
G01 X35.5424 Y45.1380 F120.00
G01 X35.5542 Y45.1470 F120.00
G01 X35.6181 Y45.2026 F120.00
G01 X35.6318 Y45.2171 F120.00
G01 X35.6439 Y45.2328 F120.00
G01 X35.6520 Y45.2453 F120.00
G01 X35.6591 Y45.2584 F120.00
G01 X35.6652 Y45.2720 F120.00
G01 X35.6703 Y45.2860 F120.00
G01 X35.6939 Y45.3670 F120.00
G01 X35.6975 Y45.3857 F120.00
G01 X35.6990 Y45.3999 F120.00
G01 X35.6995 Y45.4141 F120.00
G01 X35.6995 Y50.0342 F120.00
G01 X35.6992 Y50.0449 F120.00
G01 X35.6955 Y50.0820 F120.00
G01 X35.6934 Y50.0965 F120.00
G01 X35.6889 Y50.1156 F120.00
G01 X35.6826 Y50.1342 F120.00
G01 X35.6745 Y50.1521 F120.00
G01 X35.6364 Y50.2219 F120.00
G01 X35.6261 Y50.2379 F120.00
G01 X35.6174 Y50.2492 F120.00
G01 X35.6046 Y50.2633 F120.00
G01 X35.2633 Y50.6046 F120.00
G01 X35.2555 Y50.6120 F120.00
G01 X35.2474 Y50.6189 F120.00
G01 X35.2229 Y50.6386 F120.00
G01 X35.2150 Y50.6444 F120.00
G01 X35.2025 Y50.6523 F120.00
G01 X35.1896 Y50.6593 F120.00
G01 X35.1716 Y50.6670 F120.00
G01 X35.1576 Y50.6717 F120.00
G01 X35.0906 Y50.6914 F120.00
G01 X35.0767 Y50.6949 F120.00
G01 X35.0674 Y50.6967 F120.00
G01 X35.0532 Y50.6986 F120.00
G01 X35.0342 Y50.6995 F120.00
G01 X15.9604 Y50.6994 F120.00
G01 X15.9444 Y50.6984 F120.00
G01 X15.9132 Y50.6949 F120.00
G01 X15.9035 Y50.6934 F120.00
G01 X15.8844 Y50.6889 F120.00
G01 X15.8658 Y50.6826 F120.00
G01 X15.8479 Y50.6745 F120.00
G01 X15.7781 Y50.6364 F120.00
G01 X15.7621 Y50.6261 F120.00
G01 X15.7471 Y50.6143 F120.00
G01 X15.7367 Y50.6046 F120.00
G01 X15.3917 Y50.2595 F120.00
G01 X15.3811 Y50.2474 F120.00
G01 X15.3614 Y50.2229 F120.00
G01 X15.3503 Y50.2067 F120.00
G01 X15.3430 Y50.1940 F120.00
G01 X15.3386 Y50.1852 F120.00
G01 X15.3330 Y50.1716 F120.00
G01 X15.3297 Y50.1623 F120.00
G01 X15.3086 Y50.0906 F120.00
G01 X15.3051 Y50.0767 F120.00
G01 X15.3019 Y50.0580 F120.00
G01 X15.3007 Y50.0437 F120.00
G01 X15.3005 Y50.0342 F120.00
G01 X15.3005 Y42.6245 F120.00
G01 X15.3014 Y42.6055 F120.00
G01 X15.3025 Y42.5960 F120.00
G01 X15.3051 Y42.5820 F120.00
G01 X15.3186 Y42.5208 F120.00
G01 X15.3231 Y42.5065 F120.00
G01 X15.3286 Y42.4925 F120.00
G01 X15.3352 Y42.4790 F120.00
G01 X15.3427 Y42.4661 F120.00
G01 X15.3512 Y42.4537 F120.00
G01 X15.3606 Y42.4420 F120.00
G01 X15.4130 Y42.3819 F120.00
G01 X15.4274 Y42.3682 F120.00
G01 X15.4351 Y42.3620 F120.00
G01 X15.4473 Y42.3533 F120.00
G01 X15.4557 Y42.3480 F120.00
G01 X15.4688 Y42.3409 F120.00
G01 X15.4824 Y42.3348 F120.00
G01 X15.4964 Y42.3297 F120.00
G01 X15.5773 Y42.3061 F120.00
G01 X15.5960 Y42.3025 F120.00
G01 X15.6150 Y42.3007 F120.00
G01 X18.6872 Y42.3005 F120.00
G01 X18.7111 Y42.2979 F120.00
G01 X18.7955 Y42.2665 F120.00
G01 X18.8647 Y42.2147 F120.00
G01 X18.9165 Y42.1455 F120.00
G01 X18.9479 Y42.0611 F120.00
G01 X18.9505 Y42.0372 F120.00
G01 X18.9505 Y40.9628 F120.00
G01 X18.9479 Y40.9389 F120.00
G01 X18.9165 Y40.8545 F120.00
G01 X18.8647 Y40.7853 F120.00
G01 X18.8253 Y40.7557 F120.00
G01 X18.7985 Y40.7324 F120.00
G01 X18.7885 Y40.7222 F120.00
G01 X18.7793 Y40.7113 F120.00
G01 X18.7709 Y40.6998 F120.00
G01 X18.7657 Y40.6918 F120.00
G01 X18.7251 Y40.6178 F120.00
G01 X18.7169 Y40.5997 F120.00
G01 X18.7106 Y40.5809 F120.00
G01 X18.7061 Y40.5616 F120.00
G01 X18.7036 Y40.5419 F120.00
G01 X18.7030 Y40.5270 F120.00
G01 X18.7035 Y40.5121 F120.00
G01 X18.7085 Y40.4424 F120.00
G01 X18.7109 Y40.4227 F120.00
G01 X18.7140 Y40.4081 F120.00
G01 X18.7181 Y40.3938 F120.00
G01 X18.7233 Y40.3798 F120.00
G01 X18.7319 Y40.3619 F120.00
G01 X18.7394 Y40.3491 F120.00
G01 X18.7449 Y40.3408 F120.00
G01 X18.7897 Y40.2809 F120.00
G01 X18.7987 Y40.2698 F120.00
G01 X18.8118 Y40.2560 F120.00
G01 X18.8225 Y40.2465 F120.00
G01 X18.8647 Y40.2147 F120.00
G01 X18.9165 Y40.1455 F120.00
G01 X18.9479 Y40.0611 F120.00
G01 X18.9505 Y40.0372 F120.00
G01 X18.9505 Y38.9628 F120.00
G01 X18.9479 Y38.9389 F120.00
G01 X18.9165 Y38.8545 F120.00
G01 X18.8647 Y38.7853 F120.00
G01 X18.8253 Y38.7557 F120.00
G01 X18.7985 Y38.7324 F120.00
G01 X18.7885 Y38.7222 F120.00
G01 X18.7793 Y38.7113 F120.00
G01 X18.7709 Y38.6998 F120.00
G01 X18.7633 Y38.6877 F120.00
G01 X18.7251 Y38.6178 F120.00
G01 X18.7188 Y38.6043 F120.00
G01 X18.7152 Y38.5951 F120.00
G01 X18.7106 Y38.5809 F120.00
G01 X18.7061 Y38.5616 F120.00
G01 X18.7036 Y38.5419 F120.00
G01 X18.7030 Y38.5270 F120.00
G01 X18.7035 Y38.5121 F120.00
G01 X18.7085 Y38.4424 F120.00
G01 X18.7109 Y38.4227 F120.00
G01 X18.7140 Y38.4081 F120.00
G01 X18.7181 Y38.3938 F120.00
G01 X18.7233 Y38.3798 F120.00
G01 X18.7319 Y38.3619 F120.00
G01 X18.7394 Y38.3491 F120.00
G01 X18.7449 Y38.3408 F120.00
G01 X18.7897 Y38.2809 F120.00
G01 X18.7987 Y38.2698 F120.00
G01 X18.8084 Y38.2593 F120.00
G01 X18.8225 Y38.2465 F120.00
G01 X18.8647 Y38.2147 F120.00
G01 X18.9165 Y38.1455 F120.00
G01 X18.9479 Y38.0611 F120.00
G01 X18.9505 Y38.0372 F120.00
G01 X18.9505 Y36.9628 F120.00
G01 X18.9479 Y36.9389 F120.00
G01 X18.9165 Y36.8545 F120.00
G01 X18.8647 Y36.7853 F120.00
G01 X18.8253 Y36.7557 F120.00
G01 X18.7985 Y36.7324 F120.00
G01 X18.7885 Y36.7222 F120.00
G01 X18.7793 Y36.7113 F120.00
G01 X18.7709 Y36.6998 F120.00
G01 X18.7633 Y36.6877 F120.00
G01 X18.7251 Y36.6178 F120.00
G01 X18.7188 Y36.6043 F120.00
G01 X18.7152 Y36.5951 F120.00
G01 X18.7106 Y36.5809 F120.00
G01 X18.7061 Y36.5616 F120.00
G01 X18.7036 Y36.5419 F120.00
G01 X18.7030 Y36.5270 F120.00
G01 X18.7035 Y36.5121 F120.00
G01 X18.7085 Y36.4424 F120.00
G01 X18.7109 Y36.4227 F120.00
G01 X18.7140 Y36.4081 F120.00
G01 X18.7181 Y36.3938 F120.00
G01 X18.7233 Y36.3798 F120.00
G01 X18.7319 Y36.3619 F120.00
G01 X18.7394 Y36.3491 F120.00
G01 X18.7449 Y36.3408 F120.00
G01 X18.7897 Y36.2809 F120.00
G01 X18.7987 Y36.2698 F120.00
G01 X18.8084 Y36.2593 F120.00
G01 X18.8225 Y36.2465 F120.00
G01 X18.8647 Y36.2147 F120.00
G01 X18.9165 Y36.1455 F120.00
G01 X18.9479 Y36.0611 F120.00
G01 X18.9505 Y36.0372 F120.00
G01 X18.9505 Y34.9628 F120.00
G01 X18.9479 Y34.9389 F120.00
G01 X18.9165 Y34.8545 F120.00
G01 X18.8647 Y34.7853 F120.00
G01 X18.8253 Y34.7557 F120.00
G01 X18.7985 Y34.7324 F120.00
G01 X18.7885 Y34.7222 F120.00
G01 X18.7793 Y34.7113 F120.00
G01 X18.7709 Y34.6998 F120.00
G01 X18.7633 Y34.6877 F120.00
G01 X18.7251 Y34.6178 F120.00
G01 X18.7188 Y34.6043 F120.00
G01 X18.7152 Y34.5951 F120.00
G01 X18.7106 Y34.5809 F120.00
G01 X18.7061 Y34.5616 F120.00
G01 X18.7036 Y34.5419 F120.00
G01 X18.7030 Y34.5270 F120.00
G01 X18.7035 Y34.5121 F120.00
G01 X18.7085 Y34.4424 F120.00
G01 X18.7109 Y34.4227 F120.00
G01 X18.7140 Y34.4081 F120.00
G01 X18.7181 Y34.3938 F120.00
G01 X18.7233 Y34.3798 F120.00
G01 X18.7319 Y34.3619 F120.00
G01 X18.7394 Y34.3491 F120.00
G01 X18.7449 Y34.3408 F120.00
G01 X18.7897 Y34.2809 F120.00
G01 X18.7987 Y34.2698 F120.00
G01 X18.8118 Y34.2560 F120.00
G01 X18.8225 Y34.2465 F120.00
G01 X18.8647 Y34.2147 F120.00
G01 X18.9165 Y34.1455 F120.00
G01 X18.9479 Y34.0611 F120.00
G01 X18.9505 Y34.0372 F120.00
G01 X18.9505 Y32.9628 F120.00
G01 X18.9479 Y32.9389 F120.00
G01 X18.9165 Y32.8545 F120.00
G01 X18.8647 Y32.7853 F120.00
G01 X18.8253 Y32.7557 F120.00
G01 X18.7985 Y32.7324 F120.00
G01 X18.7885 Y32.7222 F120.00
G01 X18.7793 Y32.7113 F120.00
G01 X18.7709 Y32.6998 F120.00
G01 X18.7633 Y32.6877 F120.00
G01 X18.7251 Y32.6178 F120.00
G01 X18.7188 Y32.6043 F120.00
G01 X18.7152 Y32.5951 F120.00
G01 X18.7106 Y32.5809 F120.00
G01 X18.7061 Y32.5616 F120.00
G01 X18.7036 Y32.5419 F120.00
G01 X18.7030 Y32.5270 F120.00
G01 X18.7035 Y32.5121 F120.00
G01 X18.7085 Y32.4424 F120.00
G01 X18.7109 Y32.4227 F120.00
G01 X18.7140 Y32.4081 F120.00
G01 X18.7181 Y32.3938 F120.00
G01 X18.7233 Y32.3798 F120.00
G01 X18.7319 Y32.3619 F120.00
G01 X18.7394 Y32.3491 F120.00
G01 X18.7449 Y32.3408 F120.00
G01 X18.7897 Y32.2809 F120.00
G01 X18.7987 Y32.2698 F120.00
G01 X18.8084 Y32.2593 F120.00
G01 X18.8225 Y32.2465 F120.00
G01 X18.8647 Y32.2147 F120.00
G01 X18.9165 Y32.1455 F120.00
G01 X18.9479 Y32.0611 F120.00
G01 X18.9505 Y32.0372 F120.00
G01 X18.9505 Y30.9628 F120.00
G01 X18.9479 Y30.9389 F120.00
G01 X18.9165 Y30.8545 F120.00
G01 X18.8647 Y30.7853 F120.00
G01 X18.8253 Y30.7557 F120.00
G01 X18.7985 Y30.7324 F120.00
G01 X18.7885 Y30.7222 F120.00
G01 X18.7793 Y30.7113 F120.00
G01 X18.7709 Y30.6998 F120.00
G01 X18.7633 Y30.6877 F120.00
G01 X18.7251 Y30.6178 F120.00
G01 X18.7188 Y30.6043 F120.00
G01 X18.7152 Y30.5951 F120.00
G01 X18.7106 Y30.5809 F120.00
G01 X18.7061 Y30.5616 F120.00
G01 X18.7036 Y30.5419 F120.00
G01 X18.7030 Y30.5270 F120.00
G01 X18.7035 Y30.5121 F120.00
G01 X18.7085 Y30.4424 F120.00
G01 X18.7109 Y30.4227 F120.00
G01 X18.7140 Y30.4081 F120.00
G01 X18.7181 Y30.3938 F120.00
G01 X18.7233 Y30.3798 F120.00
G01 X18.7319 Y30.3619 F120.00
G01 X18.7368 Y30.3533 F120.00
G01 X18.7449 Y30.3408 F120.00
G01 X18.7897 Y30.2809 F120.00
G01 X18.7987 Y30.2698 F120.00
G01 X18.8084 Y30.2593 F120.00
G01 X18.8225 Y30.2465 F120.00
G01 X18.8647 Y30.2147 F120.00
G01 X18.9165 Y30.1455 F120.00
G01 X18.9479 Y30.0611 F120.00
G01 X18.9505 Y30.0372 F120.00
G01 X18.9505 Y28.9628 F120.00
G01 X18.9479 Y28.9389 F120.00
G01 X18.9165 Y28.8545 F120.00
G01 X18.8647 Y28.7853 F120.00
G01 X18.8253 Y28.7557 F120.00
G01 X18.7985 Y28.7324 F120.00
G01 X18.7885 Y28.7222 F120.00
G01 X18.7793 Y28.7113 F120.00
G01 X18.7709 Y28.6998 F120.00
G01 X18.7633 Y28.6877 F120.00
G01 X18.7251 Y28.6178 F120.00
G01 X18.7188 Y28.6043 F120.00
G01 X18.7152 Y28.5951 F120.00
G01 X18.7106 Y28.5809 F120.00
G01 X18.7061 Y28.5616 F120.00
G01 X18.7036 Y28.5419 F120.00
G01 X18.7030 Y28.5270 F120.00
G01 X18.7035 Y28.5121 F120.00
G01 X18.7085 Y28.4424 F120.00
G01 X18.7109 Y28.4227 F120.00
G01 X18.7140 Y28.4081 F120.00
G01 X18.7181 Y28.3938 F120.00
G01 X18.7233 Y28.3798 F120.00
G01 X18.7319 Y28.3619 F120.00
G01 X18.7368 Y28.3533 F120.00
G01 X18.7449 Y28.3408 F120.00
G01 X18.7897 Y28.2809 F120.00
G01 X18.7987 Y28.2698 F120.00
G01 X18.8084 Y28.2593 F120.00
G01 X18.8225 Y28.2465 F120.00
G01 X18.8647 Y28.2147 F120.00
G01 X18.9165 Y28.1455 F120.00
G01 X18.9479 Y28.0611 F120.00
G01 X18.9505 Y28.0371 F120.00
G01 X18.9505 Y27.4824 F120.00
G01 X18.9508 Y27.4717 F120.00
G01 X18.9516 Y27.4610 F120.00
G01 X18.9551 Y27.4298 F120.00
G01 X18.9575 Y27.4153 F120.00
G01 X18.9625 Y27.3963 F120.00
G01 X18.9692 Y27.3779 F120.00
G01 X18.9778 Y27.3602 F120.00
G01 X19.0137 Y27.2946 F120.00
G01 X19.0217 Y27.2820 F120.00
G01 X19.0305 Y27.2700 F120.00
G01 X19.0402 Y27.2587 F120.00
G01 X19.0508 Y27.2481 F120.00
G01 X19.0620 Y27.2384 F120.00
G01 X19.0740 Y27.2296 F120.00
G01 X19.0910 Y27.2192 F120.00
G01 X19.1567 Y27.1834 F120.00
G01 X19.1748 Y27.1752 F120.00
G01 X19.1936 Y27.1688 F120.00
G01 X19.2081 Y27.1653 F120.00
G01 X19.2178 Y27.1636 F120.00
G01 X19.2376 Y27.1615 F120.00
G01 X19.2475 Y27.1613 F120.00
G01 X19.2624 Y27.1618 F120.00
G01 X19.3321 Y27.1667 F120.00
G01 X19.3510 Y27.1690 F120.00
G01 X19.3650 Y27.1719 F120.00
G01 X19.3787 Y27.1757 F120.00
G01 X19.4389 Y27.1979 F120.00
G01 X19.4629 Y27.2005 F120.00
G01 X20.5372 Y27.2005 F120.00
G01 X20.5611 Y27.1979 F120.00
G01 X20.6455 Y27.1665 F120.00
G01 X20.7147 Y27.1147 F120.00
G01 X20.7443 Y27.0753 F120.00
G01 X20.7676 Y27.0485 F120.00
G01 X20.7778 Y27.0385 F120.00
G01 X20.7850 Y27.0323 F120.00
G01 X20.7963 Y27.0236 F120.00
G01 X20.8082 Y27.0157 F120.00
G01 X20.8822 Y26.9751 F120.00
G01 X20.9003 Y26.9669 F120.00
G01 X20.9191 Y26.9606 F120.00
G01 X20.9384 Y26.9561 F120.00
G01 X20.9581 Y26.9536 F120.00
G01 X20.9730 Y26.9530 F120.00
G01 X20.9879 Y26.9535 F120.00
G01 X21.0576 Y26.9585 F120.00
G01 X21.0773 Y26.9609 F120.00
G01 X21.0919 Y26.9640 F120.00
G01 X21.1062 Y26.9681 F120.00
G01 X21.1202 Y26.9733 F120.00
G01 X21.1337 Y26.9796 F120.00
G01 X21.1467 Y26.9868 F120.00
G01 X21.1592 Y26.9949 F120.00
G01 X21.2191 Y27.0397 F120.00
G01 X21.2302 Y27.0487 F120.00
G01 X21.2440 Y27.0618 F120.00
G01 X21.2535 Y27.0725 F120.00
G01 X21.2853 Y27.1147 F120.00
G01 X21.3545 Y27.1665 F120.00
G01 X21.4389 Y27.1979 F120.00
G01 X21.4629 Y27.2005 F120.00
G01 X22.5372 Y27.2005 F120.00
G01 X22.5611 Y27.1979 F120.00
G01 X22.6455 Y27.1665 F120.00
G01 X22.7147 Y27.1147 F120.00
G01 X22.7443 Y27.0753 F120.00
G01 X22.7676 Y27.0485 F120.00
G01 X22.7778 Y27.0385 F120.00
G01 X22.7887 Y27.0293 F120.00
G01 X22.7963 Y27.0236 F120.00
G01 X22.8082 Y27.0157 F120.00
G01 X22.8822 Y26.9751 F120.00
G01 X22.9003 Y26.9669 F120.00
G01 X22.9191 Y26.9606 F120.00
G01 X22.9336 Y26.9571 F120.00
G01 X22.9532 Y26.9540 F120.00
G01 X22.9730 Y26.9530 F120.00
G01 X22.9879 Y26.9535 F120.00
G01 X23.0576 Y26.9585 F120.00
G01 X23.0773 Y26.9609 F120.00
G01 X23.0919 Y26.9640 F120.00
G01 X23.1062 Y26.9681 F120.00
G01 X23.1202 Y26.9733 F120.00
G01 X23.1337 Y26.9796 F120.00
G01 X23.1467 Y26.9868 F120.00
G01 X23.1592 Y26.9949 F120.00
G01 X23.2191 Y27.0397 F120.00
G01 X23.2302 Y27.0487 F120.00
G01 X23.2440 Y27.0618 F120.00
G01 X23.2535 Y27.0725 F120.00
G01 X23.2853 Y27.1147 F120.00
G01 X23.3545 Y27.1665 F120.00
G01 X23.4389 Y27.1979 F120.00
G01 X23.4629 Y27.2005 F120.00
G01 X24.5372 Y27.2005 F120.00
G01 X24.5611 Y27.1979 F120.00
G01 X24.6455 Y27.1665 F120.00
G01 X24.7147 Y27.1147 F120.00
G01 X24.7443 Y27.0753 F120.00
G01 X24.7676 Y27.0485 F120.00
G01 X24.7778 Y27.0385 F120.00
G01 X24.7887 Y27.0293 F120.00
G01 X24.7963 Y27.0236 F120.00
G01 X24.8082 Y27.0157 F120.00
G01 X24.8822 Y26.9751 F120.00
G01 X24.9003 Y26.9669 F120.00
G01 X24.9191 Y26.9606 F120.00
G01 X24.9336 Y26.9571 F120.00
G01 X24.9532 Y26.9540 F120.00
G01 X24.9730 Y26.9530 F120.00
G01 X24.9879 Y26.9535 F120.00
G01 X25.0576 Y26.9585 F120.00
G01 X25.0773 Y26.9609 F120.00
G01 X25.0919 Y26.9640 F120.00
G01 X25.1062 Y26.9681 F120.00
G01 X25.1202 Y26.9733 F120.00
G01 X25.1337 Y26.9796 F120.00
G01 X25.1467 Y26.9868 F120.00
G01 X25.1592 Y26.9949 F120.00
G01 X25.2191 Y27.0397 F120.00
G01 X25.2302 Y27.0487 F120.00
G01 X25.2440 Y27.0618 F120.00
G01 X25.2535 Y27.0725 F120.00
G01 X25.2853 Y27.1147 F120.00
G01 X25.3545 Y27.1665 F120.00
G01 X25.4389 Y27.1979 F120.00
G01 X25.4629 Y27.2005 F120.00
G01 X26.5372 Y27.2005 F120.00
G01 X26.5611 Y27.1979 F120.00
G01 X26.6455 Y27.1665 F120.00
G01 X26.7147 Y27.1147 F120.00
G01 X26.7443 Y27.0753 F120.00
G01 X26.7676 Y27.0485 F120.00
G01 X26.7778 Y27.0385 F120.00
G01 X26.7887 Y27.0293 F120.00
G01 X26.7963 Y27.0236 F120.00
G01 X26.8082 Y27.0157 F120.00
G01 X26.8822 Y26.9751 F120.00
G01 X26.9003 Y26.9669 F120.00
G01 X26.9191 Y26.9606 F120.00
G01 X26.9336 Y26.9571 F120.00
G01 X26.9532 Y26.9540 F120.00
G01 X26.9730 Y26.9530 F120.00
G01 X26.9879 Y26.9535 F120.00
G01 X27.0576 Y26.9585 F120.00
G01 X27.0773 Y26.9609 F120.00
G01 X27.0919 Y26.9640 F120.00
G01 X27.1062 Y26.9681 F120.00
G01 X27.1202 Y26.9733 F120.00
G01 X27.1337 Y26.9796 F120.00
G01 X27.1467 Y26.9868 F120.00
G01 X27.1592 Y26.9949 F120.00
G01 X27.2191 Y27.0397 F120.00
G01 X27.2302 Y27.0487 F120.00
G01 X27.2440 Y27.0618 F120.00
G01 X27.2535 Y27.0725 F120.00
G01 X27.2853 Y27.1147 F120.00
G01 X27.3545 Y27.1665 F120.00
G01 X27.4389 Y27.1979 F120.00
G01 X27.4629 Y27.2005 F120.00
G01 X28.5372 Y27.2005 F120.00
G01 X28.5611 Y27.1979 F120.00
G01 X28.6455 Y27.1665 F120.00
G01 X28.7147 Y27.1147 F120.00
G01 X28.7443 Y27.0753 F120.00
G01 X28.7676 Y27.0485 F120.00
G01 X28.7778 Y27.0385 F120.00
G01 X28.7887 Y27.0293 F120.00
G01 X28.7963 Y27.0236 F120.00
G01 X28.8082 Y27.0157 F120.00
G01 X28.8822 Y26.9751 F120.00
G01 X28.9003 Y26.9669 F120.00
G01 X28.9191 Y26.9606 F120.00
G01 X28.9336 Y26.9571 F120.00
G01 X28.9532 Y26.9540 F120.00
G01 X28.9730 Y26.9530 F120.00
G01 X28.9879 Y26.9535 F120.00
G01 X29.0576 Y26.9585 F120.00
G01 X29.0773 Y26.9609 F120.00
G01 X29.0967 Y26.9652 F120.00
G01 X29.1109 Y26.9697 F120.00
G01 X29.1247 Y26.9753 F120.00
G01 X29.1381 Y26.9819 F120.00
G01 X29.1509 Y26.9894 F120.00
G01 X29.1592 Y26.9949 F120.00
G01 X29.2191 Y27.0397 F120.00
G01 X29.2302 Y27.0487 F120.00
G01 X29.2440 Y27.0618 F120.00
G01 X29.2535 Y27.0725 F120.00
G01 X29.2853 Y27.1147 F120.00
G01 X29.3545 Y27.1665 F120.00
G01 X29.4389 Y27.1979 F120.00
G01 X29.4629 Y27.2005 F120.00
G01 X30.5372 Y27.2005 F120.00
G01 X30.5611 Y27.1979 F120.00
G01 X30.6455 Y27.1665 F120.00
G01 X30.7205 Y27.1104 F120.00
G01 X30.7361 Y27.1000 F120.00
G01 X30.7489 Y27.0926 F120.00
G01 X30.7668 Y27.0843 F120.00
G01 X30.7808 Y27.0792 F120.00
G01 X30.8617 Y27.0556 F120.00
G01 X30.8757 Y27.0528 F120.00
G01 X30.8852 Y27.0514 F120.00
G01 X30.9041 Y27.0501 F120.00
G01 X31.1500 Y27.0500 F120.00
G01 X31.1502 Y26.9902 F120.00
G01 X31.1515 Y26.9755 F120.00
G01 X31.1538 Y26.9610 F120.00
G01 X31.1586 Y26.9419 F120.00
G01 X31.1652 Y26.9235 F120.00
G01 X31.1714 Y26.9101 F120.00
G01 X31.1810 Y26.8930 F120.00
G01 X31.1923 Y26.8770 F120.00
G01 X31.2052 Y26.8621 F120.00
G01 X31.2194 Y26.8486 F120.00
G01 X31.2348 Y26.8365 F120.00
G01 X31.2514 Y26.8260 F120.00
G01 X31.2690 Y26.8172 F120.00
G01 X31.2873 Y26.8101 F120.00
G01 X31.3014 Y26.8060 F120.00
G01 X31.3158 Y26.8029 F120.00
G01 X31.3255 Y26.8015 F120.00
G01 X31.3402 Y26.8002 F120.00
G01 X31.3500 Y26.8000 F120.00
G01 X32.1500 Y26.8000 F120.00
G01 X32.1500 Y26.7000 F120.00
G01 X31.3129 Y26.7000 F120.00
G01 X31.2890 Y26.7026 F120.00
G01 X31.2276 Y26.7252 F120.00
G01 X31.1868 Y26.7358 F120.00
G01 X31.1724 Y26.7386 F120.00
G01 X31.1577 Y26.7402 F120.00
G01 X31.1430 Y26.7409 F120.00
G01 X31.1283 Y26.7404 F120.00
G01 X31.1137 Y26.7388 F120.00
G01 X31.0445 Y26.7289 F120.00
G01 X31.0299 Y26.7262 F120.00
G01 X31.0202 Y26.7238 F120.00
G01 X31.0060 Y26.7194 F120.00
G01 X30.9922 Y26.7139 F120.00
G01 X30.9832 Y26.7096 F120.00
G01 X30.9659 Y26.6998 F120.00
G01 X30.9536 Y26.6914 F120.00
G01 X30.9458 Y26.6853 F120.00
G01 X30.8855 Y26.6330 F120.00
G01 X30.8749 Y26.6226 F120.00
G01 X30.8620 Y26.6075 F120.00
G01 X30.8533 Y26.5954 F120.00
G01 X30.8432 Y26.5783 F120.00
G01 X30.8367 Y26.5648 F120.00
G01 X30.8313 Y26.5510 F120.00
G01 X30.8061 Y26.4653 F120.00
G01 X30.8025 Y26.4466 F120.00
G01 X30.8007 Y26.4276 F120.00
G01 X30.8005 Y25.0628 F120.00
G01 X30.7979 Y25.0389 F120.00
G01 X30.7665 Y24.9545 F120.00
G01 X30.7147 Y24.8853 F120.00
G01 X30.6455 Y24.8335 F120.00
G01 X30.5611 Y24.8021 F120.00
G01 X30.5372 Y24.7995 F120.00
G01 X29.4628 Y24.7995 F120.00
G01 X29.4389 Y24.8021 F120.00
G01 X29.3545 Y24.8335 F120.00
G01 X29.2853 Y24.8853 F120.00
G01 X29.2557 Y24.9247 F120.00
G01 X29.2388 Y24.9445 F120.00
G01 X29.2257 Y24.9583 F120.00
G01 X29.2113 Y24.9707 F120.00
G01 X29.1998 Y24.9791 F120.00
G01 X29.1877 Y24.9867 F120.00
G01 X29.1222 Y25.0225 F120.00
G01 X29.1089 Y25.0292 F120.00
G01 X29.0904 Y25.0365 F120.00
G01 X29.0713 Y25.0419 F120.00
G01 X29.0517 Y25.0454 F120.00
G01 X29.0369 Y25.0467 F120.00
G01 X29.0171 Y25.0468 F120.00
G01 X28.9424 Y25.0415 F120.00
G01 X28.9325 Y25.0406 F120.00
G01 X28.9178 Y25.0382 F120.00
G01 X28.9033 Y25.0348 F120.00
G01 X28.8845 Y25.0285 F120.00
G01 X28.8708 Y25.0226 F120.00
G01 X28.8576 Y25.0157 F120.00
G01 X28.8408 Y25.0051 F120.00
G01 X28.7809 Y24.9603 F120.00
G01 X28.7698 Y24.9513 F120.00
G01 X28.7627 Y24.9449 F120.00
G01 X28.7496 Y24.9311 F120.00
G01 X28.7406 Y24.9200 F120.00
G01 X28.7147 Y24.8853 F120.00
G01 X28.6455 Y24.8335 F120.00
G01 X28.5611 Y24.8021 F120.00
G01 X28.5372 Y24.7995 F120.00
G01 X28.1148 Y24.7995 F120.00
G01 X28.0939 Y24.7988 F120.00
G01 X28.0840 Y24.7980 F120.00
G01 X28.0645 Y24.7948 F120.00
G01 X28.0454 Y24.7898 F120.00
G01 X27.9706 Y24.7622 F120.00
G01 X27.9614 Y24.7585 F120.00
G01 X27.9479 Y24.7521 F120.00
G01 X27.9350 Y24.7447 F120.00
G01 X27.9267 Y24.7392 F120.00
G01 X27.9186 Y24.7334 F120.00
G01 X27.9072 Y24.7239 F120.00
G01 X27.8964 Y24.7135 F120.00
G01 X27.8897 Y24.7062 F120.00
G01 X27.8804 Y24.6946 F120.00
G01 X27.8327 Y24.6306 F120.00
G01 X27.8225 Y24.6136 F120.00
G01 X27.8139 Y24.5957 F120.00
G01 X27.8072 Y24.5770 F120.00
G01 X27.8046 Y24.5674 F120.00
G01 X27.8015 Y24.5528 F120.00
G01 X27.7991 Y24.5331 F120.00
G01 X27.7937 Y24.4535 F120.00
G01 X27.7942 Y24.4336 F120.00
G01 X27.7959 Y24.4188 F120.00
G01 X27.7977 Y24.4091 F120.00
G01 X27.8026 Y24.3898 F120.00
G01 X27.8058 Y24.3804 F120.00
G01 X27.8114 Y24.3666 F120.00
G01 X27.8181 Y24.3533 F120.00
G01 X27.8539 Y24.2878 F120.00
G01 X27.8588 Y24.2797 F120.00
G01 X27.8670 Y24.2680 F120.00
G01 X27.8760 Y24.2568 F120.00
G01 X27.8857 Y24.2464 F120.00
G01 X28.2367 Y23.8954 F120.00
G01 X28.2445 Y23.8880 F120.00
G01 X28.2526 Y23.8811 F120.00
G01 X28.2771 Y23.8614 F120.00
G01 X28.2891 Y23.8529 F120.00
G01 X28.3060 Y23.8430 F120.00
G01 X28.3239 Y23.8347 F120.00
G01 X28.3424 Y23.8283 F120.00
G01 X28.4140 Y23.8073 F120.00
G01 X28.4326 Y23.8033 F120.00
G01 X28.4515 Y23.8010 F120.00
G01 X28.4658 Y23.8005 F120.00
G01 X34.5788 Y23.8005 F120.00
G01 X34.7335 Y23.7697 F120.00
G01 X34.8792 Y23.7094 F120.00
G01 X35.0103 Y23.6218 F120.00
G01 X36.1218 Y22.5103 F120.00
G01 X36.2094 Y22.3792 F120.00
G01 X36.2697 Y22.2335 F120.00
G01 X36.3005 Y22.0788 F120.00
G01 X36.3006 Y18.4574 F120.00
G01 X36.3010 Y18.4476 F120.00
G01 X36.3026 Y18.4331 F120.00
G01 X36.3124 Y18.3774 F120.00
G01 X36.3147 Y18.3681 F120.00
G01 X36.3190 Y18.3543 F120.00
G01 X36.3262 Y18.3365 F120.00
G01 X36.3352 Y18.3195 F120.00
G01 X36.3429 Y18.3074 F120.00
G01 X36.3866 Y18.2469 F120.00
G01 X36.3991 Y18.2314 F120.00
G01 X36.4130 Y18.2172 F120.00
G01 X36.4204 Y18.2107 F120.00
G01 X36.4322 Y18.2015 F120.00
G01 X36.4446 Y18.1933 F120.00
G01 X36.4576 Y18.1861 F120.00
G01 X36.4758 Y18.1779 F120.00
G01 X36.5498 Y18.1492 F120.00
G01 X36.5635 Y18.1451 F120.00
G01 X36.5821 Y18.1412 F120.00
G01 X36.5915 Y18.1399 F120.00
G01 X36.6205 Y18.1373 F120.00
G01 X36.8150 Y18.0852 F120.00
G01 X36.9975 Y18.0002 F120.00
G01 X37.1624 Y17.8847 F120.00
G01 X37.3047 Y17.7424 F120.00
G01 X37.4278 Y17.5667 F120.00
G01 X37.4373 Y17.5549 F120.00
G01 X37.4572 Y17.5319 F120.00
G01 X37.4639 Y17.5249 F120.00
G01 X37.4746 Y17.5150 F120.00
G01 X37.4899 Y17.5031 F120.00
G01 X37.5063 Y17.4927 F120.00
G01 X37.5773 Y17.4565 F120.00
G01 X37.5908 Y17.4503 F120.00
G01 X37.6048 Y17.4451 F120.00
G01 X37.6239 Y17.4398 F120.00
G01 X37.6435 Y17.4365 F120.00
G01 X37.6633 Y17.4351 F120.00
G01 X37.6831 Y17.4356 F120.00
G01 X37.7576 Y17.4433 F120.00
G01 X37.7723 Y17.4454 F120.00
G01 X37.7869 Y17.4485 F120.00
G01 X37.7964 Y17.4513 F120.00
G01 X37.8105 Y17.4562 F120.00
G01 X37.8286 Y17.4644 F120.00
G01 X37.8458 Y17.4744 F120.00
G01 X37.8619 Y17.4860 F120.00
G01 X37.9201 Y17.5326 F120.00
G01 X37.9307 Y17.5422 F120.00
G01 X37.9406 Y17.5525 F120.00
G01 X37.9468 Y17.5597 F120.00
G01 X37.9554 Y17.5711 F120.00
G01 X38.0753 Y17.7424 F120.00
G01 X38.2176 Y17.8847 F120.00
G01 X38.3826 Y18.0002 F120.00
G01 X38.5650 Y18.0852 F120.00
G01 X38.7595 Y18.1374 F120.00
G01 X38.9600 Y18.1549 F120.00
G01 X39.1606 Y18.1373 F120.00
G01 X39.3550 Y18.0852 F120.00
G01 X39.5375 Y18.0002 F120.00
G01 X39.7024 Y17.8847 F120.00
G01 X39.8192 Y17.7682 F120.00
G01 X39.8301 Y17.7590 F120.00
G01 X39.8621 Y17.7349 F120.00
G01 X39.8703 Y17.7291 F120.00
G01 X39.8832 Y17.7211 F120.00
G01 X39.8921 Y17.7164 F120.00
G01 X39.9058 Y17.7101 F120.00
G01 X39.9200 Y17.7049 F120.00
G01 X39.9345 Y17.7007 F120.00
G01 X40.0175 Y17.6829 F120.00
G01 X40.0323 Y17.6810 F120.00
G01 X40.0521 Y17.6802 F120.00
G01 X40.0620 Y17.6805 F120.00
G01 X40.0769 Y17.6820 F120.00
G01 X40.0915 Y17.6845 F120.00
G01 X40.1060 Y17.6881 F120.00
G01 X40.1201 Y17.6928 F120.00
G01 X40.1902 Y17.7190 F120.00
G01 X40.2083 Y17.7273 F120.00
G01 X40.2212 Y17.7347 F120.00
G01 X40.2375 Y17.7460 F120.00
G01 X40.2527 Y17.7589 F120.00
G01 X40.2665 Y17.7732 F120.00
G01 X40.2758 Y17.7847 F120.00
G01 X40.3209 Y17.8451 F120.00
G01 X40.3270 Y17.8542 F120.00
G01 X40.3323 Y17.8632 F120.00
G01 X40.3392 Y17.8767 F120.00
G01 X40.3431 Y17.8859 F120.00
G01 X40.3840 Y17.9953 F120.00
G01 X40.4357 Y18.0643 F120.00
G01 X40.5047 Y18.1160 F120.00
G01 X40.5890 Y18.1474 F120.00
G01 X40.6129 Y18.1500 F120.00
G01 X40.7997 Y18.1500 F120.00
G01 X40.7997 Y18.0500 F120.00
G01 X40.6500 Y18.0500 F120.00
G01 X40.6304 Y18.0490 F120.00
G01 X40.6110 Y18.0462 F120.00
G01 X40.5919 Y18.0414 F120.00
G01 X40.5826 Y18.0383 F120.00
G01 X40.5690 Y18.0328 F120.00
G01 X40.5514 Y18.0240 F120.00
G01 X40.5389 Y18.0163 F120.00
G01 X40.5270 Y18.0077 F120.00
G01 X40.5194 Y18.0014 F120.00
G01 X40.5086 Y17.9914 F120.00
G01 X40.4986 Y17.9806 F120.00
G01 X40.4923 Y17.9730 F120.00
G01 X40.4865 Y17.9652 F120.00
G01 X40.4785 Y17.9528 F120.00
G01 X40.4736 Y17.9443 F120.00
G01 X40.4672 Y17.9310 F120.00
G01 X40.4617 Y17.9174 F120.00
G01 X40.4572 Y17.9033 F120.00
G01 X40.4538 Y17.8890 F120.00
G01 X40.4515 Y17.8745 F120.00
G01 X40.4505 Y17.8647 F120.00
G01 X40.4500 Y17.8500 F120.00
G01 X40.4500 Y16.1500 F120.00
G01 X40.4510 Y16.1304 F120.00
G01 X40.4529 Y16.1158 F120.00
G01 X40.4572 Y16.0967 F120.00
G01 X40.4617 Y16.0826 F120.00
G01 X40.4652 Y16.0735 F120.00
G01 X40.4714 Y16.0601 F120.00
G01 X40.4760 Y16.0514 F120.00
G01 X40.4810 Y16.0430 F120.00
G01 X40.4894 Y16.0309 F120.00
G01 X40.4986 Y16.0194 F120.00
G01 X40.5052 Y16.0121 F120.00
G01 X40.5157 Y16.0018 F120.00
G01 X40.5231 Y15.9954 F120.00
G01 X40.5309 Y15.9894 F120.00
G01 X40.5430 Y15.9810 F120.00
G01 X40.5557 Y15.9736 F120.00
G01 X40.5645 Y15.9692 F120.00
G01 X40.5826 Y15.9617 F120.00
G01 X40.5967 Y15.9572 F120.00
G01 X40.6158 Y15.9529 F120.00
G01 X40.6353 Y15.9505 F120.00
G01 X40.6500 Y15.9500 F120.00
G01 X40.7997 Y15.9500 F120.00
G01 X40.7997 Y15.8500 F120.00
G01 X40.6129 Y15.8500 F120.00
G01 X40.5890 Y15.8526 F120.00
G01 X40.5047 Y15.8840 F120.00
G01 X40.4357 Y15.9357 F120.00
G01 X40.3830 Y16.0060 F120.00
G01 X40.3749 Y16.0222 F120.00
G01 X40.3676 Y16.0341 F120.00
G01 X40.3272 Y16.0923 F120.00
G01 X40.3149 Y16.1074 F120.00
G01 X40.3048 Y16.1180 F120.00
G01 X40.2977 Y16.1246 F120.00
G01 X40.2863 Y16.1338 F120.00
G01 X40.2784 Y16.1395 F120.00
G01 X40.2661 Y16.1473 F120.00
G01 X40.2532 Y16.1541 F120.00
G01 X40.1807 Y16.1872 F120.00
G01 X40.1621 Y16.1941 F120.00
G01 X40.1477 Y16.1981 F120.00
G01 X40.1331 Y16.2009 F120.00
G01 X40.1133 Y16.2030 F120.00
G01 X40.0984 Y16.2033 F120.00
G01 X40.0835 Y16.2024 F120.00
G01 X39.9947 Y16.1897 F120.00
G01 X39.9802 Y16.1863 F120.00
G01 X39.9614 Y16.1801 F120.00
G01 X39.9477 Y16.1742 F120.00
G01 X39.9344 Y16.1674 F120.00
G01 X39.9217 Y16.1596 F120.00
G01 X39.9097 Y16.1508 F120.00
G01 X39.8455 Y16.0955 F120.00
G01 X39.8383 Y16.0886 F120.00
G01 X39.8282 Y16.0776 F120.00
G01 X39.8161 Y16.0619 F120.00
G01 X39.8080 Y16.0494 F120.00
G01 X39.7988 Y16.0318 F120.00
G01 X39.7913 Y16.0134 F120.00
G01 X39.7661 Y15.9277 F120.00
G01 X39.7625 Y15.9090 F120.00
G01 X39.7607 Y15.8901 F120.00
G01 X39.7605 Y14.5312 F120.00
G01 X39.7297 Y14.3765 F120.00
G01 X39.6694 Y14.2308 F120.00
G01 X39.5818 Y14.0997 F120.00
G01 X37.5454 Y12.0633 F120.00
G01 X37.5380 Y12.0555 F120.00
G01 X37.5311 Y12.0474 F120.00
G01 X37.5114 Y12.0229 F120.00
G01 X37.5029 Y12.0109 F120.00
G01 X37.4977 Y12.0025 F120.00
G01 X37.4907 Y11.9896 F120.00
G01 X37.4866 Y11.9807 F120.00
G01 X37.4813 Y11.9670 F120.00
G01 X37.4561 Y11.8814 F120.00
G01 X37.4525 Y11.8627 F120.00
G01 X37.4507 Y11.8437 F120.00
G01 X37.4505 Y11.3557 F120.00
G01 X37.4493 Y11.3373 F120.00
G01 X37.4128 Y11.1907 F120.00
G01 X37.3475 Y11.0591 F120.00
G01 X37.2555 Y10.9445 F120.00
G01 X37.2032 Y10.9025 F120.00
G01 X37.1869 Y10.8885 F120.00
G01 X37.1797 Y10.8816 F120.00
G01 X37.1696 Y10.8707 F120.00
G01 X37.1634 Y10.8630 F120.00
G01 X37.1547 Y10.8509 F120.00
G01 X37.1139 Y10.7824 F120.00
G01 X37.1090 Y10.7737 F120.00
G01 X37.1026 Y10.7603 F120.00
G01 X37.0956 Y10.7417 F120.00
G01 X37.0905 Y10.7225 F120.00
G01 X37.0879 Y10.7078 F120.00
G01 X37.0862 Y10.6880 F120.00
G01 X37.0862 Y10.6731 F120.00
G01 X37.0887 Y10.6033 F120.00
G01 X37.0904 Y10.5835 F120.00
G01 X37.0930 Y10.5689 F120.00
G01 X37.0967 Y10.5544 F120.00
G01 X37.1032 Y10.5357 F120.00
G01 X37.1093 Y10.5221 F120.00
G01 X37.1164 Y10.5090 F120.00
G01 X37.1245 Y10.4964 F120.00
G01 X37.1644 Y10.4391 F120.00
G01 X37.1760 Y10.4240 F120.00
G01 X37.1890 Y10.4101 F120.00
G01 X37.1995 Y10.4005 F120.00
G01 X37.2555 Y10.3555 F120.00
G01 X37.3475 Y10.2409 F120.00
G01 X37.4128 Y10.1093 F120.00
G01 X37.4493 Y9.9628 F120.00
G01 X37.4505 Y9.9444 F120.00
G01 X37.4505 Y9.0557 F120.00
G01 X37.4493 Y9.0373 F120.00
G01 X37.4128 Y8.8907 F120.00
G01 X37.3475 Y8.7591 F120.00
G01 X37.2555 Y8.6445 F120.00
G01 X37.2028 Y8.6022 F120.00
G01 X37.1865 Y8.5882 F120.00
G01 X37.1793 Y8.5813 F120.00
G01 X37.1692 Y8.5704 F120.00
G01 X37.1571 Y8.5547 F120.00
G01 X37.1491 Y8.5422 F120.00
G01 X37.1135 Y8.4820 F120.00
G01 X37.1086 Y8.4734 F120.00
G01 X37.1022 Y8.4599 F120.00
G01 X37.0968 Y8.4461 F120.00
G01 X37.0912 Y8.4270 F120.00
G01 X37.0875 Y8.4075 F120.00
G01 X37.0858 Y8.3877 F120.00
G01 X37.0858 Y8.3728 F120.00
G01 X37.0883 Y8.3030 F120.00
G01 X37.0894 Y8.2881 F120.00
G01 X37.0908 Y8.2783 F120.00
G01 X37.0949 Y8.2589 F120.00
G01 X37.0993 Y8.2446 F120.00
G01 X37.1068 Y8.2262 F120.00
G01 X37.1160 Y8.2086 F120.00
G01 X37.1241 Y8.1961 F120.00
G01 X37.1640 Y8.1388 F120.00
G01 X37.1725 Y8.1274 F120.00
G01 X37.1787 Y8.1201 F120.00
G01 X37.1886 Y8.1098 F120.00
G01 X37.1991 Y8.1002 F120.00
G01 X37.2551 Y8.0551 F120.00
G01 X37.3471 Y7.9407 F120.00
G01 X37.3671 Y7.9003 F120.00
G01 X37.2491 Y7.9003 F120.00
G01 X37.2255 Y7.9320 F120.00
G01 X37.2172 Y7.9426 F120.00
G01 X37.1850 Y7.9781 F120.00
G01 X37.1745 Y7.9884 F120.00
G01 X37.1435 Y8.0163 F120.00
G01 X37.1320 Y8.0255 F120.00
G01 X37.0945 Y8.0531 F120.00
G01 X37.0546 Y8.0773 F120.00
G01 X37.0417 Y8.0844 F120.00
G01 X36.9996 Y8.1043 F120.00
G01 X36.9859 Y8.1098 F120.00
G01 X36.9466 Y8.1238 F120.00
G01 X36.9325 Y8.1279 F120.00
G01 X36.8872 Y8.1390 F120.00
G01 X36.8362 Y8.1467 F120.00
G01 X36.8216 Y8.1480 F120.00
G01 X36.7750 Y8.1500 F120.00
G01 X35.5250 Y8.1500 F120.00
G01 X35.4686 Y8.1472 F120.00
G01 X35.4225 Y8.1406 F120.00
G01 X35.4032 Y8.1368 F120.00
G01 X35.3675 Y8.1279 F120.00
G01 X35.3557 Y8.1245 F120.00
G01 X35.3050 Y8.1062 F120.00
G01 X35.2627 Y8.0865 F120.00
G01 X35.2454 Y8.0773 F120.00
G01 X35.2055 Y8.0531 F120.00
G01 X35.1609 Y8.0200 F120.00
G01 X35.1528 Y8.0131 F120.00
G01 X35.1184 Y7.9816 F120.00
G01 X35.0869 Y7.9472 F120.00
G01 X35.0800 Y7.9391 F120.00
G01 X35.0469 Y7.8945 F120.00
G01 X35.0203 Y7.8504 F120.00
G01 X35.0135 Y7.8373 F120.00
G01 X34.9938 Y7.7950 F120.00
G01 X34.9755 Y7.7443 F120.00
G01 X34.9721 Y7.7325 F120.00
G01 X34.9612 Y7.6880 F120.00
G01 X34.9553 Y7.6500 F120.00
G01 X34.8504 Y7.6500 F120.00
G01 X34.8512 Y7.6627 F120.00
G01 X34.8877 Y7.8091 F120.00
G01 X34.9529 Y7.9407 F120.00
G01 X35.0449 Y8.0551 F120.00
G01 X35.0972 Y8.0972 F120.00
G01 X35.1135 Y8.1112 F120.00
G01 X35.1275 Y8.1252 F120.00
G01 X35.1400 Y8.1406 F120.00
G01 X35.1509 Y8.1572 F120.00
G01 X35.1865 Y8.2173 F120.00
G01 X35.1958 Y8.2349 F120.00
G01 X35.2015 Y8.2486 F120.00
G01 X35.2063 Y8.2628 F120.00
G01 X35.2099 Y8.2772 F120.00
G01 X35.2125 Y8.2919 F120.00
G01 X35.2140 Y8.3067 F120.00
G01 X35.2144 Y8.3216 F120.00
G01 X35.2117 Y8.3964 F120.00
G01 X35.2099 Y8.4162 F120.00
G01 X35.2063 Y8.4357 F120.00
G01 X35.2007 Y8.4547 F120.00
G01 X35.1932 Y8.4731 F120.00
G01 X35.1840 Y8.4907 F120.00
G01 X35.1759 Y8.5033 F120.00
G01 X35.1333 Y8.5645 F120.00
G01 X35.1213 Y8.5793 F120.00
G01 X35.1080 Y8.5929 F120.00
G01 X35.0972 Y8.6022 F120.00
G01 X35.0609 Y8.6313 F120.00
G01 X35.0380 Y8.6476 F120.00
G01 X35.0256 Y8.6550 F120.00
G01 X35.0126 Y8.6616 F120.00
G01 X35.0037 Y8.6654 F120.00
G01 X34.9901 Y8.6703 F120.00
G01 X34.9184 Y8.6914 F120.00
G01 X34.9046 Y8.6949 F120.00
G01 X34.8858 Y8.6981 F120.00
G01 X34.8716 Y8.6993 F120.00
G01 X34.8621 Y8.6995 F120.00
G01 X31.4745 Y8.6995 F120.00
G01 X31.4602 Y8.6990 F120.00
G01 X31.4413 Y8.6967 F120.00
G01 X31.3805 Y8.6837 F120.00
G01 X31.3612 Y8.6785 F120.00
G01 X31.3518 Y8.6752 F120.00
G01 X31.3380 Y8.6693 F120.00
G01 X31.3290 Y8.6648 F120.00
G01 X31.3161 Y8.6573 F120.00
G01 X31.3078 Y8.6518 F120.00
G01 X31.2958 Y8.6427 F120.00
G01 X31.2392 Y8.5937 F120.00
G01 X31.2283 Y8.5835 F120.00
G01 X31.2182 Y8.5726 F120.00
G01 X31.2090 Y8.5609 F120.00
G01 X31.2006 Y8.5486 F120.00
G01 X31.1932 Y8.5357 F120.00
G01 X31.1848 Y8.5176 F120.00
G01 X31.1783 Y8.4989 F120.00
G01 X31.1573 Y8.4273 F120.00
G01 X31.1541 Y8.4134 F120.00
G01 X31.1514 Y8.3945 F120.00
G01 X31.1505 Y8.3755 F120.00
G01 X31.1505 Y8.0508 F120.00
G01 X31.1424 Y7.9593 F120.00
G01 X31.0972 Y7.8015 F120.00
G01 X31.0218 Y7.6572 F120.00
G01 X30.9190 Y7.5310 F120.00
G01 X30.7928 Y7.4282 F120.00
G01 X30.6485 Y7.3528 F120.00
G01 X30.4907 Y7.3076 F120.00
G01 X30.3992 Y7.2995 F120.00
G01 X29.3008 Y7.2995 F120.00
G01 X29.2093 Y7.3076 F120.00
G01 X29.0664 Y7.3485 F120.00
G01 X29.0569 Y7.3510 F120.00
G01 X29.0424 Y7.3538 F120.00
G01 X29.0228 Y7.3559 F120.00
G01 X28.9477 Y7.3582 F120.00
G01 X28.9284 Y7.3569 F120.00
G01 X28.9093 Y7.3538 F120.00
G01 X28.8906 Y7.3489 F120.00
G01 X28.8725 Y7.3422 F120.00
G01 X28.8551 Y7.3337 F120.00
G01 X28.7896 Y7.2979 F120.00
G01 X28.7736 Y7.2876 F120.00
G01 X28.7586 Y7.2758 F120.00
G01 X28.7482 Y7.2661 F120.00
G01 X28.1330 Y6.6508 F120.00
G01 X28.1201 Y6.6358 F120.00
G01 X28.0953 Y6.6024 F120.00
G01 X28.0871 Y6.5905 F120.00
G01 X28.0798 Y6.5780 F120.00
G01 X28.0734 Y6.5650 F120.00
G01 X28.0697 Y6.5561 F120.00
G01 X28.0664 Y6.5470 F120.00
G01 X28.0623 Y6.5332 F120.00
G01 X28.0461 Y6.4553 F120.00
G01 X28.0444 Y6.4460 F120.00
G01 X28.0427 Y6.4318 F120.00
G01 X28.0420 Y6.4175 F120.00
G01 X28.0423 Y6.4033 F120.00
G01 X28.0550 Y6.2500 F120.00
G01 X28.0372 Y6.0352 F120.00
G01 X27.9843 Y5.8263 F120.00
G01 X27.8977 Y5.6289 F120.00
G01 X27.7798 Y5.4485 F120.00
G01 X27.6338 Y5.2899 F120.00
G01 X27.4637 Y5.1575 F120.00
G01 X27.2742 Y5.0550 F120.00
G01 X27.0703 Y4.9850 F120.00
G01 X26.8578 Y4.9495 F120.00
G01 X26.6422 Y4.9495 F120.00
G01 X26.4297 Y4.9850 F120.00
G01 X26.2258 Y5.0550 F120.00
G01 X26.0363 Y5.1575 F120.00
G01 X25.8662 Y5.2899 F120.00
G01 X25.8155 Y5.3449 F120.00
G01 X25.8047 Y5.3558 F120.00
G01 X25.7691 Y5.3860 F120.00
G01 X25.7534 Y5.3974 F120.00
G01 X25.7408 Y5.4049 F120.00
G01 X25.7278 Y5.4115 F120.00
G01 X25.7189 Y5.4153 F120.00
G01 X25.7052 Y5.4203 F120.00
G01 X25.6243 Y5.4439 F120.00
G01 X25.6103 Y5.4467 F120.00
G01 X25.5914 Y5.4490 F120.00
G01 X25.5771 Y5.4495 F120.00
G01 X21.4229 Y5.4495 F120.00
G01 X21.4126 Y5.4492 F120.00
G01 X21.4024 Y5.4485 F120.00
G01 X21.3612 Y5.4432 F120.00
G01 X21.3422 Y5.4393 F120.00
G01 X21.3236 Y5.4336 F120.00
G01 X21.3100 Y5.4281 F120.00
G01 X21.2927 Y5.4194 F120.00
G01 X21.2286 Y5.3809 F120.00
G01 X21.2128 Y5.3703 F120.00
G01 X21.2053 Y5.3645 F120.00
G01 X21.1945 Y5.3551 F120.00
G01 X21.1845 Y5.3449 F120.00
G01 X21.1338 Y5.2899 F120.00
G01 X20.9637 Y5.1575 F120.00
G01 X20.7742 Y5.0550 F120.00
G01 X20.5703 Y4.9850 F120.00
G01 X20.3578 Y4.9495 F120.00
G01 X20.1422 Y4.9495 F120.00
G01 X19.9297 Y4.9850 F120.00
G01 X19.7258 Y5.0550 F120.00
G01 X19.5363 Y5.1575 F120.00
G01 X19.3662 Y5.2899 F120.00
G01 X19.3016 Y5.3601 F120.00
G01 X19.2890 Y5.3730 F120.00
G01 X19.2782 Y5.3828 F120.00
G01 X19.2706 Y5.3889 F120.00
G01 X19.2628 Y5.3946 F120.00
G01 X19.2505 Y5.4024 F120.00
G01 X19.1759 Y5.4416 F120.00
G01 X19.1628 Y5.4475 F120.00
G01 X19.1539 Y5.4508 F120.00
G01 X19.1403 Y5.4551 F120.00
G01 X19.1311 Y5.4574 F120.00
G01 X19.0165 Y5.4803 F120.00
G01 X18.8708 Y5.5406 F120.00
G01 X18.7397 Y5.6282 F120.00
G01 X13.6282 Y10.7397 F120.00
G01 X13.5406 Y10.8708 F120.00
G01 X13.4803 Y11.0165 F120.00
G01 X13.4495 Y11.1712 F120.00
G01 X13.4495 Y14.5773 F120.00
G01 X13.4488 Y14.5902 F120.00
G01 X13.4458 Y14.6214 F120.00
G01 X13.4421 Y14.6409 F120.00
G01 X13.4381 Y14.6552 F120.00
G01 X13.4349 Y14.6646 F120.00
G01 X13.4291 Y14.6783 F120.00
G01 X13.3961 Y14.7455 F120.00
G01 X13.3893 Y14.7580 F120.00
G01 X13.3789 Y14.7740 F120.00
G01 X13.3671 Y14.7889 F120.00
G01 X13.2975 Y14.8644 F120.00
G01 X13.2855 Y14.8764 F120.00
G01 X13.2745 Y14.8859 F120.00
G01 X13.2628 Y14.8946 F120.00
G01 X13.2463 Y14.9048 F120.00
G01 X13.1759 Y14.9416 F120.00
G01 X13.1672 Y14.9456 F120.00
G01 X13.1540 Y14.9508 F120.00
G01 X13.1449 Y14.9538 F120.00
G01 X13.1311 Y14.9574 F120.00
G01 X13.0165 Y14.9803 F120.00
G01 X12.8708 Y15.0406 F120.00
G01 X12.7397 Y15.1282 F120.00
G01 X9.9982 Y17.8697 F120.00
G01 X9.9106 Y18.0008 F120.00
G01 X9.8503 Y18.1465 F120.00
G01 X9.8195 Y18.3012 F120.00
G01 X9.8195 Y19.0392 F120.00
G01 X9.8189 Y19.0553 F120.00
G01 X9.8149 Y19.0918 F120.00
G01 X9.8134 Y19.1013 F120.00
G01 X9.8103 Y19.1155 F120.00
G01 X9.8046 Y19.1340 F120.00
G01 X9.7971 Y19.1518 F120.00
G01 X9.7611 Y19.2193 F120.00
G01 X9.7517 Y19.2349 F120.00
G01 X9.7394 Y19.2517 F120.00
G01 X9.6119 Y19.4337 F120.00
G01 X9.6024 Y19.4456 F120.00
G01 X9.5825 Y19.4685 F120.00
G01 X9.5687 Y19.4822 F120.00
G01 X9.5614 Y19.4886 F120.00
G01 X9.5498 Y19.4974 F120.00
G01 X9.5333 Y19.5078 F120.00
G01 X9.4580 Y19.5461 F120.00
G01 X9.4443 Y19.5520 F120.00
G01 X9.4302 Y19.5568 F120.00
G01 X9.4158 Y19.5606 F120.00
G01 X9.4011 Y19.5633 F120.00
G01 X9.3814 Y19.5652 F120.00
G01 X9.3615 Y19.5651 F120.00
G01 X9.2723 Y19.5559 F120.00
G01 X9.2576 Y19.5531 F120.00
G01 X9.2385 Y19.5476 F120.00
G01 X9.2246 Y19.5423 F120.00
G01 X9.2111 Y19.5360 F120.00
G01 X9.1939 Y19.5261 F120.00
G01 X9.1817 Y19.5175 F120.00
G01 X9.1196 Y19.4678 F120.00
G01 X9.1090 Y19.4582 F120.00
G01 X9.1023 Y19.4515 F120.00
G01 X9.0929 Y19.4407 F120.00
G01 X9.0843 Y19.4293 F120.00
G01 X8.9643 Y19.2580 F120.00
G01 X8.8220 Y19.1157 F120.00
G01 X8.7003 Y19.0304 F120.00
G01 X8.7003 Y19.1540 F120.00
G01 X8.7384 Y19.1823 F120.00
G01 X8.7499 Y19.1915 F120.00
G01 X8.8189 Y19.2541 F120.00
G01 X8.8292 Y19.2646 F120.00
G01 X8.8852 Y19.3265 F120.00
G01 X8.8948 Y19.3378 F120.00
G01 X8.9530 Y19.4167 F120.00
G01 X9.0012 Y19.4965 F120.00
G01 X9.0104 Y19.5138 F120.00
G01 X9.0485 Y19.5946 F120.00
G01 X9.0536 Y19.6073 F120.00
G01 X9.0846 Y19.6947 F120.00
G01 X9.1077 Y19.7856 F120.00
G01 X9.1100 Y19.7961 F120.00
G01 X9.1249 Y19.8971 F120.00
G01 X9.1298 Y19.9902 F120.00
G01 X9.1298 Y20.0098 F120.00
G01 X9.1249 Y20.1029 F120.00
G01 X9.1098 Y20.2048 F120.00
G01 X9.0848 Y20.3048 F120.00
G01 X9.0523 Y20.3963 F120.00
G01 X9.0461 Y20.4108 F120.00
G01 X9.0062 Y20.4947 F120.00
G01 X8.9583 Y20.5751 F120.00
G01 X8.9497 Y20.5883 F120.00
G01 X8.8977 Y20.6584 F120.00
G01 X8.8885 Y20.6699 F120.00
G01 X8.8259 Y20.7389 F120.00
G01 X8.8154 Y20.7492 F120.00
G01 X8.7802 Y20.7810 F120.00
G01 X8.7802 Y20.9136 F120.00
G01 X8.8220 Y20.8843 F120.00
G01 X8.9643 Y20.7420 F120.00
G01 X9.0875 Y20.5663 F120.00
G01 X9.0970 Y20.5544 F120.00
G01 X9.1169 Y20.5315 F120.00
G01 X9.1236 Y20.5245 F120.00
G01 X9.1343 Y20.5146 F120.00
G01 X9.1418 Y20.5084 F120.00
G01 X9.1536 Y20.4999 F120.00
G01 X9.1618 Y20.4947 F120.00
G01 X9.1746 Y20.4876 F120.00
G01 X9.2459 Y20.4518 F120.00
G01 X9.2645 Y20.4447 F120.00
G01 X9.2836 Y20.4394 F120.00
G01 X9.3032 Y20.4360 F120.00
G01 X9.3230 Y20.4346 F120.00
G01 X9.3428 Y20.4352 F120.00
G01 X9.4173 Y20.4428 F120.00
G01 X9.4320 Y20.4449 F120.00
G01 X9.4466 Y20.4481 F120.00
G01 X9.4609 Y20.4524 F120.00
G01 X9.4748 Y20.4577 F120.00
G01 X9.4883 Y20.4640 F120.00
G01 X9.5055 Y20.4739 F120.00
G01 X9.5216 Y20.4856 F120.00
G01 X9.5761 Y20.5292 F120.00
G01 X9.5904 Y20.5418 F120.00
G01 X9.6003 Y20.5521 F120.00
G01 X9.6123 Y20.5668 F120.00
G01 X9.7393 Y20.7481 F120.00
G01 X9.7586 Y20.7721 F120.00
G01 X9.7644 Y20.7800 F120.00
G01 X9.7747 Y20.7967 F120.00
G01 X9.7793 Y20.8054 F120.00
G01 X9.7853 Y20.8188 F120.00
G01 X9.7917 Y20.8374 F120.00
G01 X9.8114 Y20.9044 F120.00
G01 X9.8149 Y20.9182 F120.00
G01 X9.8175 Y20.9323 F120.00
G01 X9.8190 Y20.9465 F120.00
G01 X9.8195 Y20.9608 F120.00
G01 X9.8195 Y21.1188 F120.00
G01 X9.8503 Y21.2735 F120.00
G01 X9.9106 Y21.4192 F120.00
G01 X9.9982 Y21.5503 F120.00
G01 X11.6846 Y23.2367 F120.00
G01 X11.6920 Y23.2445 F120.00
G01 X11.6989 Y23.2526 F120.00
G01 X11.7186 Y23.2771 F120.00
G01 X11.7271 Y23.2891 F120.00
G01 X11.7347 Y23.3017 F120.00
G01 X11.7393 Y23.3104 F120.00
G01 X11.7434 Y23.3193 F120.00
G01 X11.7487 Y23.3330 F120.00
G01 X11.7714 Y23.4094 F120.00
G01 X11.7759 Y23.4279 F120.00
G01 X11.7781 Y23.4420 F120.00
G01 X11.7794 Y23.4610 F120.00
G01 X11.7794 Y23.5446 F120.00
G01 X11.7784 Y23.5606 F120.00
G01 X11.7743 Y23.5966 F120.00
G01 X11.7703 Y23.6155 F120.00
G01 X11.7646 Y23.6340 F120.00
G01 X11.7592 Y23.6474 F120.00
G01 X11.7528 Y23.6604 F120.00
G01 X11.7211 Y23.7193 F120.00
G01 X11.7117 Y23.7349 F120.00
G01 X11.6994 Y23.7517 F120.00
G01 X11.5754 Y23.9289 F120.00
G01 X11.5692 Y23.9373 F120.00
G01 X11.5428 Y23.9681 F120.00
G01 X11.5326 Y23.9785 F120.00
G01 X11.5179 Y23.9912 F120.00
G01 X11.5020 Y24.0023 F120.00
G01 X11.4851 Y24.0119 F120.00
G01 X11.4138 Y24.0477 F120.00
G01 X11.4046 Y24.0515 F120.00
G01 X11.3905 Y24.0564 F120.00
G01 X11.3761 Y24.0602 F120.00
G01 X11.3663 Y24.0621 F120.00
G01 X11.3466 Y24.0645 F120.00
G01 X11.3317 Y24.0650 F120.00
G01 X11.3218 Y24.0647 F120.00
G01 X11.2424 Y24.0567 F120.00
G01 X11.2277 Y24.0546 F120.00
G01 X11.2179 Y24.0526 F120.00
G01 X11.1988 Y24.0472 F120.00
G01 X11.1849 Y24.0419 F120.00
G01 X11.1714 Y24.0356 F120.00
G01 X11.1542 Y24.0256 F120.00
G01 X11.1381 Y24.0140 F120.00
G01 X11.0835 Y23.9704 F120.00
G01 X11.0727 Y23.9611 F120.00
G01 X11.0594 Y23.9475 F120.00
G01 X11.0474 Y23.9327 F120.00
G01 X10.9247 Y23.7576 F120.00
G01 X10.7824 Y23.6153 F120.00
G01 X10.6174 Y23.4998 F120.00
G01 X10.4350 Y23.4148 F120.00
G01 X10.2405 Y23.3627 F120.00
G01 X10.0400 Y23.3451 F120.00
G01 X9.8395 Y23.3627 F120.00
G01 X9.6450 Y23.4148 F120.00
G01 X9.4625 Y23.4998 F120.00
G01 X9.2976 Y23.6153 F120.00
G01 X9.1877 Y23.7252 F120.00
G01 X9.1773 Y23.7350 F120.00
G01 X9.1699 Y23.7410 F120.00
G01 X9.1338 Y23.7680 F120.00
G01 X9.1212 Y23.7763 F120.00
G01 X9.1124 Y23.7813 F120.00
G01 X9.0988 Y23.7879 F120.00
G01 X9.0895 Y23.7918 F120.00
G01 X9.0800 Y23.7951 F120.00
G01 X9.0703 Y23.7980 F120.00
G01 X9.0605 Y23.8004 F120.00
G01 X8.9825 Y23.8171 F120.00
G01 X8.9727 Y23.8185 F120.00
G01 X8.9578 Y23.8197 F120.00
G01 X8.9429 Y23.8197 F120.00
G01 X8.9330 Y23.8191 F120.00
G01 X8.9182 Y23.8173 F120.00
G01 X8.9085 Y23.8155 F120.00
G01 X8.8940 Y23.8119 F120.00
G01 X8.8845 Y23.8089 F120.00
G01 X8.8098 Y23.7810 F120.00
G01 X8.7962 Y23.7749 F120.00
G01 X8.7802 Y23.7662 F120.00
G01 X8.7802 Y23.9249 F120.00
G01 X8.7769 Y23.9886 F120.00
G01 X8.7668 Y24.0566 F120.00
G01 X8.7527 Y24.1138 F120.00
G01 X8.7486 Y24.1280 F120.00
G01 X8.7277 Y24.1861 F120.00
G01 X8.7230 Y24.1969 F120.00
G01 X8.7020 Y24.2413 F120.00
G01 X8.6929 Y24.2584 F120.00
G01 X8.6649 Y24.3049 F120.00
G01 X8.6566 Y24.3171 F120.00
G01 X8.6273 Y24.3565 F120.00
G01 X8.6190 Y24.3670 F120.00
G01 X8.5786 Y24.4116 F120.00
G01 X8.5500 Y24.4403 F120.00
G01 X8.5498 Y25.3598 F120.00
G01 X8.5478 Y25.3793 F120.00
G01 X8.5451 Y25.3938 F120.00
G01 X8.5399 Y25.4127 F120.00
G01 X8.5348 Y25.4265 F120.00
G01 X8.5264 Y25.4443 F120.00
G01 X8.5190 Y25.4570 F120.00
G01 X8.5106 Y25.4691 F120.00
G01 X8.5014 Y25.4806 F120.00
G01 X8.4879 Y25.4948 F120.00
G01 X8.4730 Y25.5077 F120.00
G01 X8.4570 Y25.5190 F120.00
G01 X8.4399 Y25.5286 F120.00
G01 X8.4220 Y25.5366 F120.00
G01 X8.4033 Y25.5428 F120.00
G01 X8.3890 Y25.5462 F120.00
G01 X8.3793 Y25.5478 F120.00
G01 X8.3598 Y25.5498 F120.00
G01 X6.9403 Y25.5500 F120.00
G01 X6.7609 Y25.7294 F120.00
G01 X6.7968 Y25.7629 F120.00
G01 X6.8070 Y25.7737 F120.00
G01 X6.8165 Y25.7853 F120.00
G01 X6.8222 Y25.7933 F120.00
G01 X6.8302 Y25.8060 F120.00
G01 X6.8349 Y25.8147 F120.00
G01 X6.8431 Y25.8328 F120.00
G01 X6.8494 Y25.8516 F120.00
G01 X6.8691 Y25.9289 F120.00
G01 X6.8726 Y25.9485 F120.00
G01 X6.8741 Y25.9683 F120.00
G01 X6.8737 Y25.9881 F120.00
G01 X6.8712 Y26.0078 F120.00
G01 X6.8669 Y26.0272 F120.00
G01 X6.8419 Y26.1030 F120.00
G01 X6.8367 Y26.1170 F120.00
G01 X6.8304 Y26.1305 F120.00
G01 X6.8257 Y26.1392 F120.00
G01 X6.8205 Y26.1477 F120.00
G01 X6.8120 Y26.1600 F120.00
G01 X6.7993 Y26.1752 F120.00
G01 X6.7852 Y26.1892 F120.00
G01 X6.7232 Y26.2394 F120.00
G01 X6.7118 Y26.2480 F120.00
G01 X6.6957 Y26.2581 F120.00
G01 X6.6830 Y26.2646 F120.00
G01 X6.6208 Y26.2906 F120.00
G01 X6.4897 Y26.3782 F120.00
G01 X5.3782 Y27.4897 F120.00
G01 X5.2906 Y27.6208 F120.00
G01 X5.2303 Y27.7665 F120.00
G01 X5.1995 Y27.9212 F120.00
G01 X5.1994 Y36.4681 F120.00
G01 X5.1984 Y36.4842 F120.00
G01 X5.1949 Y36.5154 F120.00
G01 X5.1914 Y36.5347 F120.00
G01 X5.1875 Y36.5489 F120.00
G01 X5.1826 Y36.5628 F120.00
G01 X5.1788 Y36.5718 F120.00
G01 X5.1722 Y36.5850 F120.00
G01 X5.1387 Y36.6463 F120.00
G01 X5.1288 Y36.6626 F120.00
G01 X5.1204 Y36.6741 F120.00
G01 X5.1112 Y36.6850 F120.00
G01 X5.0652 Y36.7312 F120.00
G01 X4.9977 Y36.8408 F120.00
G01 X4.9567 Y36.9643 F120.00
G01 X4.9495 Y37.0352 F120.00
G01 X4.9495 Y39.9648 F120.00
G01 X4.9567 Y40.0357 F120.00
G01 X4.9977 Y40.1592 F120.00
G01 X5.0652 Y40.2688 F120.00
G01 X5.1562 Y40.3598 F120.00
G01 X5.2658 Y40.4273 F120.00
G01 X5.3213 Y40.4460 F120.00
G01 X5.3568 Y40.4618 F120.00
G01 X5.3700 Y40.4684 F120.00
G01 X5.3827 Y40.4760 F120.00
G01 X5.3948 Y40.4845 F120.00
G01 X5.4098 Y40.4972 F120.00
G01 X5.4203 Y40.5076 F120.00
G01 X5.4678 Y40.5588 F120.00
G01 X5.4775 Y40.5701 F120.00
G01 X5.4864 Y40.5821 F120.00
G01 X5.4918 Y40.5904 F120.00
G01 X5.4991 Y40.6034 F120.00
G01 X5.5054 Y40.6169 F120.00
G01 X5.5122 Y40.6355 F120.00
G01 X5.5161 Y40.6499 F120.00
G01 X5.5181 Y40.6597 F120.00
G01 X5.5313 Y40.7333 F120.00
G01 X5.5330 Y40.7481 F120.00
G01 X5.5335 Y40.7680 F120.00
G01 X5.5321 Y40.7878 F120.00
G01 X5.5287 Y40.8074 F120.00
G01 X5.5249 Y40.8218 F120.00
G01 X5.5182 Y40.8405 F120.00
G01 X5.4914 Y40.9050 F120.00
G01 X5.4852 Y40.9185 F120.00
G01 X5.4805 Y40.9273 F120.00
G01 X5.4726 Y40.9399 F120.00
G01 X5.4639 Y40.9520 F120.00
G01 X5.4542 Y40.9633 F120.00
G01 X5.4401 Y40.9773 F120.00
G01 X5.4246 Y40.9898 F120.00
G01 X5.3631 Y41.0324 F120.00
G01 X5.3511 Y41.0401 F120.00
G01 X5.3386 Y41.0469 F120.00
G01 X5.3212 Y41.0546 F120.00
G01 X5.2660 Y41.0731 F120.00
G01 X5.1565 Y41.1406 F120.00
G01 X5.0656 Y41.2316 F120.00
G01 X4.9981 Y41.3410 F120.00
G01 X4.9572 Y41.4644 F120.00
G01 X4.9500 Y41.5352 F120.00
G01 X4.9500 Y42.2997 F120.00
G01 X5.0500 Y42.2997 F120.00
G01 X5.0500 Y41.5750 F120.00
G01 X5.0522 Y41.5309 F120.00
G01 X5.0570 Y41.4969 F120.00
G01 X5.0597 Y41.4824 F120.00
G01 X5.0678 Y41.4499 F120.00
G01 X5.0725 Y41.4351 F120.00
G01 X5.0807 Y41.4120 F120.00
G01 X5.0882 Y41.3938 F120.00
G01 X5.1009 Y41.3672 F120.00
G01 X5.1080 Y41.3543 F120.00
G01 X5.1232 Y41.3291 F120.00
G01 X5.1286 Y41.3209 F120.00
G01 X5.1461 Y41.2973 F120.00
G01 X5.1553 Y41.2858 F120.00
G01 X5.1818 Y41.2568 F120.00
G01 X5.2071 Y41.2336 F120.00
G01 X5.2184 Y41.2241 F120.00
G01 X5.2494 Y41.2012 F120.00
G01 X5.2793 Y41.1830 F120.00
G01 X5.2922 Y41.1759 F120.00
G01 X5.3278 Y41.1593 F120.00
G01 X5.3695 Y41.1443 F120.00
G01 X5.4026 Y41.1358 F120.00
G01 X5.4219 Y41.1320 F120.00
G01 X5.4510 Y41.1277 F120.00
G01 X5.4608 Y41.1267 F120.00
G01 X5.5000 Y41.1250 F120.00
G01 X6.4000 Y41.1250 F120.00
G01 X6.4343 Y41.1264 F120.00
G01 X6.4490 Y41.1277 F120.00
G01 X6.4878 Y41.1336 F120.00
G01 X6.5212 Y41.1418 F120.00
G01 X6.5355 Y41.1459 F120.00
G01 X6.5725 Y41.1594 F120.00
G01 X6.6121 Y41.1781 F120.00
G01 X6.6417 Y41.1956 F120.00
G01 X6.6541 Y41.2036 F120.00
G01 X6.6855 Y41.2271 F120.00
G01 X6.7147 Y41.2534 F120.00
G01 X6.7250 Y41.2639 F120.00
G01 X6.7479 Y41.2895 F120.00
G01 X6.7738 Y41.3244 F120.00
G01 X6.7920 Y41.3543 F120.00
G01 X6.8010 Y41.3710 F120.00
G01 X6.8157 Y41.4028 F120.00
G01 X6.8275 Y41.4351 F120.00
G01 X6.8332 Y41.4538 F120.00
G01 X6.8404 Y41.4829 F120.00
G01 X6.8425 Y41.4935 F120.00
G01 X6.8478 Y41.5309 F120.00
G01 X6.8499 Y41.5701 F120.00
G01 X6.8500 Y42.5500 F120.00
G01 X6.9500 Y42.5500 F120.00
G01 X6.9500 Y41.5352 F120.00
G01 X6.9428 Y41.4644 F120.00
G01 X6.9019 Y41.3410 F120.00
G01 X6.8344 Y41.2315 F120.00
G01 X6.7434 Y41.1406 F120.00
G01 X6.6340 Y41.0731 F120.00
G01 X6.5878 Y41.0578 F120.00
G01 X6.5731 Y41.0523 F120.00
G01 X6.5344 Y41.0344 F120.00
G01 X6.5215 Y41.0272 F120.00
G01 X6.5092 Y41.0190 F120.00
G01 X6.4938 Y41.0067 F120.00
G01 X6.4831 Y40.9965 F120.00
G01 X6.4322 Y40.9417 F120.00
G01 X6.4225 Y40.9304 F120.00
G01 X6.4109 Y40.9143 F120.00
G01 X6.4009 Y40.8971 F120.00
G01 X6.3927 Y40.8790 F120.00
G01 X6.3863 Y40.8602 F120.00
G01 X6.3819 Y40.8409 F120.00
G01 X6.3687 Y40.7672 F120.00
G01 X6.3670 Y40.7524 F120.00
G01 X6.3664 Y40.7375 F120.00
G01 X6.3674 Y40.7177 F120.00
G01 X6.3702 Y40.6980 F120.00
G01 X6.3751 Y40.6788 F120.00
G01 X6.3799 Y40.6647 F120.00
G01 X6.4086 Y40.5955 F120.00
G01 X6.4148 Y40.5820 F120.00
G01 X6.4246 Y40.5648 F120.00
G01 X6.4302 Y40.5565 F120.00
G01 X6.4393 Y40.5447 F120.00
G01 X6.4458 Y40.5372 F120.00
G01 X6.4563 Y40.5266 F120.00
G01 X6.4714 Y40.5138 F120.00
G01 X6.5368 Y40.4681 F120.00
G01 X6.5489 Y40.4604 F120.00
G01 X6.5657 Y40.4515 F120.00
G01 X6.5788 Y40.4459 F120.00
G01 X6.6342 Y40.4273 F120.00
G01 X6.7438 Y40.3598 F120.00
G01 X6.8348 Y40.2688 F120.00
G01 X6.9023 Y40.1592 F120.00
G01 X6.9433 Y40.0357 F120.00
G01 X6.9505 Y39.9648 F120.00
G01 X6.9505 Y37.0352 F120.00
G01 X6.9433 Y36.9643 F120.00
G01 X6.9023 Y36.8408 F120.00
G01 X6.8462 Y36.7496 F120.00
G01 X6.8391 Y36.7363 F120.00
G01 X6.8330 Y36.7225 F120.00
G01 X6.8295 Y36.7131 F120.00
G01 X6.8266 Y36.7035 F120.00
G01 X6.8056 Y36.6286 F120.00
G01 X6.8036 Y36.6188 F120.00
G01 X6.8021 Y36.6089 F120.00
G01 X6.8011 Y36.5989 F120.00
G01 X6.8005 Y36.5838 F120.00
G01 X6.8005 Y36.1996 F120.00
G01 X6.8008 Y36.1894 F120.00
G01 X6.8015 Y36.1791 F120.00
G01 X6.8029 Y36.1690 F120.00
G01 X6.8047 Y36.1589 F120.00
G01 X6.8160 Y36.1047 F120.00
G01 X6.8199 Y36.0905 F120.00
G01 X6.8266 Y36.0721 F120.00
G01 X6.8307 Y36.0632 F120.00
G01 X6.8376 Y36.0502 F120.00
G01 X6.8454 Y36.0377 F120.00
G01 X6.8541 Y36.0258 F120.00
G01 X6.9020 Y35.9684 F120.00
G01 X6.9155 Y35.9538 F120.00
G01 X6.9303 Y35.9406 F120.00
G01 X6.9423 Y35.9317 F120.00
G01 X6.9592 Y35.9213 F120.00
G01 X6.9770 Y35.9126 F120.00
G01 X6.9909 Y35.9073 F120.00
G01 X7.0623 Y35.8848 F120.00
G01 X7.0767 Y35.8809 F120.00
G01 X7.0913 Y35.8780 F120.00
G01 X7.1012 Y35.8767 F120.00
G01 X7.1111 Y35.8759 F120.00
G01 X7.1260 Y35.8757 F120.00
G01 X7.1458 Y35.8770 F120.00
G01 X7.1653 Y35.8803 F120.00
G01 X7.2424 Y35.9012 F120.00
G01 X7.2560 Y35.9054 F120.00
G01 X7.2736 Y35.9126 F120.00
G01 X7.2864 Y35.9190 F120.00
G01 X7.3408 Y35.9523 F120.00
G01 X7.4643 Y35.9933 F120.00
G01 X7.5352 Y36.0005 F120.00
G01 X10.4648 Y36.0005 F120.00
G01 X10.5357 Y35.9933 F120.00
G01 X10.6592 Y35.9523 F120.00
G01 X10.7721 Y35.8827 F120.00
G01 X10.7947 Y35.8645 F120.00
G01 X10.8065 Y35.8556 F120.00
G01 X10.8189 Y35.8477 F120.00
G01 X10.8319 Y35.8407 F120.00
G01 X10.8453 Y35.8347 F120.00
G01 X10.8592 Y35.8297 F120.00
G01 X10.9309 Y35.8086 F120.00
G01 X10.9494 Y35.8041 F120.00
G01 X10.9682 Y35.8014 F120.00
G01 X10.9872 Y35.8005 F120.00
G01 X12.5342 Y35.8005 F120.00
G01 X12.5503 Y35.8011 F120.00
G01 X12.5917 Y35.8058 F120.00
G01 X12.6109 Y35.8098 F120.00
G01 X12.6250 Y35.8140 F120.00
G01 X12.6388 Y35.8192 F120.00
G01 X12.6521 Y35.8255 F120.00
G01 X12.7219 Y35.8636 F120.00
G01 X12.7379 Y35.8739 F120.00
G01 X12.7492 Y35.8826 F120.00
G01 X12.7564 Y35.8888 F120.00
G01 X12.8455 Y35.9775 F120.00
G01 X12.8543 Y35.9870 F120.00
G01 X12.8710 Y36.0067 F120.00
G01 X12.8829 Y36.0225 F120.00
G01 X12.8883 Y36.0309 F120.00
G01 X12.8956 Y36.0438 F120.00
G01 X12.9020 Y36.0573 F120.00
G01 X12.9056 Y36.0665 F120.00
G01 X12.9312 Y36.1421 F120.00
G01 X12.9362 Y36.1613 F120.00
G01 X12.9392 Y36.1810 F120.00
G01 X12.9402 Y36.1958 F120.00
G01 X12.9400 Y36.2107 F120.00
G01 X12.9381 Y36.2305 F120.00
G01 X12.9343 Y36.2500 F120.00
G01 X12.9147 Y36.3274 F120.00
G01 X12.9099 Y36.3414 F120.00
G01 X12.9061 Y36.3506 F120.00
G01 X12.8995 Y36.3640 F120.00
G01 X12.8920 Y36.3768 F120.00
G01 X12.8835 Y36.3891 F120.00
G01 X12.8774 Y36.3969 F120.00
G01 X12.8708 Y36.4044 F120.00
G01 X12.8604 Y36.4150 F120.00
G01 X12.8021 Y36.4695 F120.00
G01 X12.7864 Y36.4816 F120.00
G01 X12.7695 Y36.4921 F120.00
G01 X12.7607 Y36.4967 F120.00
G01 X12.7471 Y36.5028 F120.00
G01 X12.7331 Y36.5078 F120.00
G01 X12.7187 Y36.5118 F120.00
G01 X12.6356 Y36.5274 F120.00
G01 X12.6214 Y36.5292 F120.00
G01 X12.6119 Y36.5298 F120.00
G01 X12.5977 Y36.5299 F120.00
G01 X12.5882 Y36.5294 F120.00
G01 X12.5398 Y36.5245 F120.00
G01 X11.5602 Y36.5245 F120.00
G01 X11.4893 Y36.5317 F120.00
G01 X11.3658 Y36.5727 F120.00
G01 X11.2562 Y36.6402 F120.00
G01 X11.1652 Y36.7312 F120.00
G01 X11.0977 Y36.8408 F120.00
G01 X11.0567 Y36.9643 F120.00
G01 X11.0495 Y37.0352 F120.00
G01 X11.0495 Y39.9648 F120.00
G01 X11.0567 Y40.0357 F120.00
G01 X11.0977 Y40.1592 F120.00
G01 X11.1673 Y40.2721 F120.00
G01 X11.1855 Y40.2947 F120.00
G01 X11.1944 Y40.3065 F120.00
G01 X11.2023 Y40.3189 F120.00
G01 X11.2114 Y40.3363 F120.00
G01 X11.2170 Y40.3499 F120.00
G01 X11.2203 Y40.3592 F120.00
G01 X11.2439 Y40.4401 F120.00
G01 X11.2459 Y40.4494 F120.00
G01 X11.2481 Y40.4635 F120.00
G01 X11.2493 Y40.4777 F120.00
G01 X11.2495 Y40.4872 F120.00
G01 X11.2495 Y41.0128 F120.00
G01 X11.2492 Y41.0235 F120.00
G01 X11.2484 Y41.0342 F120.00
G01 X11.2449 Y41.0654 F120.00
G01 X11.2434 Y41.0751 F120.00
G01 X11.2402 Y41.0895 F120.00
G01 X11.2375 Y41.0989 F120.00
G01 X11.2326 Y41.1128 F120.00
G01 X11.2288 Y41.1218 F120.00
G01 X11.2222 Y41.1350 F120.00
G01 X11.1887 Y41.1963 F120.00
G01 X11.1788 Y41.2126 F120.00
G01 X11.1673 Y41.2280 F120.00
G01 X11.0977 Y41.3408 F120.00
G01 X11.0567 Y41.4643 F120.00
G01 X11.0495 Y41.5352 F120.00
G01 X11.0495 Y44.4648 F120.00
G01 X11.0567 Y44.5357 F120.00
G01 X11.0977 Y44.6592 F120.00
G01 X11.1652 Y44.7688 F120.00
G01 X11.2562 Y44.8598 F120.00
G01 X11.3658 Y44.9273 F120.00
G01 X11.4893 Y44.9683 F120.00
G01 X11.5602 Y44.9755 F120.00
G01 X12.5398 Y44.9755 F120.00
G01 X12.6107 Y44.9683 F120.00
G01 X12.7342 Y44.9273 F120.00
G01 X12.8438 Y44.8598 F120.00
G01 X12.9348 Y44.7688 F120.00
G01 X13.0023 Y44.6592 F120.00
G01 X13.0433 Y44.5357 F120.00
G01 X13.0505 Y44.4648 F120.00
G01 X13.0505 Y41.5352 F120.00
G01 X13.0433 Y41.4643 F120.00
G01 X13.0023 Y41.3408 F120.00
G01 X12.9327 Y41.2279 F120.00
G01 X12.9145 Y41.2053 F120.00
G01 X12.9056 Y41.1935 F120.00
G01 X12.8977 Y41.1811 F120.00
G01 X12.8907 Y41.1681 F120.00
G01 X12.8847 Y41.1547 F120.00
G01 X12.8783 Y41.1362 F120.00
G01 X12.8573 Y41.0645 F120.00
G01 X12.8533 Y41.0459 F120.00
G01 X12.8510 Y41.0270 F120.00
G01 X12.8505 Y41.0128 F120.00
G01 X12.8507 Y40.6150 F120.00
G01 X12.8525 Y40.5960 F120.00
G01 X12.8551 Y40.5820 F120.00
G01 X12.8674 Y40.5256 F120.00
G01 X12.8731 Y40.5065 F120.00
G01 X12.8786 Y40.4925 F120.00
G01 X12.8852 Y40.4790 F120.00
G01 X12.8927 Y40.4661 F120.00
G01 X12.9042 Y40.4497 F120.00
G01 X12.9630 Y40.3819 F120.00
G01 X12.9774 Y40.3682 F120.00
G01 X12.9891 Y40.3590 F120.00
G01 X13.0014 Y40.3506 F120.00
G01 X13.0143 Y40.3432 F120.00
G01 X13.0278 Y40.3367 F120.00
G01 X13.0417 Y40.3313 F120.00
G01 X13.1227 Y40.3073 F120.00
G01 X13.1413 Y40.3033 F120.00
G01 X13.1602 Y40.3010 F120.00
G01 X13.1745 Y40.3005 F120.00
G01 X14.2866 Y40.3005 F120.00
G01 X14.2979 Y40.3008 F120.00
G01 X14.3294 Y40.3035 F120.00
G01 X14.3440 Y40.3056 F120.00
G01 X14.3632 Y40.3102 F120.00
G01 X14.3819 Y40.3166 F120.00
G01 X14.3955 Y40.3226 F120.00
G01 X14.4670 Y40.3579 F120.00
G01 X14.4839 Y40.3684 F120.00
G01 X14.4997 Y40.3805 F120.00
G01 X14.5107 Y40.3905 F120.00
G01 X14.5241 Y40.4052 F120.00
G01 X14.5332 Y40.4170 F120.00
G01 X14.5414 Y40.4294 F120.00
G01 X14.5776 Y40.4892 F120.00
G01 X14.5848 Y40.5022 F120.00
G01 X14.5910 Y40.5157 F120.00
G01 X14.5946 Y40.5250 F120.00
G01 X14.5992 Y40.5392 F120.00
G01 X14.6016 Y40.5488 F120.00
G01 X14.6050 Y40.5684 F120.00
G01 X14.6064 Y40.5882 F120.00
G01 X14.6045 Y40.6680 F120.00
G01 X14.6036 Y40.6828 F120.00
G01 X14.6006 Y40.7024 F120.00
G01 X14.5971 Y40.7169 F120.00
G01 X14.5908 Y40.7357 F120.00
G01 X14.5826 Y40.7538 F120.00
G01 X14.5727 Y40.7710 F120.00
G01 X14.5306 Y40.8329 F120.00
G01 X14.5191 Y40.8481 F120.00
G01 X14.5096 Y40.8588 F120.00
G01 X14.4978 Y40.8701 F120.00
G01 X13.8782 Y41.4897 F120.00
G01 X13.7906 Y41.6208 F120.00
G01 X13.7303 Y41.7665 F120.00
G01 X13.6995 Y41.9212 F120.00
G01 X13.6995 Y50.5788 F120.00
G01 X13.7303 Y50.7335 F120.00
G01 X13.7906 Y50.8792 F120.00
G01 X13.8782 Y51.0103 F120.00
G01 X14.5143 Y51.6464 F120.00
G01 X14.5286 Y51.6617 F120.00
G01 X14.5350 Y51.6692 F120.00
G01 X14.5410 Y51.6771 F120.00
G01 X14.5492 Y51.6894 F120.00
G01 X14.5565 Y51.7023 F120.00
G01 X14.5609 Y51.7112 F120.00
G01 X14.5938 Y51.7839 F120.00
G01 X14.5988 Y51.7979 F120.00
G01 X14.6027 Y51.8123 F120.00
G01 X14.6047 Y51.8220 F120.00
G01 X14.6068 Y51.8368 F120.00
G01 X14.6076 Y51.8467 F120.00
G01 X14.6079 Y51.8616 F120.00
G01 X14.6075 Y51.8715 F120.00
G01 X14.6059 Y51.8863 F120.00
G01 X14.5943 Y51.9653 F120.00
G01 X14.5896 Y51.9845 F120.00
G01 X14.5829 Y52.0033 F120.00
G01 X14.5767 Y52.0168 F120.00
G01 X14.5695 Y52.0299 F120.00
G01 X14.5614 Y52.0423 F120.00
G01 X14.5524 Y52.0542 F120.00
G01 X14.4967 Y52.1181 F120.00
G01 X14.4897 Y52.1251 F120.00
G01 X14.4785 Y52.1350 F120.00
G01 X14.4625 Y52.1467 F120.00
G01 X14.4497 Y52.1545 F120.00
G01 X14.4365 Y52.1612 F120.00
G01 X14.4227 Y52.1670 F120.00
G01 X14.4086 Y52.1717 F120.00
G01 X14.3416 Y52.1914 F120.00
G01 X14.3277 Y52.1949 F120.00
G01 X14.3137 Y52.1975 F120.00
G01 X14.3042 Y52.1986 F120.00
G01 X14.2852 Y52.1995 F120.00
G01 X1.1245 Y52.1995 F120.00
G01 X1.1055 Y52.1986 F120.00
G01 X1.0913 Y52.1967 F120.00
G01 X1.0256 Y52.1826 F120.00
G01 X1.0112 Y52.1785 F120.00
G01 X1.0018 Y52.1752 F120.00
G01 X0.9925 Y52.1714 F120.00
G01 X0.9790 Y52.1648 F120.00
G01 X0.9661 Y52.1573 F120.00
G01 X0.9497 Y52.1458 F120.00
G01 X0.8892 Y52.0937 F120.00
G01 X0.8783 Y52.0835 F120.00
G01 X0.8715 Y52.0763 F120.00
G01 X0.8620 Y52.0649 F120.00
G01 X0.8561 Y52.0569 F120.00
G01 X0.8480 Y52.0443 F120.00
G01 X0.8409 Y52.0312 F120.00
G01 X0.8330 Y52.0130 F120.00
G01 X0.8283 Y51.9989 F120.00
G01 X0.8086 Y51.9318 F120.00
G01 X0.8051 Y51.9180 F120.00
G01 X0.8019 Y51.8992 F120.00
G01 X0.8010 Y51.8898 F120.00
G01 X0.8005 Y51.8755 F120.00
G01 X0.8005 Y1.1245 F120.00
G01 X0.8014 Y1.1055 F120.00
G00 Z2.0000
G00 X5.1247 Y5.5811
G01 F60.00
G01 Z0.0000
G01 F120.00
G01 X5.2564 Y5.4094 F120.00
G01 X5.4094 Y5.2564 F120.00
G01 X5.5811 Y5.1247 F120.00
G01 X5.7684 Y5.0165 F120.00
G01 X5.9683 Y4.9337 F120.00
G01 X6.1773 Y4.8777 F120.00
G01 X6.3918 Y4.8495 F120.00
G01 X6.6082 Y4.8495 F120.00
G01 X6.8227 Y4.8777 F120.00
G01 X7.0317 Y4.9337 F120.00
G01 X7.2316 Y5.0165 F120.00
G01 X7.4189 Y5.1247 F120.00
G01 X7.5906 Y5.2564 F120.00
G01 X7.7436 Y5.4094 F120.00
G01 X7.8753 Y5.5811 F120.00
G01 X7.9835 Y5.7684 F120.00
G01 X8.0663 Y5.9683 F120.00
G01 X8.1223 Y6.1773 F120.00
G01 X8.1505 Y6.3918 F120.00
G01 X8.1505 Y6.6082 F120.00
G01 X8.1223 Y6.8227 F120.00
G01 X8.0663 Y7.0317 F120.00
G01 X7.9835 Y7.2316 F120.00
G01 X7.8753 Y7.4189 F120.00
G01 X7.7436 Y7.5906 F120.00
G01 X7.5906 Y7.7436 F120.00
G01 X7.4189 Y7.8753 F120.00
G01 X7.2316 Y7.9835 F120.00
G01 X7.0317 Y8.0663 F120.00
G01 X6.8227 Y8.1223 F120.00
G01 X6.6082 Y8.1505 F120.00
G01 X6.3918 Y8.1505 F120.00
G01 X6.1773 Y8.1223 F120.00
G01 X5.9683 Y8.0663 F120.00
G01 X5.7684 Y7.9835 F120.00
G01 X5.5811 Y7.8753 F120.00
G01 X5.4094 Y7.7436 F120.00
G01 X5.2564 Y7.5906 F120.00
G01 X5.1247 Y7.4189 F120.00
G01 X5.0165 Y7.2316 F120.00
G01 X4.9337 Y7.0317 F120.00
G01 X4.8777 Y6.8227 F120.00
G01 X4.8495 Y6.6082 F120.00
G01 X4.8495 Y6.3918 F120.00
G01 X4.8777 Y6.1773 F120.00
G01 X4.9337 Y5.9683 F120.00
G01 X5.0165 Y5.7684 F120.00
G01 X5.1247 Y5.5811 F120.00
G00 Z2.0000
G00 X2.1255 Y18.9515
G01 F60.00
G01 Z0.0000
G01 F120.00
G01 X2.1353 Y18.9505 F120.00
G01 X2.1500 Y18.9500 F120.00
G01 X3.8500 Y18.9500 F120.00
G01 X3.8647 Y18.9505 F120.00
G01 X3.8793 Y18.9522 F120.00
G01 X3.8938 Y18.9549 F120.00
G01 X3.9081 Y18.9586 F120.00
G01 X3.9220 Y18.9634 F120.00
G01 X3.9355 Y18.9692 F120.00
G01 X3.9486 Y18.9760 F120.00
G01 X3.9611 Y18.9837 F120.00
G01 X3.9730 Y18.9923 F120.00
G01 X3.9843 Y19.0018 F120.00
G01 X3.9948 Y19.0121 F120.00
G01 X4.0046 Y19.0231 F120.00
G01 X4.0135 Y19.0348 F120.00
G01 X4.0215 Y19.0472 F120.00
G01 X4.0308 Y19.0645 F120.00
G01 X4.0366 Y19.0780 F120.00
G01 X4.0414 Y19.0919 F120.00
G01 X4.0451 Y19.1062 F120.00
G01 X4.0478 Y19.1207 F120.00
G01 X4.0495 Y19.1353 F120.00
G01 X4.0500 Y19.1500 F120.00
G01 X4.0500 Y20.8500 F120.00
G01 X4.0495 Y20.8647 F120.00
G01 X4.0471 Y20.8842 F120.00
G01 X4.0440 Y20.8986 F120.00
G01 X4.0414 Y20.9081 F120.00
G01 X4.0348 Y20.9265 F120.00
G01 X4.0308 Y20.9355 F120.00
G01 X4.0240 Y20.9486 F120.00
G01 X4.0190 Y20.9570 F120.00
G01 X4.0106 Y20.9691 F120.00
G01 X4.0046 Y20.9769 F120.00
G01 X3.9948 Y20.9879 F120.00
G01 X3.9879 Y20.9948 F120.00
G01 X3.9769 Y21.0046 F120.00
G01 X3.9652 Y21.0135 F120.00
G01 X3.9570 Y21.0190 F120.00
G01 X3.9443 Y21.0264 F120.00
G01 X3.9355 Y21.0308 F120.00
G01 X3.9174 Y21.0383 F120.00
G01 X3.8986 Y21.0440 F120.00
G01 X3.8793 Y21.0478 F120.00
G01 X3.8647 Y21.0495 F120.00
G01 X3.8500 Y21.0500 F120.00
G01 X3.7003 Y21.0500 F120.00
G01 X3.7003 Y22.9500 F120.00
G01 X3.8500 Y22.9500 F120.00
G01 X3.8696 Y22.9510 F120.00
G01 X3.8890 Y22.9538 F120.00
G01 X3.9081 Y22.9586 F120.00
G01 X3.9265 Y22.9652 F120.00
G01 X3.9443 Y22.9736 F120.00
G01 X3.9570 Y22.9810 F120.00
G01 X3.9691 Y22.9894 F120.00
G01 X3.9806 Y22.9986 F120.00
G01 X3.9879 Y23.0052 F120.00
G01 X3.9948 Y23.0121 F120.00
G01 X4.0046 Y23.0231 F120.00
G01 X4.0135 Y23.0348 F120.00
G01 X4.0190 Y23.0430 F120.00
G01 X4.0240 Y23.0514 F120.00
G01 X4.0308 Y23.0645 F120.00
G01 X4.0366 Y23.0780 F120.00
G01 X4.0399 Y23.0873 F120.00
G01 X4.0440 Y23.1014 F120.00
G01 X4.0462 Y23.1110 F120.00
G01 X4.0485 Y23.1255 F120.00
G01 X4.0498 Y23.1402 F120.00
G01 X4.0500 Y24.8500 F120.00
G01 X4.0495 Y24.8647 F120.00
G01 X4.0478 Y24.8793 F120.00
G01 X4.0451 Y24.8938 F120.00
G01 X4.0414 Y24.9081 F120.00
G01 X4.0366 Y24.9220 F120.00
G01 X4.0308 Y24.9355 F120.00
G01 X4.0215 Y24.9528 F120.00
G01 X4.0135 Y24.9652 F120.00
G01 X4.0046 Y24.9769 F120.00
G01 X3.9948 Y24.9879 F120.00
G01 X3.9843 Y24.9982 F120.00
G01 X3.9730 Y25.0077 F120.00
G01 X3.9611 Y25.0163 F120.00
G01 X3.9486 Y25.0240 F120.00
G01 X3.9355 Y25.0308 F120.00
G01 X3.9220 Y25.0366 F120.00
G01 X3.9081 Y25.0414 F120.00
G01 X3.8938 Y25.0451 F120.00
G01 X3.8793 Y25.0478 F120.00
G01 X3.8647 Y25.0495 F120.00
G01 X3.8500 Y25.0500 F120.00
G01 X2.1500 Y25.0500 F120.00
G01 X2.1353 Y25.0495 F120.00
G01 X2.1207 Y25.0478 F120.00
G01 X2.1062 Y25.0451 F120.00
G01 X2.0919 Y25.0414 F120.00
G01 X2.0780 Y25.0366 F120.00
G01 X2.0645 Y25.0308 F120.00
G01 X2.0514 Y25.0240 F120.00
G01 X2.0389 Y25.0163 F120.00
G01 X2.0270 Y25.0077 F120.00
G01 X2.0157 Y24.9982 F120.00
G01 X2.0052 Y24.9879 F120.00
G01 X1.9954 Y24.9769 F120.00
G01 X1.9865 Y24.9652 F120.00
G01 X1.9760 Y24.9486 F120.00
G01 X1.9692 Y24.9355 F120.00
G01 X1.9634 Y24.9220 F120.00
G01 X1.9586 Y24.9081 F120.00
G01 X1.9549 Y24.8938 F120.00
G01 X1.9522 Y24.8793 F120.00
G01 X1.9505 Y24.8647 F120.00
G01 X1.9500 Y24.8500 F120.00
G01 X1.9500 Y23.1500 F120.00
G01 X1.9510 Y23.1304 F120.00
G01 X1.9529 Y23.1158 F120.00
G01 X1.9560 Y23.1014 F120.00
G01 X1.9586 Y23.0919 F120.00
G01 X1.9617 Y23.0826 F120.00
G01 X1.9672 Y23.0690 F120.00
G01 X1.9760 Y23.0514 F120.00
G01 X1.9810 Y23.0430 F120.00
G01 X1.9894 Y23.0309 F120.00
G01 X1.9954 Y23.0231 F120.00
G01 X2.0052 Y23.0121 F120.00
G01 X2.0121 Y23.0052 F120.00
G01 X2.0231 Y22.9954 F120.00
G01 X2.0348 Y22.9865 F120.00
G01 X2.0430 Y22.9810 F120.00
G01 X2.0557 Y22.9736 F120.00
G01 X2.0645 Y22.9692 F120.00
G01 X2.0826 Y22.9617 F120.00
G01 X2.1014 Y22.9560 F120.00
G01 X2.1207 Y22.9522 F120.00
G01 X2.1353 Y22.9505 F120.00
G01 X2.1500 Y22.9500 F120.00
G01 X2.2997 Y22.9500 F120.00
G01 X2.2997 Y21.0500 F120.00
G01 X2.1500 Y21.0500 F120.00
G01 X2.1304 Y21.0490 F120.00
G01 X2.1110 Y21.0462 F120.00
G01 X2.0919 Y21.0414 F120.00
G01 X2.0735 Y21.0348 F120.00
G01 X2.0557 Y21.0264 F120.00
G01 X2.0430 Y21.0190 F120.00
G01 X2.0309 Y21.0106 F120.00
G01 X2.0194 Y21.0014 F120.00
G01 X2.0121 Y20.9948 F120.00
G01 X2.0052 Y20.9879 F120.00
G01 X1.9954 Y20.9769 F120.00
G01 X1.9865 Y20.9652 F120.00
G01 X1.9810 Y20.9570 F120.00
G01 X1.9760 Y20.9486 F120.00
G01 X1.9692 Y20.9355 F120.00
G01 X1.9634 Y20.9220 F120.00
G01 X1.9601 Y20.9127 F120.00
G01 X1.9560 Y20.8986 F120.00
G01 X1.9529 Y20.8842 F120.00
G01 X1.9510 Y20.8696 F120.00
G01 X1.9502 Y20.8598 F120.00
G01 X1.9500 Y19.1500 F120.00
G01 X1.9510 Y19.1304 F120.00
G01 X1.9529 Y19.1158 F120.00
G01 X1.9572 Y19.0967 F120.00
G01 X1.9617 Y19.0826 F120.00
G01 X1.9692 Y19.0645 F120.00
G01 X1.9760 Y19.0514 F120.00
G01 X1.9865 Y19.0348 F120.00
G01 X1.9954 Y19.0231 F120.00
G01 X2.0086 Y19.0086 F120.00
G01 X2.0194 Y18.9986 F120.00
G01 X2.0309 Y18.9894 F120.00
G01 X2.0472 Y18.9785 F120.00
G01 X2.0601 Y18.9714 F120.00
G01 X2.0735 Y18.9652 F120.00
G01 X2.0919 Y18.9586 F120.00
G01 X2.1110 Y18.9538 F120.00
G01 X2.1255 Y18.9515 F120.00
G00 Z2.0000
