(G-CODE GENERATED BY FLATCAM v8.994 - www.flatcam.org - Version Date: 2020/11/7)

(Name: kicad-F_Cu.gbr_iso_combined_cnc)
(Type: G-code from Geometry)
(Units: MM)

(Created on Saturday, 12 October 2024 at 19:51)

(This preprocessor is used with a motion controller loaded with GRBL firmware.)
(It is configured to be compatible with almost any version of GRBL firmware.)

(TOOL DIAMETER: 0.1 mm)
(Feedrate_XY: 120.0 mm/min)
(Feedrate_Z: 60.0 mm/min)
(Feedrate rapids 1500.0 mm/min)

(Z_Cut: 0.0 mm)
(Z_Move: 1.0 mm)
(Z Start: None mm)
(Z End: 15.0 mm)
(X,Y End: None mm)
(Steps per circle: 64)
(Steps per circle: 64)
(Preprocessor Geometry: GRBL_11_no_M6)

(X range:    0.9505 ...   47.5503  mm)
(Y range:    0.9497 ...   52.0503  mm)

(Spindle Speed: 0.0 RPM)
G21
G90
G17
G94


G01 F120.00

M5             
G00 Z15.0000
G00 X0.0000 Y0.0000                
T1
(MSG, Change to Tool Dia = 0.1000)
M0
G00 Z15.0000
        
M03
G01 F120.00
G00 X0.9507 Y1.1197
G01 F60.00
G01 Z0.0000
G01 F120.00
G01 X0.9516 Y1.1139 F120.00
G01 X0.9631 Y1.0611 F120.00
G01 X0.9650 Y1.0552 F120.00
G01 X0.9676 Y1.0495 F120.00
G01 X0.9731 Y1.0412 F120.00
G01 X1.0222 Y0.9847 F120.00
G01 X1.0269 Y0.9806 F120.00
G01 X1.0320 Y0.9771 F120.00
G01 X1.0364 Y0.9748 F120.00
G01 X1.0422 Y0.9726 F120.00
G01 X1.1116 Y0.9522 F120.00
G01 X1.1174 Y0.9510 F120.00
G01 X1.1245 Y0.9505 F120.00
G01 X17.0352 Y0.9505 F120.00
G01 X17.0495 Y0.9511 F120.00
G01 X17.0580 Y0.9528 F120.00
G01 X17.1270 Y0.9784 F120.00
G01 X17.1327 Y0.9809 F120.00
G01 X17.1380 Y0.9841 F120.00
G01 X17.1429 Y0.9880 F120.00
G01 X17.1472 Y0.9924 F120.00
G01 X17.1922 Y1.0522 F120.00
G01 X17.1954 Y1.0575 F120.00
G01 X17.1980 Y1.0631 F120.00
G01 X17.2002 Y1.0702 F120.00
G01 X17.2012 Y1.0764 F120.00
G01 X17.2063 Y1.1485 F120.00
G01 X17.2062 Y1.1547 F120.00
G01 X17.2054 Y1.1609 F120.00
G01 X17.2038 Y1.1669 F120.00
G01 X17.2014 Y1.1726 F120.00
G01 X17.1662 Y1.2372 F120.00
G01 X17.1622 Y1.2431 F120.00
G01 X17.1583 Y1.2475 F120.00
G01 X9.2617 Y9.1441 F120.00
G01 X9.1577 Y9.2998 F120.00
G01 X9.0860 Y9.4728 F120.00
G01 X9.0495 Y9.6564 F120.00
G01 X9.0495 Y12.5342 F120.00
G01 X9.0492 Y12.5396 F120.00
G01 X9.0461 Y12.5684 F120.00
G01 X9.0444 Y12.5755 F120.00
G01 X9.0417 Y12.5824 F120.00
G01 X9.0065 Y12.6469 F120.00
G01 X9.0025 Y12.6528 F120.00
G01 X8.9985 Y12.6573 F120.00
G01 X4.8017 Y16.8541 F120.00
G01 X4.6977 Y17.0098 F120.00
G01 X4.6260 Y17.1828 F120.00
G01 X4.5895 Y17.3664 F120.00
G01 X4.5895 Y18.8804 F120.00
G01 X4.5882 Y18.8903 F120.00
G01 X4.5721 Y18.9533 F120.00
G01 X4.5684 Y18.9622 F120.00
G01 X4.5652 Y18.9674 F120.00
G01 X4.5622 Y18.9713 F120.00
G01 X4.5075 Y19.0259 F120.00
G01 X4.5026 Y19.0296 F120.00
G01 X4.4972 Y19.0327 F120.00
G01 X4.4915 Y19.0351 F120.00
G01 X4.4856 Y19.0368 F120.00
G01 X4.4161 Y19.0519 F120.00
G01 X4.4087 Y19.0528 F120.00
G01 X4.4025 Y19.0526 F120.00
G01 X4.3963 Y19.0517 F120.00
G01 X4.3903 Y19.0501 F120.00
G01 X4.3226 Y19.0248 F120.00
G01 X4.3159 Y19.0215 F120.00
G01 X4.3107 Y19.0181 F120.00
G01 X4.3061 Y19.0140 F120.00
G01 X4.3012 Y19.0084 F120.00
G01 X4.2577 Y18.9502 F120.00
G01 X4.2539 Y18.9434 F120.00
G01 X4.2495 Y18.9319 F120.00
G01 X4.1718 Y18.8282 F120.00
G01 X4.0681 Y18.7505 F120.00
G01 X3.9459 Y18.7050 F120.00
G01 X3.8952 Y18.6995 F120.00
G01 X2.1048 Y18.6995 F120.00
G01 X2.0541 Y18.7050 F120.00
G01 X1.9319 Y18.7505 F120.00
G01 X1.8282 Y18.8282 F120.00
G01 X1.7505 Y18.9319 F120.00
G01 X1.7050 Y19.0541 F120.00
G01 X1.6995 Y19.1048 F120.00
G01 X1.6995 Y20.8952 F120.00
G01 X1.7050 Y20.9459 F120.00
G01 X1.7505 Y21.0681 F120.00
G01 X1.8282 Y21.1718 F120.00
G01 X1.9319 Y21.2495 F120.00
G01 X1.9484 Y21.2562 F120.00
G01 X1.9569 Y21.2612 F120.00
G01 X2.0126 Y21.3093 F120.00
G01 X2.0170 Y21.3137 F120.00
G01 X2.0229 Y21.3217 F120.00
G01 X2.0270 Y21.3307 F120.00
G01 X2.0484 Y21.4035 F120.00
G01 X2.0493 Y21.4094 F120.00
G01 X2.0495 Y21.4141 F120.00
G01 X2.0495 Y22.5859 F120.00
G01 X2.0489 Y22.6002 F120.00
G01 X2.0478 Y22.6063 F120.00
G01 X2.0464 Y22.6110 F120.00
G01 X2.0212 Y22.6788 F120.00
G01 X2.0179 Y22.6855 F120.00
G01 X2.0129 Y22.6926 F120.00
G01 X2.0057 Y22.6994 F120.00
G01 X1.9488 Y22.7421 F120.00
G01 X1.9409 Y22.7469 F120.00
G01 X1.9319 Y22.7505 F120.00
G01 X1.8282 Y22.8282 F120.00
G01 X1.7505 Y22.9319 F120.00
G01 X1.7050 Y23.0541 F120.00
G01 X1.6995 Y23.1048 F120.00
G01 X1.6995 Y24.8952 F120.00
G01 X1.7050 Y24.9459 F120.00
G01 X1.7505 Y25.0681 F120.00
G01 X1.8282 Y25.1718 F120.00
G01 X1.9319 Y25.2495 F120.00
G01 X2.0541 Y25.2950 F120.00
G01 X2.1048 Y25.3005 F120.00
G01 X3.8952 Y25.3005 F120.00
G01 X3.9459 Y25.2950 F120.00
G01 X4.0681 Y25.2495 F120.00
G01 X4.1718 Y25.1718 F120.00
G01 X4.2495 Y25.0681 F120.00
G01 X4.2950 Y24.9459 F120.00
G01 X4.3005 Y24.8952 F120.00
G01 X4.3005 Y23.1048 F120.00
G01 X4.2950 Y23.0541 F120.00
G01 X4.2495 Y22.9319 F120.00
G01 X4.1718 Y22.8282 F120.00
G01 X4.0681 Y22.7505 F120.00
G01 X4.0516 Y22.7438 F120.00
G01 X4.0431 Y22.7388 F120.00
G01 X3.9874 Y22.6907 F120.00
G01 X3.9830 Y22.6863 F120.00
G01 X3.9771 Y22.6783 F120.00
G01 X3.9730 Y22.6693 F120.00
G01 X3.9516 Y22.5965 F120.00
G01 X3.9507 Y22.5906 F120.00
G01 X3.9505 Y22.5859 F120.00
G01 X3.9505 Y21.4124 F120.00
G01 X3.9513 Y21.3986 F120.00
G01 X3.9536 Y21.3890 F120.00
G01 X3.9788 Y21.3212 F120.00
G01 X3.9821 Y21.3145 F120.00
G01 X3.9871 Y21.3074 F120.00
G01 X3.9943 Y21.3006 F120.00
G01 X4.0512 Y21.2579 F120.00
G01 X4.0591 Y21.2531 F120.00
G01 X4.0681 Y21.2495 F120.00
G01 X4.1718 Y21.1718 F120.00
G01 X4.2495 Y21.0681 F120.00
G01 X4.2974 Y20.9400 F120.00
G01 X4.3178 Y20.9027 F120.00
G01 X4.3232 Y20.8958 F120.00
G01 X4.3298 Y20.8899 F120.00
G01 X4.3867 Y20.8473 F120.00
G01 X4.3942 Y20.8429 F120.00
G01 X4.4011 Y20.8402 F120.00
G01 X4.4109 Y20.8383 F120.00
G01 X4.4843 Y20.8331 F120.00
G01 X4.4905 Y20.8333 F120.00
G01 X4.4954 Y20.8341 F120.00
G01 X4.5002 Y20.8353 F120.00
G01 X4.5060 Y20.8375 F120.00
G01 X4.5706 Y20.8727 F120.00
G01 X4.5776 Y20.8773 F120.00
G01 X4.5820 Y20.8812 F120.00
G01 X4.7009 Y21.0000 F120.00
G01 X4.8873 Y21.1306 F120.00
G01 X5.0935 Y21.2267 F120.00
G01 X5.3133 Y21.2856 F120.00
G01 X5.5400 Y21.3055 F120.00
G01 X5.7667 Y21.2856 F120.00
G01 X5.9865 Y21.2267 F120.00
G01 X6.1927 Y21.1306 F120.00
G01 X6.3791 Y21.0000 F120.00
G01 X6.5400 Y20.8391 F120.00
G01 X6.6686 Y20.6556 F120.00
G01 X6.6877 Y20.6334 F120.00
G01 X6.6919 Y20.6290 F120.00
G01 X6.6966 Y20.6252 F120.00
G01 X6.7018 Y20.6220 F120.00
G01 X6.7675 Y20.5889 F120.00
G01 X6.7733 Y20.5867 F120.00
G01 X6.7793 Y20.5853 F120.00
G01 X6.7855 Y20.5846 F120.00
G01 X6.7917 Y20.5847 F120.00
G01 X6.8637 Y20.5922 F120.00
G01 X6.8698 Y20.5934 F120.00
G01 X6.8757 Y20.5953 F120.00
G01 X6.8813 Y20.5979 F120.00
G01 X6.8875 Y20.6020 F120.00
G01 X6.9431 Y20.6463 F120.00
G01 X6.9483 Y20.6512 F120.00
G01 X6.9528 Y20.6567 F120.00
G01 X7.0803 Y20.8388 F120.00
G01 X7.2412 Y20.9997 F120.00
G01 X7.4275 Y21.1301 F120.00
G01 X7.5297 Y21.1778 F120.00
G01 X7.5297 Y20.7111 F120.00
G01 X7.5081 Y20.6949 F120.00
G01 X7.4445 Y20.6373 F120.00
G01 X7.3851 Y20.5719 F120.00
G01 X7.3317 Y20.5000 F120.00
G01 X7.2857 Y20.4232 F120.00
G01 X7.2476 Y20.3421 F120.00
G01 X7.2188 Y20.2614 F120.00
G01 X7.1978 Y20.1780 F120.00
G01 X7.1843 Y20.0882 F120.00
G01 X7.1800 Y20.0012 F120.00
G01 X7.1843 Y19.9118 F120.00
G01 X7.1973 Y19.8244 F120.00
G01 X7.2188 Y19.7387 F120.00
G01 X7.2483 Y19.6561 F120.00
G01 X7.2862 Y19.5758 F120.00
G01 X7.3320 Y19.4995 F120.00
G01 X7.3843 Y19.4290 F120.00
G01 X7.4419 Y19.3654 F120.00
G01 X7.4497 Y19.3580 F120.00
G01 X7.4497 Y18.8595 F120.00
G01 X7.4275 Y18.8699 F120.00
G01 X7.2412 Y19.0003 F120.00
G01 X7.0803 Y19.1612 F120.00
G01 X6.9520 Y19.3444 F120.00
G01 X6.9313 Y19.3684 F120.00
G01 X6.9269 Y19.3726 F120.00
G01 X6.9219 Y19.3761 F120.00
G01 X6.8542 Y19.4106 F120.00
G01 X6.8485 Y19.4129 F120.00
G01 X6.8425 Y19.4145 F120.00
G01 X6.8363 Y19.4153 F120.00
G01 X6.8289 Y19.4153 F120.00
G01 X6.7582 Y19.4080 F120.00
G01 X6.7520 Y19.4069 F120.00
G01 X6.7461 Y19.4052 F120.00
G01 X6.7404 Y19.4027 F120.00
G01 X6.7351 Y19.3995 F120.00
G01 X6.6775 Y19.3537 F120.00
G01 X6.6731 Y19.3497 F120.00
G01 X6.6678 Y19.3433 F120.00
G01 X6.5399 Y19.1606 F120.00
G01 X6.5213 Y19.1377 F120.00
G01 X6.5171 Y19.1316 F120.00
G01 X6.5143 Y19.1261 F120.00
G01 X6.5122 Y19.1204 F120.00
G01 X6.4925 Y19.0533 F120.00
G01 X6.4909 Y19.0452 F120.00
G01 X6.4905 Y19.0392 F120.00
G01 X6.4905 Y17.9258 F120.00
G01 X6.4938 Y17.8929 F120.00
G01 X6.4956 Y17.8845 F120.00
G01 X6.4995 Y17.8755 F120.00
G01 X6.5329 Y17.8141 F120.00
G01 X6.5368 Y17.8081 F120.00
G01 X6.5415 Y17.8027 F120.00
G01 X10.7383 Y13.6059 F120.00
G01 X10.8423 Y13.4502 F120.00
G01 X10.9140 Y13.2772 F120.00
G01 X10.9505 Y13.0936 F120.00
G01 X10.9505 Y10.2144 F120.00
G01 X10.9539 Y10.1816 F120.00
G01 X10.9553 Y10.1757 F120.00
G01 X10.9568 Y10.1710 F120.00
G01 X10.9595 Y10.1655 F120.00
G01 X10.9941 Y10.1021 F120.00
G01 X10.9975 Y10.0972 F120.00
G01 X11.0015 Y10.0927 F120.00
G01 X18.5927 Y2.5015 F120.00
G01 X18.6183 Y2.4805 F120.00
G01 X18.6267 Y2.4753 F120.00
G01 X18.6347 Y2.4722 F120.00
G01 X18.7028 Y2.4522 F120.00
G01 X18.7087 Y2.4510 F120.00
G01 X18.7158 Y2.4505 F120.00
G01 X29.0382 Y2.4507 F120.00
G01 X29.0684 Y2.4539 F120.00
G01 X29.0743 Y2.4553 F120.00
G01 X29.0801 Y2.4573 F120.00
G01 X29.1469 Y2.4935 F120.00
G01 X29.1519 Y2.4968 F120.00
G01 X29.1564 Y2.5006 F120.00
G01 X30.3941 Y3.7383 F120.00
G01 X30.5498 Y3.8423 F120.00
G01 X30.7228 Y3.9140 F120.00
G01 X30.9064 Y3.9505 F120.00
G01 X36.5342 Y3.9505 F120.00
G01 X36.5396 Y3.9508 F120.00
G01 X36.5708 Y3.9544 F120.00
G01 X36.5778 Y3.9564 F120.00
G01 X36.5845 Y3.9595 F120.00
G01 X36.6469 Y3.9935 F120.00
G01 X36.6528 Y3.9975 F120.00
G01 X36.6573 Y4.0015 F120.00
G01 X39.4985 Y6.8427 F120.00
G01 X39.5021 Y6.8467 F120.00
G01 X39.5209 Y6.8703 F120.00
G01 X39.5252 Y6.8778 F120.00
G01 X39.5278 Y6.8847 F120.00
G01 X39.5478 Y6.9528 F120.00
G01 X39.5491 Y6.9598 F120.00
G01 X39.5495 Y6.9658 F120.00
G01 X39.5495 Y10.5936 F120.00
G01 X39.5860 Y10.7773 F120.00
G01 X39.6577 Y10.9502 F120.00
G01 X39.7617 Y11.1059 F120.00
G01 X45.9985 Y17.3427 F120.00
G01 X46.0195 Y17.3683 F120.00
G01 X46.0223 Y17.3724 F120.00
G01 X46.0252 Y17.3778 F120.00
G01 X46.0278 Y17.3847 F120.00
G01 X46.0475 Y17.4517 F120.00
G01 X46.0490 Y17.4587 F120.00
G01 X46.0495 Y17.4658 F120.00
G01 X46.0495 Y29.5342 F120.00
G01 X46.0492 Y29.5396 F120.00
G01 X46.0461 Y29.5684 F120.00
G01 X46.0447 Y29.5743 F120.00
G01 X46.0427 Y29.5801 F120.00
G01 X46.0065 Y29.6469 F120.00
G01 X46.0032 Y29.6519 F120.00
G01 X45.9994 Y29.6564 F120.00
G01 X45.1573 Y30.4985 F120.00
G01 X45.1533 Y30.5021 F120.00
G01 X45.1287 Y30.5216 F120.00
G01 X45.1222 Y30.5252 F120.00
G01 X45.1153 Y30.5278 F120.00
G01 X45.0472 Y30.5478 F120.00
G01 X45.0378 Y30.5494 F120.00
G01 X44.7496 Y30.5495 F120.00
G01 X44.7445 Y30.5492 F120.00
G01 X44.6888 Y30.5379 F120.00
G01 X44.6829 Y30.5362 F120.00
G01 X44.6762 Y30.5331 F120.00
G01 X44.6681 Y30.5276 F120.00
G01 X44.6136 Y30.4820 F120.00
G01 X44.6092 Y30.4777 F120.00
G01 X44.6046 Y30.4717 F120.00
G01 X44.6016 Y30.4663 F120.00
G01 X44.5992 Y30.4606 F120.00
G01 X44.5772 Y30.3904 F120.00
G01 X44.5762 Y30.3855 F120.00
G01 X44.5756 Y30.3793 F120.00
G01 X44.5758 Y30.3731 F120.00
G01 X44.5765 Y30.3682 F120.00
G01 X44.5973 Y30.2927 F120.00
G01 X44.6015 Y30.2842 F120.00
G01 X44.6392 Y30.2231 F120.00
G01 X44.6908 Y30.0673 F120.00
G01 X44.7005 Y29.9725 F120.00
G01 X44.7005 Y27.0275 F120.00
G01 X44.6908 Y26.9327 F120.00
G01 X44.6392 Y26.7769 F120.00
G01 X44.5532 Y26.6376 F120.00
G01 X44.5487 Y26.6329 F120.00
G01 X44.5313 Y26.6112 F120.00
G01 X44.5259 Y26.6030 F120.00
G01 X44.5222 Y26.5939 F120.00
G01 X44.5025 Y26.5269 F120.00
G01 X44.5010 Y26.5199 F120.00
G01 X44.5005 Y26.5128 F120.00
G01 X44.5006 Y25.6209 F120.00
G01 X44.5016 Y25.6139 F120.00
G01 X44.5131 Y25.5611 F120.00
G01 X44.5154 Y25.5540 F120.00
G01 X44.5188 Y25.5473 F120.00
G01 X44.5239 Y25.5402 F120.00
G01 X44.5713 Y25.4856 F120.00
G01 X44.5789 Y25.4792 F120.00
G01 X44.5875 Y25.4743 F120.00
G01 X44.5934 Y25.4722 F120.00
G01 X44.6604 Y25.4525 F120.00
G01 X44.6697 Y25.4507 F120.00
G01 X44.8352 Y25.4505 F120.00
G01 X44.8859 Y25.4450 F120.00
G01 X45.0081 Y25.3995 F120.00
G01 X45.1118 Y25.3218 F120.00
G01 X45.1895 Y25.2181 F120.00
G01 X45.2350 Y25.0959 F120.00
G01 X45.2405 Y25.0452 F120.00
G01 X45.2405 Y23.9548 F120.00
G01 X45.2350 Y23.9041 F120.00
G01 X45.1895 Y23.7819 F120.00
G01 X45.1118 Y23.6782 F120.00
G01 X45.0583 Y23.6381 F120.00
G01 X45.0424 Y23.6244 F120.00
G01 X45.0368 Y23.6183 F120.00
G01 X45.0322 Y23.6113 F120.00
G01 X44.9976 Y23.5478 F120.00
G01 X44.9952 Y23.5421 F120.00
G01 X44.9939 Y23.5373 F120.00
G01 X44.9930 Y23.5324 F120.00
G01 X44.9926 Y23.5262 F120.00
G01 X44.9979 Y23.4503 F120.00
G01 X45.0001 Y23.4406 F120.00
G01 X45.0041 Y23.4316 F120.00
G01 X45.0075 Y23.4264 F120.00
G01 X45.0494 Y23.3705 F120.00
G01 X45.0533 Y23.3659 F120.00
G01 X45.0595 Y23.3604 F120.00
G01 X45.1115 Y23.3215 F120.00
G01 X45.1890 Y23.2179 F120.00
G01 X45.2346 Y23.0958 F120.00
G01 X45.2400 Y23.0451 F120.00
G01 X45.2400 Y22.8000 F120.00
G01 X44.8400 Y22.8000 F120.00
G01 X44.8400 Y23.0000 F120.00
G01 X44.8393 Y23.0085 F120.00
G01 X44.8375 Y23.0157 F120.00
G01 X44.8341 Y23.0236 F120.00
G01 X44.8294 Y23.0308 F120.00
G01 X44.8236 Y23.0370 F120.00
G01 X44.8167 Y23.0422 F120.00
G01 X44.8091 Y23.0462 F120.00
G01 X44.8021 Y23.0485 F120.00
G01 X44.7937 Y23.0499 F120.00
G01 X41.7605 Y23.0503 F120.00
G01 X41.7654 Y23.0958 F120.00
G01 X41.8110 Y23.2179 F120.00
G01 X41.8509 Y23.2712 F120.00
G01 X41.8555 Y23.2787 F120.00
G01 X41.8818 Y23.3421 F120.00
G01 X41.8840 Y23.3516 F120.00
G01 X41.8844 Y23.3577 F120.00
G01 X41.8841 Y23.3626 F120.00
G01 X41.8737 Y23.4354 F120.00
G01 X41.8723 Y23.4414 F120.00
G01 X41.8702 Y23.4472 F120.00
G01 X41.8666 Y23.4538 F120.00
G01 X41.8630 Y23.4588 F120.00
G01 X41.8156 Y23.5135 F120.00
G01 X41.8112 Y23.5178 F120.00
G01 X41.8062 Y23.5215 F120.00
G01 X41.8008 Y23.5246 F120.00
G01 X41.7951 Y23.5270 F120.00
G01 X41.7246 Y23.5478 F120.00
G01 X41.7187 Y23.5490 F120.00
G01 X41.7140 Y23.5494 F120.00
G01 X41.1159 Y23.5494 F120.00
G01 X41.1072 Y23.5482 F120.00
G01 X41.0454 Y23.5325 F120.00
G01 X41.0364 Y23.5289 F120.00
G01 X41.0281 Y23.5237 F120.00
G01 X41.0236 Y23.5197 F120.00
G01 X40.9733 Y23.4694 F120.00
G01 X40.9693 Y23.4646 F120.00
G01 X40.9654 Y23.4583 F120.00
G01 X40.9628 Y23.4527 F120.00
G01 X40.9610 Y23.4468 F120.00
G01 X40.9458 Y23.3773 F120.00
G01 X40.9448 Y23.3699 F120.00
G01 X40.9449 Y23.3625 F120.00
G01 X40.9458 Y23.3563 F120.00
G01 X40.9474 Y23.3503 F120.00
G01 X40.9723 Y23.2837 F120.00
G01 X40.9746 Y23.2784 F120.00
G01 X40.9791 Y23.2712 F120.00
G01 X41.0190 Y23.2179 F120.00
G01 X41.0646 Y23.0958 F120.00
G01 X41.0695 Y23.0503 F120.00
G01 X37.7279 Y23.0503 F120.00
G01 X37.6191 Y23.1591 F120.00
G01 X37.6410 Y23.2179 F120.00
G01 X37.7185 Y23.3215 F120.00
G01 X37.7725 Y23.3620 F120.00
G01 X37.7884 Y23.3758 F120.00
G01 X37.7917 Y23.3793 F120.00
G01 X37.7953 Y23.3840 F120.00
G01 X37.8330 Y23.4527 F120.00
G01 X37.8352 Y23.4585 F120.00
G01 X37.8364 Y23.4633 F120.00
G01 X37.8373 Y23.4695 F120.00
G01 X37.8374 Y23.4744 F120.00
G01 X37.8321 Y23.5491 F120.00
G01 X37.8299 Y23.5587 F120.00
G01 X37.8259 Y23.5678 F120.00
G01 X37.8225 Y23.5730 F120.00
G01 X37.7806 Y23.6289 F120.00
G01 X37.7767 Y23.6335 F120.00
G01 X37.7705 Y23.6390 F120.00
G01 X37.7182 Y23.6782 F120.00
G01 X37.6405 Y23.7819 F120.00
G01 X37.5950 Y23.9041 F120.00
G01 X37.5895 Y23.9548 F120.00
G01 X37.5895 Y25.0452 F120.00
G01 X37.5950 Y25.0959 F120.00
G01 X37.6405 Y25.2181 F120.00
G01 X37.7182 Y25.3218 F120.00
G01 X37.8219 Y25.3995 F120.00
G01 X37.9441 Y25.4450 F120.00
G01 X37.9948 Y25.4505 F120.00
G01 X42.4267 Y25.4505 F120.00
G01 X42.4350 Y25.4514 F120.00
G01 X42.4889 Y25.4631 F120.00
G01 X42.4948 Y25.4650 F120.00
G01 X42.5005 Y25.4676 F120.00
G01 X42.5088 Y25.4731 F120.00
G01 X42.5626 Y25.5197 F120.00
G01 X42.5670 Y25.5240 F120.00
G01 X42.5715 Y25.5299 F120.00
G01 X42.5752 Y25.5364 F120.00
G01 X42.5778 Y25.5434 F120.00
G01 X42.5978 Y25.6116 F120.00
G01 X42.5990 Y25.6174 F120.00
G01 X42.5995 Y25.6233 F120.00
G01 X42.5995 Y26.5128 F120.00
G01 X42.5964 Y26.5445 F120.00
G01 X42.5947 Y26.5529 F120.00
G01 X42.5917 Y26.5609 F120.00
G01 X42.5565 Y26.6255 F120.00
G01 X42.5525 Y26.6314 F120.00
G01 X42.5468 Y26.6376 F120.00
G01 X42.4608 Y26.7769 F120.00
G01 X42.4092 Y26.9327 F120.00
G01 X42.3995 Y27.0275 F120.00
G01 X42.3995 Y29.9725 F120.00
G01 X42.4092 Y30.0673 F120.00
G01 X42.4608 Y30.2231 F120.00
G01 X42.4985 Y30.2842 F120.00
G01 X42.5011 Y30.2890 F120.00
G01 X42.5209 Y30.3431 F120.00
G01 X42.5226 Y30.3503 F120.00
G01 X42.5231 Y30.3576 F120.00
G01 X42.5226 Y30.3650 F120.00
G01 X42.5125 Y30.4354 F120.00
G01 X42.5107 Y30.4426 F120.00
G01 X42.5073 Y30.4506 F120.00
G01 X42.5018 Y30.4588 F120.00
G01 X42.4536 Y30.5144 F120.00
G01 X42.4490 Y30.5186 F120.00
G01 X42.4439 Y30.5222 F120.00
G01 X42.4385 Y30.5252 F120.00
G01 X42.4339 Y30.5270 F120.00
G01 X42.3633 Y30.5478 F120.00
G01 X42.3575 Y30.5490 F120.00
G01 X42.3504 Y30.5495 F120.00
G01 X38.6496 Y30.5495 F120.00
G01 X38.6407 Y30.5487 F120.00
G01 X38.5900 Y30.5382 F120.00
G01 X38.5829 Y30.5362 F120.00
G01 X38.5773 Y30.5337 F120.00
G01 X38.5691 Y30.5284 F120.00
G01 X38.5126 Y30.4812 F120.00
G01 X38.5083 Y30.4767 F120.00
G01 X38.5040 Y30.4707 F120.00
G01 X38.5011 Y30.4652 F120.00
G01 X38.4988 Y30.4594 F120.00
G01 X38.4772 Y30.3904 F120.00
G01 X38.4762 Y30.3855 F120.00
G01 X38.4756 Y30.3793 F120.00
G01 X38.4763 Y30.3694 F120.00
G01 X38.4973 Y30.2927 F120.00
G01 X38.5015 Y30.2842 F120.00
G01 X38.5392 Y30.2231 F120.00
G01 X38.5908 Y30.0673 F120.00
G01 X38.6005 Y29.9725 F120.00
G01 X38.6005 Y27.0275 F120.00
G01 X38.5908 Y26.9327 F120.00
G01 X38.5392 Y26.7769 F120.00
G01 X38.4532 Y26.6376 F120.00
G01 X38.3374 Y26.5218 F120.00
G01 X38.1981 Y26.4358 F120.00
G01 X38.0423 Y26.3842 F120.00
G01 X37.9475 Y26.3745 F120.00
G01 X36.9525 Y26.3745 F120.00
G01 X36.8577 Y26.3842 F120.00
G01 X36.7019 Y26.4358 F120.00
G01 X36.5626 Y26.5218 F120.00
G01 X36.4468 Y26.6376 F120.00
G01 X36.3608 Y26.7769 F120.00
G01 X36.3092 Y26.9327 F120.00
G01 X36.2995 Y27.0275 F120.00
G01 X36.2995 Y28.2342 F120.00
G01 X36.2964 Y28.2659 F120.00
G01 X36.2954 Y28.2720 F120.00
G01 X36.2936 Y28.2778 F120.00
G01 X36.2905 Y28.2845 F120.00
G01 X36.2571 Y28.3459 F120.00
G01 X36.2517 Y28.3537 F120.00
G01 X36.1053 Y28.5004 F120.00
G01 X36.0807 Y28.5202 F120.00
G01 X36.0755 Y28.5235 F120.00
G01 X36.0711 Y28.5257 F120.00
G01 X36.0653 Y28.5278 F120.00
G01 X35.9937 Y28.5486 F120.00
G01 X35.9842 Y28.5495 F120.00
G01 X34.3484 Y28.5495 F120.00
G01 X34.3434 Y28.5493 F120.00
G01 X34.3372 Y28.5482 F120.00
G01 X34.2754 Y28.5325 F120.00
G01 X34.2708 Y28.5309 F120.00
G01 X34.2653 Y28.5284 F120.00
G01 X34.2601 Y28.5252 F120.00
G01 X34.2554 Y28.5214 F120.00
G01 X34.2033 Y28.4694 F120.00
G01 X34.2001 Y28.4656 F120.00
G01 X34.1966 Y28.4605 F120.00
G01 X34.1933 Y28.4538 F120.00
G01 X34.1907 Y28.4456 F120.00
G01 X34.1756 Y28.3761 F120.00
G01 X34.1748 Y28.3699 F120.00
G01 X34.1748 Y28.3637 F120.00
G01 X34.1758 Y28.3563 F120.00
G01 X34.1774 Y28.3503 F120.00
G01 X34.2023 Y28.2837 F120.00
G01 X34.2046 Y28.2784 F120.00
G01 X34.2091 Y28.2712 F120.00
G01 X34.2490 Y28.2179 F120.00
G01 X34.2946 Y28.0958 F120.00
G01 X34.2995 Y28.0503 F120.00
G01 X31.3463 Y28.0499 F120.00
G01 X31.3379 Y28.0485 F120.00
G01 X31.3309 Y28.0462 F120.00
G01 X31.3233 Y28.0422 F120.00
G01 X31.3164 Y28.0370 F120.00
G01 X31.3106 Y28.0308 F120.00
G01 X31.3059 Y28.0236 F120.00
G01 X31.3029 Y28.0168 F120.00
G01 X31.3007 Y28.0085 F120.00
G01 X31.3000 Y28.0000 F120.00
G01 X31.3000 Y27.8000 F120.00
G01 X30.9000 Y27.8000 F120.00
G01 X30.9000 Y28.0452 F120.00
G01 X30.9054 Y28.0958 F120.00
G01 X30.9510 Y28.2179 F120.00
G01 X31.0285 Y28.3215 F120.00
G01 X31.0817 Y28.3613 F120.00
G01 X31.0976 Y28.3750 F120.00
G01 X31.1032 Y28.3811 F120.00
G01 X31.1078 Y28.3880 F120.00
G01 X31.1424 Y28.4516 F120.00
G01 X31.1444 Y28.4561 F120.00
G01 X31.1461 Y28.4621 F120.00
G01 X31.1472 Y28.4682 F120.00
G01 X31.1474 Y28.4732 F120.00
G01 X31.1421 Y28.5491 F120.00
G01 X31.1409 Y28.5552 F120.00
G01 X31.1395 Y28.5599 F120.00
G01 X31.1370 Y28.5656 F120.00
G01 X31.1346 Y28.5699 F120.00
G01 X31.0906 Y28.6289 F120.00
G01 X31.0859 Y28.6343 F120.00
G01 X31.0805 Y28.6390 F120.00
G01 X31.0282 Y28.6782 F120.00
G01 X30.9505 Y28.7819 F120.00
G01 X30.9050 Y28.9041 F120.00
G01 X30.8995 Y28.9548 F120.00
G01 X30.8995 Y30.0452 F120.00
G01 X30.9050 Y30.0959 F120.00
G01 X30.9505 Y30.2181 F120.00
G01 X31.0282 Y30.3218 F120.00
G01 X31.0813 Y30.3616 F120.00
G01 X31.0971 Y30.3753 F120.00
G01 X31.1028 Y30.3814 F120.00
G01 X31.1074 Y30.3884 F120.00
G01 X31.1420 Y30.4519 F120.00
G01 X31.1444 Y30.4576 F120.00
G01 X31.1457 Y30.4624 F120.00
G01 X31.1467 Y30.4685 F120.00
G01 X31.1470 Y30.4735 F120.00
G01 X31.1416 Y30.5494 F120.00
G01 X31.1408 Y30.5543 F120.00
G01 X31.1391 Y30.5602 F120.00
G01 X31.1372 Y30.5648 F120.00
G01 X31.1342 Y30.5702 F120.00
G01 X31.0902 Y30.6292 F120.00
G01 X31.0855 Y30.6346 F120.00
G01 X31.0801 Y30.6393 F120.00
G01 X31.0282 Y30.6782 F120.00
G01 X30.9505 Y30.7819 F120.00
G01 X30.9050 Y30.9041 F120.00
G01 X30.8995 Y30.9548 F120.00
G01 X30.8995 Y32.0452 F120.00
G01 X30.9050 Y32.0959 F120.00
G01 X30.9505 Y32.2181 F120.00
G01 X31.0282 Y32.3218 F120.00
G01 X31.0813 Y32.3616 F120.00
G01 X31.0971 Y32.3753 F120.00
G01 X31.1028 Y32.3814 F120.00
G01 X31.1074 Y32.3884 F120.00
G01 X31.1420 Y32.4519 F120.00
G01 X31.1440 Y32.4565 F120.00
G01 X31.1457 Y32.4624 F120.00
G01 X31.1467 Y32.4685 F120.00
G01 X31.1470 Y32.4735 F120.00
G01 X31.1416 Y32.5494 F120.00
G01 X31.1408 Y32.5543 F120.00
G01 X31.1391 Y32.5602 F120.00
G01 X31.1372 Y32.5648 F120.00
G01 X31.1342 Y32.5702 F120.00
G01 X31.0902 Y32.6292 F120.00
G01 X31.0855 Y32.6346 F120.00
G01 X31.0801 Y32.6393 F120.00
G01 X31.0282 Y32.6782 F120.00
G01 X30.9505 Y32.7819 F120.00
G01 X30.9050 Y32.9041 F120.00
G01 X30.8995 Y32.9548 F120.00
G01 X30.8995 Y34.0452 F120.00
G01 X30.9050 Y34.0959 F120.00
G01 X30.9505 Y34.2181 F120.00
G01 X31.0282 Y34.3218 F120.00
G01 X31.0813 Y34.3616 F120.00
G01 X31.0971 Y34.3753 F120.00
G01 X31.1028 Y34.3814 F120.00
G01 X31.1074 Y34.3884 F120.00
G01 X31.1420 Y34.4519 F120.00
G01 X31.1440 Y34.4565 F120.00
G01 X31.1457 Y34.4624 F120.00
G01 X31.1467 Y34.4685 F120.00
G01 X31.1470 Y34.4735 F120.00
G01 X31.1416 Y34.5494 F120.00
G01 X31.1408 Y34.5543 F120.00
G01 X31.1391 Y34.5602 F120.00
G01 X31.1372 Y34.5648 F120.00
G01 X31.1342 Y34.5702 F120.00
G01 X31.0902 Y34.6292 F120.00
G01 X31.0855 Y34.6346 F120.00
G01 X31.0801 Y34.6393 F120.00
G01 X31.0282 Y34.6782 F120.00
G01 X30.9505 Y34.7819 F120.00
G01 X30.9050 Y34.9041 F120.00
G01 X30.8995 Y34.9548 F120.00
G01 X30.8995 Y36.0452 F120.00
G01 X30.9050 Y36.0959 F120.00
G01 X30.9505 Y36.2181 F120.00
G01 X31.0282 Y36.3218 F120.00
G01 X31.0813 Y36.3616 F120.00
G01 X31.0971 Y36.3753 F120.00
G01 X31.1028 Y36.3814 F120.00
G01 X31.1074 Y36.3884 F120.00
G01 X31.1420 Y36.4519 F120.00
G01 X31.1440 Y36.4565 F120.00
G01 X31.1457 Y36.4624 F120.00
G01 X31.1467 Y36.4685 F120.00
G01 X31.1470 Y36.4735 F120.00
G01 X31.1416 Y36.5494 F120.00
G01 X31.1408 Y36.5543 F120.00
G01 X31.1391 Y36.5602 F120.00
G01 X31.1372 Y36.5648 F120.00
G01 X31.1342 Y36.5702 F120.00
G01 X31.0902 Y36.6292 F120.00
G01 X31.0855 Y36.6346 F120.00
G01 X31.0801 Y36.6393 F120.00
G01 X31.0282 Y36.6782 F120.00
G01 X30.9505 Y36.7819 F120.00
G01 X30.9050 Y36.9041 F120.00
G01 X30.8995 Y36.9548 F120.00
G01 X30.8995 Y38.0452 F120.00
G01 X30.9050 Y38.0959 F120.00
G01 X30.9505 Y38.2181 F120.00
G01 X31.0282 Y38.3218 F120.00
G01 X31.0813 Y38.3616 F120.00
G01 X31.0971 Y38.3753 F120.00
G01 X31.1028 Y38.3814 F120.00
G01 X31.1074 Y38.3884 F120.00
G01 X31.1420 Y38.4519 F120.00
G01 X31.1440 Y38.4565 F120.00
G01 X31.1457 Y38.4624 F120.00
G01 X31.1467 Y38.4685 F120.00
G01 X31.1470 Y38.4735 F120.00
G01 X31.1416 Y38.5494 F120.00
G01 X31.1408 Y38.5543 F120.00
G01 X31.1391 Y38.5602 F120.00
G01 X31.1372 Y38.5648 F120.00
G01 X31.1342 Y38.5702 F120.00
G01 X31.0902 Y38.6292 F120.00
G01 X31.0855 Y38.6346 F120.00
G01 X31.0801 Y38.6393 F120.00
G01 X31.0282 Y38.6782 F120.00
G01 X30.9505 Y38.7819 F120.00
G01 X30.9050 Y38.9041 F120.00
G01 X30.8995 Y38.9548 F120.00
G01 X30.8995 Y40.0452 F120.00
G01 X30.9050 Y40.0959 F120.00
G01 X30.9505 Y40.2181 F120.00
G01 X31.0282 Y40.3218 F120.00
G01 X31.0813 Y40.3616 F120.00
G01 X31.0971 Y40.3753 F120.00
G01 X31.1028 Y40.3814 F120.00
G01 X31.1074 Y40.3884 F120.00
G01 X31.1420 Y40.4519 F120.00
G01 X31.1440 Y40.4565 F120.00
G01 X31.1457 Y40.4624 F120.00
G01 X31.1467 Y40.4685 F120.00
G01 X31.1470 Y40.4735 F120.00
G01 X31.1416 Y40.5494 F120.00
G01 X31.1395 Y40.5590 F120.00
G01 X31.1354 Y40.5681 F120.00
G01 X31.1320 Y40.5733 F120.00
G01 X31.0902 Y40.6292 F120.00
G01 X31.0863 Y40.6338 F120.00
G01 X31.0801 Y40.6393 F120.00
G01 X31.0282 Y40.6782 F120.00
G01 X30.9505 Y40.7819 F120.00
G01 X30.9050 Y40.9041 F120.00
G01 X30.8995 Y40.9548 F120.00
G01 X30.8995 Y42.0452 F120.00
G01 X30.9050 Y42.0959 F120.00
G01 X30.9505 Y42.2181 F120.00
G01 X31.0282 Y42.3218 F120.00
G01 X31.1319 Y42.3995 F120.00
G01 X31.2541 Y42.4450 F120.00
G01 X31.3048 Y42.4505 F120.00
G01 X35.3112 Y42.4505 F120.00
G01 X35.3440 Y42.4539 F120.00
G01 X35.3488 Y42.4549 F120.00
G01 X35.3547 Y42.4568 F120.00
G01 X35.3602 Y42.4594 F120.00
G01 X35.4215 Y42.4929 F120.00
G01 X35.4278 Y42.4970 F120.00
G01 X35.4342 Y42.5028 F120.00
G01 X35.4402 Y42.5107 F120.00
G01 X35.4755 Y42.5753 F120.00
G01 X35.4780 Y42.5810 F120.00
G01 X35.4800 Y42.5881 F120.00
G01 X35.4809 Y42.5943 F120.00
G01 X35.4810 Y42.6005 F120.00
G01 X35.4757 Y42.6739 F120.00
G01 X35.4735 Y42.6835 F120.00
G01 X35.4695 Y42.6926 F120.00
G01 X35.4661 Y42.6978 F120.00
G01 X35.4242 Y42.7537 F120.00
G01 X35.4187 Y42.7600 F120.00
G01 X35.4142 Y42.7638 F120.00
G01 X35.3282 Y42.8282 F120.00
G01 X35.2505 Y42.9319 F120.00
G01 X35.2050 Y43.0541 F120.00
G01 X35.1995 Y43.1048 F120.00
G01 X35.1995 Y44.8952 F120.00
G01 X35.2050 Y44.9459 F120.00
G01 X35.2505 Y45.0681 F120.00
G01 X35.3282 Y45.1718 F120.00
G01 X35.4319 Y45.2495 F120.00
G01 X35.4484 Y45.2562 F120.00
G01 X35.4569 Y45.2612 F120.00
G01 X35.5126 Y45.3093 F120.00
G01 X35.5178 Y45.3146 F120.00
G01 X35.5235 Y45.3227 F120.00
G01 X35.5274 Y45.3318 F120.00
G01 X35.5478 Y45.4012 F120.00
G01 X35.5494 Y45.4106 F120.00
G01 X35.5494 Y50.0369 F120.00
G01 X35.5461 Y50.0684 F120.00
G01 X35.5447 Y50.0743 F120.00
G01 X35.5427 Y50.0801 F120.00
G01 X35.5071 Y50.1459 F120.00
G01 X35.5039 Y50.1509 F120.00
G01 X35.5010 Y50.1546 F120.00
G01 X35.1573 Y50.4985 F120.00
G01 X35.1533 Y50.5021 F120.00
G01 X35.1297 Y50.5209 F120.00
G01 X35.1233 Y50.5247 F120.00
G01 X35.1153 Y50.5278 F120.00
G01 X35.0472 Y50.5478 F120.00
G01 X35.0413 Y50.5490 F120.00
G01 X35.0342 Y50.5495 F120.00
G01 X15.9644 Y50.5495 F120.00
G01 X15.9316 Y50.5461 F120.00
G01 X15.9257 Y50.5447 F120.00
G01 X15.9210 Y50.5432 F120.00
G01 X15.9155 Y50.5405 F120.00
G01 X15.8541 Y50.5071 F120.00
G01 X15.8501 Y50.5046 F120.00
G01 X15.8454 Y50.5010 F120.00
G01 X15.5005 Y50.1563 F120.00
G01 X15.4791 Y50.1297 F120.00
G01 X15.4753 Y50.1233 F120.00
G01 X15.4726 Y50.1165 F120.00
G01 X15.4522 Y50.0472 F120.00
G01 X15.4510 Y50.0413 F120.00
G01 X15.4505 Y50.0342 F120.00
G01 X15.4505 Y42.6245 F120.00
G01 X15.4509 Y42.6186 F120.00
G01 X15.4516 Y42.6139 F120.00
G01 X15.4631 Y42.5611 F120.00
G01 X15.4659 Y42.5529 F120.00
G01 X15.4695 Y42.5463 F120.00
G01 X15.4739 Y42.5402 F120.00
G01 X15.5205 Y42.4865 F120.00
G01 X15.5250 Y42.4822 F120.00
G01 X15.5299 Y42.4785 F120.00
G01 X15.5364 Y42.4748 F120.00
G01 X15.5434 Y42.4722 F120.00
G01 X15.6116 Y42.4522 F120.00
G01 X15.6174 Y42.4510 F120.00
G01 X15.6233 Y42.4505 F120.00
G01 X18.6952 Y42.4505 F120.00
G01 X18.7459 Y42.4450 F120.00
G01 X18.8681 Y42.3995 F120.00
G01 X18.9718 Y42.3218 F120.00
G01 X19.0495 Y42.2181 F120.00
G01 X19.0950 Y42.0959 F120.00
G01 X19.1005 Y42.0452 F120.00
G01 X19.1005 Y40.9548 F120.00
G01 X19.0950 Y40.9041 F120.00
G01 X19.0495 Y40.7819 F120.00
G01 X18.9718 Y40.6782 F120.00
G01 X18.9187 Y40.6384 F120.00
G01 X18.9029 Y40.6247 F120.00
G01 X18.8972 Y40.6186 F120.00
G01 X18.8926 Y40.6116 F120.00
G01 X18.8580 Y40.5481 F120.00
G01 X18.8556 Y40.5424 F120.00
G01 X18.8543 Y40.5376 F120.00
G01 X18.8533 Y40.5315 F120.00
G01 X18.8530 Y40.5265 F120.00
G01 X18.8584 Y40.4506 F120.00
G01 X18.8605 Y40.4410 F120.00
G01 X18.8646 Y40.4319 F120.00
G01 X18.8680 Y40.4267 F120.00
G01 X18.9098 Y40.3708 F120.00
G01 X18.9137 Y40.3662 F120.00
G01 X18.9199 Y40.3607 F120.00
G01 X18.9718 Y40.3218 F120.00
G01 X19.0495 Y40.2181 F120.00
G01 X19.0950 Y40.0959 F120.00
G01 X19.1005 Y40.0452 F120.00
G01 X19.1005 Y38.9548 F120.00
G01 X19.0950 Y38.9041 F120.00
G01 X19.0495 Y38.7819 F120.00
G01 X18.9718 Y38.6782 F120.00
G01 X18.9187 Y38.6384 F120.00
G01 X18.9029 Y38.6247 F120.00
G01 X18.8972 Y38.6186 F120.00
G01 X18.8926 Y38.6116 F120.00
G01 X18.8580 Y38.5481 F120.00
G01 X18.8556 Y38.5424 F120.00
G01 X18.8543 Y38.5376 F120.00
G01 X18.8533 Y38.5315 F120.00
G01 X18.8530 Y38.5265 F120.00
G01 X18.8584 Y38.4506 F120.00
G01 X18.8605 Y38.4410 F120.00
G01 X18.8646 Y38.4319 F120.00
G01 X18.8680 Y38.4267 F120.00
G01 X18.9098 Y38.3708 F120.00
G01 X18.9137 Y38.3662 F120.00
G01 X18.9199 Y38.3607 F120.00
G01 X18.9718 Y38.3218 F120.00
G01 X19.0495 Y38.2181 F120.00
G01 X19.0950 Y38.0959 F120.00
G01 X19.1005 Y38.0452 F120.00
G01 X19.1005 Y36.9548 F120.00
G01 X19.0950 Y36.9041 F120.00
G01 X19.0495 Y36.7819 F120.00
G01 X18.9718 Y36.6782 F120.00
G01 X18.9187 Y36.6384 F120.00
G01 X18.9029 Y36.6247 F120.00
G01 X18.8972 Y36.6186 F120.00
G01 X18.8926 Y36.6116 F120.00
G01 X18.8580 Y36.5481 F120.00
G01 X18.8556 Y36.5424 F120.00
G01 X18.8543 Y36.5376 F120.00
G01 X18.8533 Y36.5315 F120.00
G01 X18.8530 Y36.5265 F120.00
G01 X18.8584 Y36.4506 F120.00
G01 X18.8605 Y36.4410 F120.00
G01 X18.8646 Y36.4319 F120.00
G01 X18.8680 Y36.4267 F120.00
G01 X18.9098 Y36.3708 F120.00
G01 X18.9137 Y36.3662 F120.00
G01 X18.9199 Y36.3607 F120.00
G01 X18.9718 Y36.3218 F120.00
G01 X19.0495 Y36.2181 F120.00
G01 X19.0950 Y36.0959 F120.00
G01 X19.1005 Y36.0452 F120.00
G01 X19.1005 Y34.9548 F120.00
G01 X19.0950 Y34.9041 F120.00
G01 X19.0495 Y34.7819 F120.00
G01 X18.9718 Y34.6782 F120.00
G01 X18.9187 Y34.6384 F120.00
G01 X18.9029 Y34.6247 F120.00
G01 X18.8972 Y34.6186 F120.00
G01 X18.8926 Y34.6116 F120.00
G01 X18.8580 Y34.5481 F120.00
G01 X18.8556 Y34.5424 F120.00
G01 X18.8543 Y34.5376 F120.00
G01 X18.8533 Y34.5315 F120.00
G01 X18.8530 Y34.5265 F120.00
G01 X18.8584 Y34.4506 F120.00
G01 X18.8605 Y34.4410 F120.00
G01 X18.8646 Y34.4319 F120.00
G01 X18.8680 Y34.4267 F120.00
G01 X18.9098 Y34.3708 F120.00
G01 X18.9137 Y34.3662 F120.00
G01 X18.9199 Y34.3607 F120.00
G01 X18.9718 Y34.3218 F120.00
G01 X19.0495 Y34.2181 F120.00
G01 X19.0950 Y34.0959 F120.00
G01 X19.1005 Y34.0452 F120.00
G01 X19.1005 Y32.9548 F120.00
G01 X19.0950 Y32.9041 F120.00
G01 X19.0495 Y32.7819 F120.00
G01 X18.9718 Y32.6782 F120.00
G01 X18.9187 Y32.6384 F120.00
G01 X18.9029 Y32.6247 F120.00
G01 X18.8972 Y32.6186 F120.00
G01 X18.8926 Y32.6116 F120.00
G01 X18.8580 Y32.5481 F120.00
G01 X18.8556 Y32.5424 F120.00
G01 X18.8543 Y32.5376 F120.00
G01 X18.8533 Y32.5315 F120.00
G01 X18.8530 Y32.5265 F120.00
G01 X18.8584 Y32.4506 F120.00
G01 X18.8605 Y32.4410 F120.00
G01 X18.8646 Y32.4319 F120.00
G01 X18.8680 Y32.4267 F120.00
G01 X18.9098 Y32.3708 F120.00
G01 X18.9137 Y32.3662 F120.00
G01 X18.9199 Y32.3607 F120.00
G01 X18.9718 Y32.3218 F120.00
G01 X19.0495 Y32.2181 F120.00
G01 X19.0950 Y32.0959 F120.00
G01 X19.1005 Y32.0452 F120.00
G01 X19.1005 Y30.9548 F120.00
G01 X19.0950 Y30.9041 F120.00
G01 X19.0495 Y30.7819 F120.00
G01 X18.9718 Y30.6782 F120.00
G01 X18.9187 Y30.6384 F120.00
G01 X18.9029 Y30.6247 F120.00
G01 X18.8972 Y30.6186 F120.00
G01 X18.8926 Y30.6116 F120.00
G01 X18.8580 Y30.5481 F120.00
G01 X18.8556 Y30.5424 F120.00
G01 X18.8543 Y30.5376 F120.00
G01 X18.8533 Y30.5315 F120.00
G01 X18.8530 Y30.5265 F120.00
G01 X18.8584 Y30.4506 F120.00
G01 X18.8605 Y30.4410 F120.00
G01 X18.8646 Y30.4319 F120.00
G01 X18.8680 Y30.4267 F120.00
G01 X18.9098 Y30.3708 F120.00
G01 X18.9137 Y30.3662 F120.00
G01 X18.9199 Y30.3607 F120.00
G01 X18.9718 Y30.3218 F120.00
G01 X19.0495 Y30.2181 F120.00
G01 X19.0950 Y30.0959 F120.00
G01 X19.1005 Y30.0452 F120.00
G01 X19.1005 Y28.9548 F120.00
G01 X19.0950 Y28.9041 F120.00
G01 X19.0495 Y28.7819 F120.00
G01 X18.9718 Y28.6782 F120.00
G01 X18.9187 Y28.6384 F120.00
G01 X18.9029 Y28.6247 F120.00
G01 X18.8972 Y28.6186 F120.00
G01 X18.8926 Y28.6116 F120.00
G01 X18.8580 Y28.5481 F120.00
G01 X18.8556 Y28.5424 F120.00
G01 X18.8543 Y28.5376 F120.00
G01 X18.8533 Y28.5315 F120.00
G01 X18.8530 Y28.5265 F120.00
G01 X18.8584 Y28.4506 F120.00
G01 X18.8605 Y28.4410 F120.00
G01 X18.8646 Y28.4319 F120.00
G01 X18.8680 Y28.4267 F120.00
G01 X18.9098 Y28.3708 F120.00
G01 X18.9137 Y28.3662 F120.00
G01 X18.9199 Y28.3607 F120.00
G01 X18.9718 Y28.3218 F120.00
G01 X19.0495 Y28.2181 F120.00
G01 X19.0950 Y28.0959 F120.00
G01 X19.1005 Y28.0452 F120.00
G01 X19.1007 Y27.4784 F120.00
G01 X19.1039 Y27.4483 F120.00
G01 X19.1053 Y27.4423 F120.00
G01 X19.1068 Y27.4377 F120.00
G01 X19.1094 Y27.4321 F120.00
G01 X19.1429 Y27.3708 F120.00
G01 X19.1477 Y27.3635 F120.00
G01 X19.1537 Y27.3573 F120.00
G01 X19.1607 Y27.3521 F120.00
G01 X19.2253 Y27.3168 F120.00
G01 X19.2310 Y27.3143 F120.00
G01 X19.2369 Y27.3125 F120.00
G01 X19.2430 Y27.3115 F120.00
G01 X19.2480 Y27.3113 F120.00
G01 X19.3214 Y27.3164 F120.00
G01 X19.3273 Y27.3171 F120.00
G01 X19.3353 Y27.3194 F120.00
G01 X19.4041 Y27.3450 F120.00
G01 X19.4548 Y27.3505 F120.00
G01 X20.5452 Y27.3505 F120.00
G01 X20.5959 Y27.3450 F120.00
G01 X20.7181 Y27.2995 F120.00
G01 X20.8218 Y27.2218 F120.00
G01 X20.8616 Y27.1687 F120.00
G01 X20.8753 Y27.1529 F120.00
G01 X20.8814 Y27.1472 F120.00
G01 X20.8884 Y27.1426 F120.00
G01 X20.9519 Y27.1080 F120.00
G01 X20.9565 Y27.1060 F120.00
G01 X20.9624 Y27.1043 F120.00
G01 X20.9685 Y27.1033 F120.00
G01 X20.9735 Y27.1030 F120.00
G01 X21.0494 Y27.1084 F120.00
G01 X21.0543 Y27.1092 F120.00
G01 X21.0602 Y27.1109 F120.00
G01 X21.0648 Y27.1128 F120.00
G01 X21.0702 Y27.1158 F120.00
G01 X21.1292 Y27.1598 F120.00
G01 X21.1346 Y27.1645 F120.00
G01 X21.1393 Y27.1699 F120.00
G01 X21.1782 Y27.2218 F120.00
G01 X21.2819 Y27.2995 F120.00
G01 X21.4041 Y27.3450 F120.00
G01 X21.4548 Y27.3505 F120.00
G01 X22.5452 Y27.3505 F120.00
G01 X22.5959 Y27.3450 F120.00
G01 X22.7181 Y27.2995 F120.00
G01 X22.8218 Y27.2218 F120.00
G01 X22.8616 Y27.1687 F120.00
G01 X22.8753 Y27.1529 F120.00
G01 X22.8814 Y27.1472 F120.00
G01 X22.8884 Y27.1426 F120.00
G01 X22.9519 Y27.1080 F120.00
G01 X22.9576 Y27.1056 F120.00
G01 X22.9624 Y27.1043 F120.00
G01 X22.9685 Y27.1033 F120.00
G01 X22.9735 Y27.1030 F120.00
G01 X23.0494 Y27.1084 F120.00
G01 X23.0543 Y27.1092 F120.00
G01 X23.0602 Y27.1109 F120.00
G01 X23.0648 Y27.1128 F120.00
G01 X23.0702 Y27.1158 F120.00
G01 X23.1292 Y27.1598 F120.00
G01 X23.1346 Y27.1645 F120.00
G01 X23.1393 Y27.1699 F120.00
G01 X23.1782 Y27.2218 F120.00
G01 X23.2819 Y27.2995 F120.00
G01 X23.4041 Y27.3450 F120.00
G01 X23.4548 Y27.3505 F120.00
G01 X24.5452 Y27.3505 F120.00
G01 X24.5959 Y27.3450 F120.00
G01 X24.7181 Y27.2995 F120.00
G01 X24.8218 Y27.2218 F120.00
G01 X24.8616 Y27.1687 F120.00
G01 X24.8753 Y27.1529 F120.00
G01 X24.8814 Y27.1472 F120.00
G01 X24.8884 Y27.1426 F120.00
G01 X24.9519 Y27.1080 F120.00
G01 X24.9576 Y27.1056 F120.00
G01 X24.9624 Y27.1043 F120.00
G01 X24.9685 Y27.1033 F120.00
G01 X24.9735 Y27.1030 F120.00
G01 X25.0494 Y27.1084 F120.00
G01 X25.0543 Y27.1092 F120.00
G01 X25.0602 Y27.1109 F120.00
G01 X25.0648 Y27.1128 F120.00
G01 X25.0702 Y27.1158 F120.00
G01 X25.1292 Y27.1598 F120.00
G01 X25.1346 Y27.1645 F120.00
G01 X25.1393 Y27.1699 F120.00
G01 X25.1782 Y27.2218 F120.00
G01 X25.2819 Y27.2995 F120.00
G01 X25.4041 Y27.3450 F120.00
G01 X25.4548 Y27.3505 F120.00
G01 X26.5452 Y27.3505 F120.00
G01 X26.5959 Y27.3450 F120.00
G01 X26.7181 Y27.2995 F120.00
G01 X26.8218 Y27.2218 F120.00
G01 X26.8616 Y27.1687 F120.00
G01 X26.8753 Y27.1529 F120.00
G01 X26.8814 Y27.1472 F120.00
G01 X26.8884 Y27.1426 F120.00
G01 X26.9519 Y27.1080 F120.00
G01 X26.9576 Y27.1056 F120.00
G01 X26.9624 Y27.1043 F120.00
G01 X26.9685 Y27.1033 F120.00
G01 X26.9735 Y27.1030 F120.00
G01 X27.0494 Y27.1084 F120.00
G01 X27.0543 Y27.1092 F120.00
G01 X27.0602 Y27.1109 F120.00
G01 X27.0648 Y27.1128 F120.00
G01 X27.0702 Y27.1158 F120.00
G01 X27.1292 Y27.1598 F120.00
G01 X27.1346 Y27.1645 F120.00
G01 X27.1393 Y27.1699 F120.00
G01 X27.1782 Y27.2218 F120.00
G01 X27.2819 Y27.2995 F120.00
G01 X27.4041 Y27.3450 F120.00
G01 X27.4548 Y27.3505 F120.00
G01 X28.5452 Y27.3505 F120.00
G01 X28.5959 Y27.3450 F120.00
G01 X28.7181 Y27.2995 F120.00
G01 X28.8218 Y27.2218 F120.00
G01 X28.8616 Y27.1687 F120.00
G01 X28.8753 Y27.1529 F120.00
G01 X28.8814 Y27.1472 F120.00
G01 X28.8884 Y27.1426 F120.00
G01 X28.9519 Y27.1080 F120.00
G01 X28.9576 Y27.1056 F120.00
G01 X28.9624 Y27.1043 F120.00
G01 X28.9685 Y27.1033 F120.00
G01 X28.9735 Y27.1030 F120.00
G01 X29.0494 Y27.1084 F120.00
G01 X29.0590 Y27.1105 F120.00
G01 X29.0681 Y27.1146 F120.00
G01 X29.0733 Y27.1180 F120.00
G01 X29.1292 Y27.1598 F120.00
G01 X29.1338 Y27.1637 F120.00
G01 X29.1393 Y27.1699 F120.00
G01 X29.1782 Y27.2218 F120.00
G01 X29.2819 Y27.2995 F120.00
G01 X29.4041 Y27.3450 F120.00
G01 X29.4548 Y27.3505 F120.00
G01 X30.5452 Y27.3505 F120.00
G01 X30.5959 Y27.3450 F120.00
G01 X30.7181 Y27.2995 F120.00
G01 X30.8046 Y27.2347 F120.00
G01 X30.8175 Y27.2260 F120.00
G01 X30.8231 Y27.2233 F120.00
G01 X30.8278 Y27.2217 F120.00
G01 X30.8994 Y27.2009 F120.00
G01 X30.9089 Y27.2000 F120.00
G01 X31.3000 Y27.2000 F120.00
G01 X31.3000 Y27.0000 F120.00
G01 X31.3005 Y26.9927 F120.00
G01 X31.3022 Y26.9855 F120.00
G01 X31.3053 Y26.9775 F120.00
G01 X31.3091 Y26.9712 F120.00
G01 X31.3138 Y26.9655 F120.00
G01 X31.3192 Y26.9606 F120.00
G01 X31.3254 Y26.9565 F120.00
G01 X31.3320 Y26.9534 F120.00
G01 X31.3390 Y26.9512 F120.00
G01 X31.3439 Y26.9504 F120.00
G01 X31.3500 Y26.9500 F120.00
G01 X32.3000 Y26.9500 F120.00
G01 X32.3000 Y26.5500 F120.00
G01 X31.3048 Y26.5500 F120.00
G01 X31.2542 Y26.5554 F120.00
G01 X31.1828 Y26.5820 F120.00
G01 X31.1521 Y26.5898 F120.00
G01 X31.1473 Y26.5906 F120.00
G01 X31.1411 Y26.5908 F120.00
G01 X31.1350 Y26.5903 F120.00
G01 X31.0646 Y26.5802 F120.00
G01 X31.0586 Y26.5788 F120.00
G01 X31.0517 Y26.5761 F120.00
G01 X31.0462 Y26.5731 F120.00
G01 X31.0402 Y26.5687 F120.00
G01 X30.9865 Y26.5221 F120.00
G01 X30.9822 Y26.5177 F120.00
G01 X30.9792 Y26.5137 F120.00
G01 X30.9754 Y26.5073 F120.00
G01 X30.9722 Y26.4992 F120.00
G01 X30.9522 Y26.4311 F120.00
G01 X30.9510 Y26.4252 F120.00
G01 X30.9505 Y26.4193 F120.00
G01 X30.9505 Y25.0548 F120.00
G01 X30.9450 Y25.0041 F120.00
G01 X30.8995 Y24.8819 F120.00
G01 X30.8218 Y24.7782 F120.00
G01 X30.7181 Y24.7005 F120.00
G01 X30.5959 Y24.6550 F120.00
G01 X30.5452 Y24.6495 F120.00
G01 X29.4548 Y24.6495 F120.00
G01 X29.4041 Y24.6550 F120.00
G01 X29.2819 Y24.7005 F120.00
G01 X29.1782 Y24.7782 F120.00
G01 X29.1384 Y24.8313 F120.00
G01 X29.1247 Y24.8471 F120.00
G01 X29.1195 Y24.8521 F120.00
G01 X29.1116 Y24.8574 F120.00
G01 X29.0492 Y24.8915 F120.00
G01 X29.0435 Y24.8940 F120.00
G01 X29.0376 Y24.8957 F120.00
G01 X29.0327 Y24.8966 F120.00
G01 X29.0265 Y24.8970 F120.00
G01 X28.9506 Y24.8916 F120.00
G01 X28.9445 Y24.8905 F120.00
G01 X28.9398 Y24.8891 F120.00
G01 X28.9341 Y24.8866 F120.00
G01 X28.9298 Y24.8842 F120.00
G01 X28.8689 Y24.8387 F120.00
G01 X28.8645 Y24.8347 F120.00
G01 X28.8614 Y24.8311 F120.00
G01 X28.8218 Y24.7782 F120.00
G01 X28.7181 Y24.7005 F120.00
G01 X28.5959 Y24.6550 F120.00
G01 X28.5452 Y24.6495 F120.00
G01 X28.1148 Y24.6495 F120.00
G01 X28.1029 Y24.6491 F120.00
G01 X28.0956 Y24.6481 F120.00
G01 X28.0896 Y24.6464 F120.00
G01 X28.0230 Y24.6216 F120.00
G01 X28.0162 Y24.6185 F120.00
G01 X28.0090 Y24.6137 F120.00
G01 X28.0020 Y24.6067 F120.00
G01 X27.9578 Y24.5478 F120.00
G01 X27.9546 Y24.5425 F120.00
G01 X27.9520 Y24.5369 F120.00
G01 X27.9501 Y24.5310 F120.00
G01 X27.9490 Y24.5249 F120.00
G01 X27.9437 Y24.4515 F120.00
G01 X27.9438 Y24.4453 F120.00
G01 X27.9446 Y24.4391 F120.00
G01 X27.9462 Y24.4331 F120.00
G01 X27.9491 Y24.4263 F120.00
G01 X27.9844 Y24.3618 F120.00
G01 X27.9878 Y24.3569 F120.00
G01 X27.9917 Y24.3525 F120.00
G01 X28.3457 Y23.9987 F120.00
G01 X28.3693 Y23.9798 F120.00
G01 X28.3745 Y23.9765 F120.00
G01 X28.3800 Y23.9738 F120.00
G01 X28.4517 Y23.9525 F120.00
G01 X28.4563 Y23.9514 F120.00
G01 X28.4622 Y23.9506 F120.00
G01 X34.5936 Y23.9505 F120.00
G01 X34.7773 Y23.9140 F120.00
G01 X34.9502 Y23.8423 F120.00
G01 X35.1059 Y23.7383 F120.00
G01 X36.2383 Y22.6059 F120.00
G01 X36.3423 Y22.4502 F120.00
G01 X36.4140 Y22.2773 F120.00
G01 X36.4505 Y22.0936 F120.00
G01 X36.4505 Y18.4610 F120.00
G01 X36.4512 Y18.4538 F120.00
G01 X36.4586 Y18.4111 F120.00
G01 X36.4601 Y18.4053 F120.00
G01 X36.4628 Y18.3986 F120.00
G01 X36.4671 Y18.3914 F120.00
G01 X36.5081 Y18.3348 F120.00
G01 X36.5147 Y18.3274 F120.00
G01 X36.5216 Y18.3221 F120.00
G01 X36.5293 Y18.3181 F120.00
G01 X36.6000 Y18.2906 F120.00
G01 X36.6081 Y18.2890 F120.00
G01 X36.6467 Y18.2856 F120.00
G01 X36.8665 Y18.2267 F120.00
G01 X37.0727 Y18.1306 F120.00
G01 X37.2591 Y18.0000 F120.00
G01 X37.4200 Y17.8391 F120.00
G01 X37.5483 Y17.6561 F120.00
G01 X37.5674 Y17.6338 F120.00
G01 X37.5716 Y17.6295 F120.00
G01 X37.5763 Y17.6257 F120.00
G01 X37.5815 Y17.6225 F120.00
G01 X37.6461 Y17.5899 F120.00
G01 X37.6518 Y17.5875 F120.00
G01 X37.6566 Y17.5862 F120.00
G01 X37.6615 Y17.5854 F120.00
G01 X37.6677 Y17.5850 F120.00
G01 X37.7434 Y17.5926 F120.00
G01 X37.7495 Y17.5938 F120.00
G01 X37.7554 Y17.5957 F120.00
G01 X37.7621 Y17.5990 F120.00
G01 X37.7672 Y17.6024 F120.00
G01 X37.8237 Y17.6475 F120.00
G01 X37.8288 Y17.6525 F120.00
G01 X37.8325 Y17.6572 F120.00
G01 X37.9600 Y17.8391 F120.00
G01 X38.1209 Y18.0000 F120.00
G01 X38.3073 Y18.1306 F120.00
G01 X38.5135 Y18.2267 F120.00
G01 X38.7333 Y18.2856 F120.00
G01 X38.9600 Y18.3055 F120.00
G01 X39.1867 Y18.2856 F120.00
G01 X39.4065 Y18.2267 F120.00
G01 X39.6127 Y18.1306 F120.00
G01 X39.7991 Y18.0000 F120.00
G01 X39.9192 Y17.8800 F120.00
G01 X39.9238 Y17.8762 F120.00
G01 X39.9562 Y17.8522 F120.00
G01 X39.9629 Y17.8488 F120.00
G01 X39.9701 Y17.8465 F120.00
G01 X40.0408 Y17.8311 F120.00
G01 X40.0507 Y17.8302 F120.00
G01 X40.0581 Y17.8308 F120.00
G01 X40.0665 Y17.8329 F120.00
G01 X40.1343 Y17.8582 F120.00
G01 X40.1388 Y17.8603 F120.00
G01 X40.1442 Y17.8635 F120.00
G01 X40.1490 Y17.8673 F120.00
G01 X40.1526 Y17.8708 F120.00
G01 X40.1976 Y17.9306 F120.00
G01 X40.2024 Y17.9384 F120.00
G01 X40.2510 Y18.0679 F120.00
G01 X40.3285 Y18.1715 F120.00
G01 X40.4321 Y18.2490 F120.00
G01 X40.5542 Y18.2946 F120.00
G01 X40.6048 Y18.3000 F120.00
G01 X40.9497 Y18.3000 F120.00
G01 X40.9497 Y17.9000 F120.00
G01 X40.6500 Y17.9000 F120.00
G01 X40.6427 Y17.8995 F120.00
G01 X40.6332 Y17.8971 F120.00
G01 X40.6254 Y17.8935 F120.00
G01 X40.6183 Y17.8887 F120.00
G01 X40.6121 Y17.8827 F120.00
G01 X40.6071 Y17.8757 F120.00
G01 X40.6034 Y17.8680 F120.00
G01 X40.6010 Y17.8598 F120.00
G01 X40.6000 Y17.8500 F120.00
G01 X40.6000 Y16.1500 F120.00
G01 X40.6007 Y16.1415 F120.00
G01 X40.6029 Y16.1332 F120.00
G01 X40.6059 Y16.1264 F120.00
G01 X40.6098 Y16.1202 F120.00
G01 X40.6155 Y16.1138 F120.00
G01 X40.6222 Y16.1084 F120.00
G01 X40.6286 Y16.1048 F120.00
G01 X40.6355 Y16.1022 F120.00
G01 X40.6439 Y16.1004 F120.00
G01 X40.6500 Y16.1000 F120.00
G01 X40.9497 Y16.1000 F120.00
G01 X40.9497 Y15.7000 F120.00
G01 X40.6048 Y15.7000 F120.00
G01 X40.5542 Y15.7054 F120.00
G01 X40.4321 Y15.7510 F120.00
G01 X40.3285 Y15.8285 F120.00
G01 X40.2510 Y15.9321 F120.00
G01 X40.2465 Y15.9438 F120.00
G01 X40.2424 Y15.9515 F120.00
G01 X40.2061 Y16.0038 F120.00
G01 X40.2005 Y16.0102 F120.00
G01 X40.1939 Y16.0156 F120.00
G01 X40.1876 Y16.0192 F120.00
G01 X40.1229 Y16.0488 F120.00
G01 X40.1159 Y16.0514 F120.00
G01 X40.1062 Y16.0531 F120.00
G01 X40.0963 Y16.0530 F120.00
G01 X40.0246 Y16.0427 F120.00
G01 X40.0186 Y16.0413 F120.00
G01 X40.0139 Y16.0396 F120.00
G01 X40.0073 Y16.0362 F120.00
G01 X40.0012 Y16.0320 F120.00
G01 X39.9474 Y15.9854 F120.00
G01 X39.9430 Y15.9811 F120.00
G01 X39.9371 Y15.9731 F120.00
G01 X39.9348 Y15.9687 F120.00
G01 X39.9326 Y15.9629 F120.00
G01 X39.9122 Y15.8935 F120.00
G01 X39.9110 Y15.8877 F120.00
G01 X39.9105 Y15.8818 F120.00
G01 X39.9105 Y14.5164 F120.00
G01 X39.8740 Y14.3327 F120.00
G01 X39.8023 Y14.1598 F120.00
G01 X39.6983 Y14.0041 F120.00
G01 X37.6515 Y11.9573 F120.00
G01 X37.6479 Y11.9533 F120.00
G01 X37.6290 Y11.9297 F120.00
G01 X37.6253 Y11.9233 F120.00
G01 X37.6226 Y11.9165 F120.00
G01 X37.6022 Y11.8472 F120.00
G01 X37.6012 Y11.8425 F120.00
G01 X37.6006 Y11.8366 F120.00
G01 X37.6005 Y11.3506 F120.00
G01 X37.5980 Y11.3139 F120.00
G01 X37.5544 Y11.1387 F120.00
G01 X37.4747 Y10.9778 F120.00
G01 X37.3622 Y10.8378 F120.00
G01 X37.2964 Y10.7850 F120.00
G01 X37.2870 Y10.7768 F120.00
G01 X37.2828 Y10.7722 F120.00
G01 X37.2786 Y10.7661 F120.00
G01 X37.2418 Y10.7038 F120.00
G01 X37.2397 Y10.6993 F120.00
G01 X37.2377 Y10.6934 F120.00
G01 X37.2365 Y10.6873 F120.00
G01 X37.2360 Y10.6824 F120.00
G01 X37.2389 Y10.6051 F120.00
G01 X37.2400 Y10.5990 F120.00
G01 X37.2418 Y10.5931 F120.00
G01 X37.2438 Y10.5885 F120.00
G01 X37.2469 Y10.5832 F120.00
G01 X37.2875 Y10.5248 F120.00
G01 X37.2912 Y10.5201 F120.00
G01 X37.2972 Y10.5144 F120.00
G01 X37.3622 Y10.4622 F120.00
G01 X37.4747 Y10.3222 F120.00
G01 X37.5544 Y10.1613 F120.00
G01 X37.5980 Y9.9861 F120.00
G01 X37.6005 Y9.9494 F120.00
G01 X37.6005 Y9.0506 F120.00
G01 X37.5980 Y9.0139 F120.00
G01 X37.5544 Y8.8387 F120.00
G01 X37.4747 Y8.6778 F120.00
G01 X37.3622 Y8.5378 F120.00
G01 X37.2960 Y8.4847 F120.00
G01 X37.2866 Y8.4764 F120.00
G01 X37.2824 Y8.4719 F120.00
G01 X37.2782 Y8.4658 F120.00
G01 X37.2414 Y8.4035 F120.00
G01 X37.2376 Y8.3943 F120.00
G01 X37.2365 Y8.3895 F120.00
G01 X37.2357 Y8.3833 F120.00
G01 X37.2385 Y8.3048 F120.00
G01 X37.2393 Y8.2999 F120.00
G01 X37.2410 Y8.2939 F120.00
G01 X37.2428 Y8.2893 F120.00
G01 X37.2458 Y8.2839 F120.00
G01 X37.2871 Y8.2245 F120.00
G01 X37.2908 Y8.2198 F120.00
G01 X37.2968 Y8.2141 F120.00
G01 X37.3618 Y8.1618 F120.00
G01 X37.4742 Y8.0219 F120.00
G01 X37.5540 Y7.8612 F120.00
G01 X37.5597 Y7.8379 F120.00
G01 X37.4721 Y7.7503 F120.00
G01 X37.1618 Y7.7503 F120.00
G01 X37.1498 Y7.7753 F120.00
G01 X37.1290 Y7.8101 F120.00
G01 X37.1029 Y7.8453 F120.00
G01 X37.0737 Y7.8772 F120.00
G01 X37.0446 Y7.9035 F120.00
G01 X37.0121 Y7.9277 F120.00
G01 X36.9753 Y7.9498 F120.00
G01 X36.9354 Y7.9685 F120.00
G01 X36.8984 Y7.9817 F120.00
G01 X36.8603 Y7.9913 F120.00
G01 X36.8179 Y7.9978 F120.00
G01 X36.7750 Y8.0000 F120.00
G01 X35.5250 Y8.0000 F120.00
G01 X35.4833 Y7.9980 F120.00
G01 X35.4421 Y7.9918 F120.00
G01 X35.4020 Y7.9818 F120.00
G01 X35.3624 Y7.9676 F120.00
G01 X35.3247 Y7.9498 F120.00
G01 X35.2889 Y7.9284 F120.00
G01 X35.2555 Y7.9037 F120.00
G01 X35.2245 Y7.8755 F120.00
G01 X35.1956 Y7.8436 F120.00
G01 X35.1716 Y7.8111 F120.00
G01 X35.1502 Y7.7753 F120.00
G01 X35.1324 Y7.7376 F120.00
G01 X35.1179 Y7.6970 F120.00
G01 X35.1082 Y7.6581 F120.00
G01 X35.1020 Y7.6167 F120.00
G01 X35.1000 Y7.5762 F120.00
G01 X35.1000 Y7.5000 F120.00
G01 X34.7000 Y7.5000 F120.00
G01 X34.7000 Y7.6494 F120.00
G01 X34.7025 Y7.6860 F120.00
G01 X34.7460 Y7.8612 F120.00
G01 X34.8258 Y8.0219 F120.00
G01 X34.9382 Y8.1618 F120.00
G01 X35.0039 Y8.2146 F120.00
G01 X35.0134 Y8.2229 F120.00
G01 X35.0176 Y8.2275 F120.00
G01 X35.0218 Y8.2336 F120.00
G01 X35.0580 Y8.2948 F120.00
G01 X35.0612 Y8.3015 F120.00
G01 X35.0630 Y8.3075 F120.00
G01 X35.0641 Y8.3136 F120.00
G01 X35.0644 Y8.3198 F120.00
G01 X35.0617 Y8.3921 F120.00
G01 X35.0612 Y8.3970 F120.00
G01 X35.0598 Y8.4031 F120.00
G01 X35.0561 Y8.4122 F120.00
G01 X35.0528 Y8.4176 F120.00
G01 X35.0129 Y8.4749 F120.00
G01 X35.0076 Y8.4813 F120.00
G01 X35.0032 Y8.4853 F120.00
G01 X34.9690 Y8.5127 F120.00
G01 X34.9543 Y8.5230 F120.00
G01 X34.9500 Y8.5252 F120.00
G01 X34.9444 Y8.5274 F120.00
G01 X34.8750 Y8.5478 F120.00
G01 X34.8692 Y8.5490 F120.00
G01 X34.8621 Y8.5495 F120.00
G01 X31.4745 Y8.5495 F120.00
G01 X31.4662 Y8.5488 F120.00
G01 X31.4111 Y8.5369 F120.00
G01 X31.4052 Y8.5350 F120.00
G01 X31.3995 Y8.5324 F120.00
G01 X31.3912 Y8.5269 F120.00
G01 X31.3356 Y8.4787 F120.00
G01 X31.3314 Y8.4741 F120.00
G01 X31.3285 Y8.4701 F120.00
G01 X31.3259 Y8.4658 F120.00
G01 X31.3234 Y8.4602 F120.00
G01 X31.3025 Y8.3896 F120.00
G01 X31.3010 Y8.3826 F120.00
G01 X31.3005 Y8.3755 F120.00
G01 X31.3005 Y8.0442 F120.00
G01 X31.2905 Y7.9318 F120.00
G01 X31.2372 Y7.7456 F120.00
G01 X31.1477 Y7.5742 F120.00
G01 X31.0256 Y7.4244 F120.00
G01 X30.8758 Y7.3023 F120.00
G01 X30.7044 Y7.2128 F120.00
G01 X30.5182 Y7.1595 F120.00
G01 X30.4058 Y7.1495 F120.00
G01 X29.2942 Y7.1495 F120.00
G01 X29.1818 Y7.1595 F120.00
G01 X29.0216 Y7.2052 F120.00
G01 X29.0130 Y7.2062 F120.00
G01 X28.9513 Y7.2082 F120.00
G01 X28.9465 Y7.2080 F120.00
G01 X28.9405 Y7.2071 F120.00
G01 X28.9347 Y7.2055 F120.00
G01 X28.9291 Y7.2032 F120.00
G01 X28.8646 Y7.1680 F120.00
G01 X28.8569 Y7.1625 F120.00
G01 X28.2425 Y6.5483 F120.00
G01 X28.2377 Y6.5427 F120.00
G01 X28.2159 Y6.5132 F120.00
G01 X28.2120 Y6.5071 F120.00
G01 X28.2095 Y6.5016 F120.00
G01 X28.2073 Y6.4947 F120.00
G01 X28.1930 Y6.4251 F120.00
G01 X28.1921 Y6.4180 F120.00
G01 X28.1921 Y6.4109 F120.00
G01 X28.2055 Y6.2500 F120.00
G01 X28.1856 Y6.0104 F120.00
G01 X28.1266 Y5.7774 F120.00
G01 X28.0300 Y5.5573 F120.00
G01 X27.8986 Y5.3560 F120.00
G01 X27.7358 Y5.1792 F120.00
G01 X27.5461 Y5.0315 F120.00
G01 X27.3347 Y4.9171 F120.00
G01 X27.1073 Y4.8391 F120.00
G01 X26.8702 Y4.7995 F120.00
G01 X26.6298 Y4.7995 F120.00
G01 X26.3927 Y4.8391 F120.00
G01 X26.1653 Y4.9171 F120.00
G01 X25.9539 Y5.0315 F120.00
G01 X25.7642 Y5.1792 F120.00
G01 X25.7034 Y5.2452 F120.00
G01 X25.6735 Y5.2703 F120.00
G01 X25.6662 Y5.2747 F120.00
G01 X25.6594 Y5.2774 F120.00
G01 X25.5901 Y5.2978 F120.00
G01 X25.5807 Y5.2994 F120.00
G01 X21.4229 Y5.2995 F120.00
G01 X21.4165 Y5.2991 F120.00
G01 X21.3839 Y5.2949 F120.00
G01 X21.3780 Y5.2936 F120.00
G01 X21.3723 Y5.2916 F120.00
G01 X21.3658 Y5.2883 F120.00
G01 X21.3049 Y5.2517 F120.00
G01 X21.3000 Y5.2482 F120.00
G01 X21.2957 Y5.2442 F120.00
G01 X21.2358 Y5.1792 F120.00
G01 X21.0461 Y5.0315 F120.00
G01 X20.8347 Y4.9171 F120.00
G01 X20.6073 Y4.8391 F120.00
G01 X20.3702 Y4.7995 F120.00
G01 X20.1298 Y4.7995 F120.00
G01 X19.8927 Y4.8391 F120.00
G01 X19.6653 Y4.9171 F120.00
G01 X19.4539 Y5.0315 F120.00
G01 X19.2642 Y5.1792 F120.00
G01 X19.1902 Y5.2596 F120.00
G01 X19.1815 Y5.2681 F120.00
G01 X19.1746 Y5.2730 F120.00
G01 X19.1106 Y5.3065 F120.00
G01 X19.1040 Y5.3094 F120.00
G01 X19.0972 Y5.3113 F120.00
G01 X18.9727 Y5.3360 F120.00
G01 X18.7998 Y5.4077 F120.00
G01 X18.6441 Y5.5117 F120.00
G01 X13.5117 Y10.6441 F120.00
G01 X13.4077 Y10.7998 F120.00
G01 X13.3360 Y10.9728 F120.00
G01 X13.2995 Y11.1564 F120.00
G01 X13.2995 Y14.5741 F120.00
G01 X13.2972 Y14.6011 F120.00
G01 X13.2963 Y14.6060 F120.00
G01 X13.2945 Y14.6119 F120.00
G01 X13.2593 Y14.6832 F120.00
G01 X13.2535 Y14.6908 F120.00
G01 X13.1902 Y14.7595 F120.00
G01 X13.1815 Y14.7681 F120.00
G01 X13.1767 Y14.7717 F120.00
G01 X13.1725 Y14.7742 F120.00
G01 X13.1106 Y14.8065 F120.00
G01 X13.1041 Y14.8094 F120.00
G01 X13.0972 Y14.8113 F120.00
G01 X12.9727 Y14.8360 F120.00
G01 X12.7998 Y14.9077 F120.00
G01 X12.6441 Y15.0117 F120.00
G01 X9.8817 Y17.7741 F120.00
G01 X9.7777 Y17.9298 F120.00
G01 X9.7060 Y18.1028 F120.00
G01 X9.6695 Y18.2864 F120.00
G01 X9.6695 Y19.0392 F120.00
G01 X9.6664 Y19.0709 F120.00
G01 X9.6651 Y19.0781 F120.00
G01 X9.6637 Y19.0827 F120.00
G01 X9.6613 Y19.0882 F120.00
G01 X9.6264 Y19.1525 F120.00
G01 X9.6201 Y19.1606 F120.00
G01 X9.4914 Y19.3444 F120.00
G01 X9.4723 Y19.3666 F120.00
G01 X9.4672 Y19.3718 F120.00
G01 X9.4633 Y19.3748 F120.00
G01 X9.4582 Y19.3780 F120.00
G01 X9.3948 Y19.4100 F120.00
G01 X9.3879 Y19.4129 F120.00
G01 X9.3794 Y19.4149 F120.00
G01 X9.3732 Y19.4154 F120.00
G01 X9.3683 Y19.4153 F120.00
G01 X9.2951 Y19.4076 F120.00
G01 X9.2890 Y19.4063 F120.00
G01 X9.2843 Y19.4047 F120.00
G01 X9.2755 Y19.4002 F120.00
G01 X9.2169 Y19.3537 F120.00
G01 X9.2109 Y19.3479 F120.00
G01 X9.2072 Y19.3433 F120.00
G01 X9.0797 Y19.1612 F120.00
G01 X8.9188 Y19.0003 F120.00
G01 X8.7325 Y18.8699 F120.00
G01 X8.5503 Y18.7849 F120.00
G01 X8.5503 Y19.2338 F120.00
G01 X8.5812 Y19.2525 F120.00
G01 X8.6500 Y19.3035 F120.00
G01 X8.7173 Y19.3645 F120.00
G01 X8.7757 Y19.4291 F120.00
G01 X8.8269 Y19.4980 F120.00
G01 X8.8731 Y19.5747 F120.00
G01 X8.9117 Y19.6561 F120.00
G01 X8.9419 Y19.7411 F120.00
G01 X8.9628 Y19.8247 F120.00
G01 X8.9754 Y19.9093 F120.00
G01 X8.9800 Y19.9988 F120.00
G01 X8.9757 Y20.0882 F120.00
G01 X8.9622 Y20.1780 F120.00
G01 X8.9412 Y20.2613 F120.00
G01 X8.9124 Y20.3421 F120.00
G01 X8.8743 Y20.4231 F120.00
G01 X8.8280 Y20.5005 F120.00
G01 X8.7749 Y20.5719 F120.00
G01 X8.7155 Y20.6373 F120.00
G01 X8.6519 Y20.6949 F120.00
G01 X8.6302 Y20.7111 F120.00
G01 X8.6302 Y21.1778 F120.00
G01 X8.7325 Y21.1301 F120.00
G01 X8.9188 Y20.9997 F120.00
G01 X9.0797 Y20.8388 F120.00
G01 X9.2080 Y20.6556 F120.00
G01 X9.2287 Y20.6316 F120.00
G01 X9.2331 Y20.6274 F120.00
G01 X9.2381 Y20.6239 F120.00
G01 X9.3080 Y20.5884 F120.00
G01 X9.3139 Y20.5864 F120.00
G01 X9.3200 Y20.5851 F120.00
G01 X9.3261 Y20.5846 F120.00
G01 X9.3323 Y20.5849 F120.00
G01 X9.4031 Y20.5922 F120.00
G01 X9.4104 Y20.5937 F120.00
G01 X9.4162 Y20.5957 F120.00
G01 X9.4218 Y20.5985 F120.00
G01 X9.4269 Y20.6020 F120.00
G01 X9.4834 Y20.6471 F120.00
G01 X9.4885 Y20.6521 F120.00
G01 X9.4922 Y20.6567 F120.00
G01 X9.6201 Y20.8394 F120.00
G01 X9.6409 Y20.8653 F120.00
G01 X9.6441 Y20.8705 F120.00
G01 X9.6462 Y20.8750 F120.00
G01 X9.6675 Y20.9467 F120.00
G01 X9.6690 Y20.9536 F120.00
G01 X9.6695 Y20.9608 F120.00
G01 X9.6695 Y21.1336 F120.00
G01 X9.7060 Y21.3172 F120.00
G01 X9.7777 Y21.4902 F120.00
G01 X9.8817 Y21.6459 F120.00
G01 X11.5813 Y23.3457 F120.00
G01 X11.6002 Y23.3693 F120.00
G01 X11.6035 Y23.3745 F120.00
G01 X11.6062 Y23.3800 F120.00
G01 X11.6278 Y23.4528 F120.00
G01 X11.6290 Y23.4587 F120.00
G01 X11.6295 Y23.4646 F120.00
G01 X11.6295 Y23.5406 F120.00
G01 X11.6264 Y23.5709 F120.00
G01 X11.6254 Y23.5769 F120.00
G01 X11.6237 Y23.5827 F120.00
G01 X11.6213 Y23.5882 F120.00
G01 X11.5871 Y23.6515 F120.00
G01 X11.5801 Y23.6606 F120.00
G01 X11.4517 Y23.8439 F120.00
G01 X11.4318 Y23.8671 F120.00
G01 X11.4246 Y23.8736 F120.00
G01 X11.4174 Y23.8781 F120.00
G01 X11.3539 Y23.9101 F120.00
G01 X11.3470 Y23.9128 F120.00
G01 X11.3410 Y23.9143 F120.00
G01 X11.3348 Y23.9149 F120.00
G01 X11.3274 Y23.9147 F120.00
G01 X11.2579 Y23.9075 F120.00
G01 X11.2493 Y23.9059 F120.00
G01 X11.2401 Y23.9022 F120.00
G01 X11.2328 Y23.8976 F120.00
G01 X11.1772 Y23.8532 F120.00
G01 X11.1712 Y23.8475 F120.00
G01 X11.1675 Y23.8428 F120.00
G01 X11.0400 Y23.6609 F120.00
G01 X10.8791 Y23.5000 F120.00
G01 X10.6927 Y23.3694 F120.00
G01 X10.4865 Y23.2733 F120.00
G01 X10.2667 Y23.2144 F120.00
G01 X10.0400 Y23.1945 F120.00
G01 X9.8133 Y23.2144 F120.00
G01 X9.5935 Y23.2733 F120.00
G01 X9.3873 Y23.3694 F120.00
G01 X9.2009 Y23.5000 F120.00
G01 X9.0808 Y23.6200 F120.00
G01 X9.0762 Y23.6238 F120.00
G01 X9.0438 Y23.6478 F120.00
G01 X9.0359 Y23.6517 F120.00
G01 X9.0287 Y23.6538 F120.00
G01 X8.9592 Y23.6689 F120.00
G01 X8.9518 Y23.6698 F120.00
G01 X8.9443 Y23.6695 F120.00
G01 X8.9382 Y23.6685 F120.00
G01 X8.9335 Y23.6671 F120.00
G01 X8.8645 Y23.6413 F120.00
G01 X8.8590 Y23.6385 F120.00
G01 X8.8538 Y23.6351 F120.00
G01 X8.8501 Y23.6318 F120.00
G01 X8.8458 Y23.6273 F120.00
G01 X8.8024 Y23.5694 F120.00
G01 X8.7976 Y23.5616 F120.00
G01 X8.7490 Y23.4321 F120.00
G01 X8.6715 Y23.3285 F120.00
G01 X8.6302 Y23.2977 F120.00
G01 X8.6302 Y23.9212 F120.00
G01 X8.6276 Y23.9739 F120.00
G01 X8.6194 Y24.0286 F120.00
G01 X8.6066 Y24.0797 F120.00
G01 X8.5886 Y24.1301 F120.00
G01 X8.5653 Y24.1794 F120.00
G01 X8.5382 Y24.2247 F120.00
G01 X8.5037 Y24.2709 F120.00
G01 X8.4699 Y24.3082 F120.00
G01 X8.4000 Y24.3782 F120.00
G01 X8.4000 Y25.3500 F120.00
G01 X8.3993 Y25.3585 F120.00
G01 X8.3971 Y25.3668 F120.00
G01 X8.3935 Y25.3746 F120.00
G01 X8.3894 Y25.3808 F120.00
G01 X8.3862 Y25.3845 F120.00
G01 X8.3817 Y25.3887 F120.00
G01 X8.3778 Y25.3916 F120.00
G01 X8.3725 Y25.3947 F120.00
G01 X8.3680 Y25.3966 F120.00
G01 X8.3621 Y25.3985 F120.00
G01 X8.3573 Y25.3995 F120.00
G01 X8.3512 Y25.4000 F120.00
G01 X6.8782 Y25.4000 F120.00
G01 X6.5028 Y25.7754 F120.00
G01 X6.5542 Y25.7946 F120.00
G01 X6.5701 Y25.7963 F120.00
G01 X6.5764 Y25.7975 F120.00
G01 X6.6210 Y25.8106 F120.00
G01 X6.6289 Y25.8139 F120.00
G01 X6.6351 Y25.8178 F120.00
G01 X6.6398 Y25.8217 F120.00
G01 X6.6919 Y25.8701 F120.00
G01 X6.6953 Y25.8738 F120.00
G01 X6.6989 Y25.8788 F120.00
G01 X6.7030 Y25.8864 F120.00
G01 X6.7054 Y25.8935 F120.00
G01 X6.7229 Y25.9624 F120.00
G01 X6.7239 Y25.9685 F120.00
G01 X6.7242 Y25.9747 F120.00
G01 X6.7234 Y25.9821 F120.00
G01 X6.7220 Y25.9882 F120.00
G01 X6.6996 Y26.0556 F120.00
G01 X6.6967 Y26.0625 F120.00
G01 X6.6928 Y26.0689 F120.00
G01 X6.6889 Y26.0737 F120.00
G01 X6.6845 Y26.0780 F120.00
G01 X6.6253 Y26.1254 F120.00
G01 X6.6169 Y26.1299 F120.00
G01 X6.5498 Y26.1577 F120.00
G01 X6.3941 Y26.2617 F120.00
G01 X5.2617 Y27.3941 F120.00
G01 X5.1577 Y27.5498 F120.00
G01 X5.0860 Y27.7228 F120.00
G01 X5.0495 Y27.9064 F120.00
G01 X5.0495 Y36.4641 F120.00
G01 X5.0461 Y36.4969 F120.00
G01 X5.0451 Y36.5017 F120.00
G01 X5.0432 Y36.5075 F120.00
G01 X5.0405 Y36.5131 F120.00
G01 X5.0059 Y36.5765 F120.00
G01 X5.0025 Y36.5814 F120.00
G01 X4.9994 Y36.5850 F120.00
G01 X4.9468 Y36.6376 F120.00
G01 X4.8608 Y36.7769 F120.00
G01 X4.8092 Y36.9327 F120.00
G01 X4.7995 Y37.0275 F120.00
G01 X4.7995 Y39.9725 F120.00
G01 X4.8092 Y40.0673 F120.00
G01 X4.8608 Y40.2231 F120.00
G01 X4.9468 Y40.3624 F120.00
G01 X5.0626 Y40.4782 F120.00
G01 X5.2019 Y40.5642 F120.00
G01 X5.2687 Y40.5865 F120.00
G01 X5.2967 Y40.5993 F120.00
G01 X5.3020 Y40.6025 F120.00
G01 X5.3077 Y40.6071 F120.00
G01 X5.3587 Y40.6618 F120.00
G01 X5.3632 Y40.6677 F120.00
G01 X5.3663 Y40.6731 F120.00
G01 X5.3686 Y40.6789 F120.00
G01 X5.3705 Y40.6861 F120.00
G01 X5.3828 Y40.7549 F120.00
G01 X5.3836 Y40.7648 F120.00
G01 X5.3826 Y40.7734 F120.00
G01 X5.3806 Y40.7806 F120.00
G01 X5.3529 Y40.8474 F120.00
G01 X5.3482 Y40.8561 F120.00
G01 X5.3419 Y40.8638 F120.00
G01 X5.3352 Y40.8693 F120.00
G01 X5.2737 Y40.9116 F120.00
G01 X5.2662 Y40.9150 F120.00
G01 X5.2021 Y40.9363 F120.00
G01 X5.0629 Y41.0222 F120.00
G01 X4.9472 Y41.1379 F120.00
G01 X4.8613 Y41.2772 F120.00
G01 X4.8097 Y41.4328 F120.00
G01 X4.8000 Y41.5276 F120.00
G01 X4.8000 Y42.4497 F120.00
G01 X5.2000 Y42.4497 F120.00
G01 X5.2000 Y41.5750 F120.00
G01 X5.2016 Y41.5444 F120.00
G01 X5.2058 Y41.5165 F120.00
G01 X5.2131 Y41.4873 F120.00
G01 X5.2229 Y41.4601 F120.00
G01 X5.2366 Y41.4314 F120.00
G01 X5.2520 Y41.4063 F120.00
G01 X5.2681 Y41.3847 F120.00
G01 X5.2862 Y41.3646 F120.00
G01 X5.3097 Y41.3431 F120.00
G01 X5.3322 Y41.3263 F120.00
G01 X5.3608 Y41.3093 F120.00
G01 X5.3852 Y41.2978 F120.00
G01 X5.4130 Y41.2879 F120.00
G01 X5.4439 Y41.2803 F120.00
G01 X5.4706 Y41.2764 F120.00
G01 X5.4975 Y41.2751 F120.00
G01 X6.4000 Y41.2750 F120.00
G01 X6.4294 Y41.2764 F120.00
G01 X6.4585 Y41.2808 F120.00
G01 X6.4847 Y41.2873 F120.00
G01 X6.5170 Y41.2988 F120.00
G01 X6.5414 Y41.3104 F120.00
G01 X6.5667 Y41.3256 F120.00
G01 X6.5903 Y41.3431 F120.00
G01 X6.6104 Y41.3612 F120.00
G01 X6.6334 Y41.3866 F120.00
G01 X6.6493 Y41.4082 F120.00
G01 X6.6645 Y41.4335 F120.00
G01 X6.6772 Y41.4602 F120.00
G01 X6.6863 Y41.4856 F120.00
G01 X6.6943 Y41.5167 F120.00
G01 X6.6986 Y41.5456 F120.00
G01 X6.7000 Y41.5750 F120.00
G01 X6.7000 Y42.7000 F120.00
G01 X7.1000 Y42.7000 F120.00
G01 X7.1000 Y41.5276 F120.00
G01 X7.0903 Y41.4328 F120.00
G01 X7.0387 Y41.2771 F120.00
G01 X6.9528 Y41.1379 F120.00
G01 X6.8371 Y41.0222 F120.00
G01 X6.6978 Y40.9363 F120.00
G01 X6.6313 Y40.9141 F120.00
G01 X6.6033 Y40.9012 F120.00
G01 X6.5980 Y40.8981 F120.00
G01 X6.5923 Y40.8935 F120.00
G01 X6.5413 Y40.8387 F120.00
G01 X6.5368 Y40.8328 F120.00
G01 X6.5337 Y40.8274 F120.00
G01 X6.5314 Y40.8216 F120.00
G01 X6.5295 Y40.8144 F120.00
G01 X6.5172 Y40.7457 F120.00
G01 X6.5164 Y40.7370 F120.00
G01 X6.5172 Y40.7284 F120.00
G01 X6.5194 Y40.7200 F120.00
G01 X6.5476 Y40.6520 F120.00
G01 X6.5498 Y40.6476 F120.00
G01 X6.5532 Y40.6424 F120.00
G01 X6.5564 Y40.6386 F120.00
G01 X6.5609 Y40.6342 F120.00
G01 X6.6263 Y40.5889 F120.00
G01 X6.6338 Y40.5855 F120.00
G01 X6.6981 Y40.5642 F120.00
G01 X6.8374 Y40.4782 F120.00
G01 X6.9532 Y40.3624 F120.00
G01 X7.0392 Y40.2231 F120.00
G01 X7.0908 Y40.0673 F120.00
G01 X7.1005 Y39.9725 F120.00
G01 X7.1005 Y37.0275 F120.00
G01 X7.0908 Y36.9327 F120.00
G01 X7.0392 Y36.7769 F120.00
G01 X6.9764 Y36.6752 F120.00
G01 X6.9735 Y36.6696 F120.00
G01 X6.9709 Y36.6625 F120.00
G01 X6.9524 Y36.5974 F120.00
G01 X6.9511 Y36.5913 F120.00
G01 X6.9505 Y36.5851 F120.00
G01 X6.9505 Y36.1996 F120.00
G01 X6.9509 Y36.1932 F120.00
G01 X6.9621 Y36.1388 F120.00
G01 X6.9643 Y36.1318 F120.00
G01 X6.9669 Y36.1262 F120.00
G01 X6.9724 Y36.1182 F120.00
G01 X7.0172 Y36.0645 F120.00
G01 X7.0242 Y36.0576 F120.00
G01 X7.0304 Y36.0533 F120.00
G01 X7.0382 Y36.0496 F120.00
G01 X7.1084 Y36.0276 F120.00
G01 X7.1145 Y36.0262 F120.00
G01 X7.1207 Y36.0256 F120.00
G01 X7.1269 Y36.0258 F120.00
G01 X7.1318 Y36.0265 F120.00
G01 X7.2073 Y36.0473 F120.00
G01 X7.2158 Y36.0515 F120.00
G01 X7.2769 Y36.0892 F120.00
G01 X7.4327 Y36.1408 F120.00
G01 X7.5275 Y36.1505 F120.00
G01 X10.4725 Y36.1505 F120.00
G01 X10.5673 Y36.1408 F120.00
G01 X10.7231 Y36.0892 F120.00
G01 X10.8624 Y36.0032 F120.00
G01 X10.8671 Y35.9987 F120.00
G01 X10.8888 Y35.9813 F120.00
G01 X10.8970 Y35.9759 F120.00
G01 X10.9061 Y35.9722 F120.00
G01 X10.9731 Y35.9525 F120.00
G01 X10.9778 Y35.9514 F120.00
G01 X10.9837 Y35.9506 F120.00
G01 X12.5356 Y35.9505 F120.00
G01 X12.5684 Y35.9539 F120.00
G01 X12.5743 Y35.9553 F120.00
G01 X12.5801 Y35.9573 F120.00
G01 X12.6469 Y35.9935 F120.00
G01 X12.6528 Y35.9975 F120.00
G01 X12.6573 Y36.0015 F120.00
G01 X12.7401 Y36.0844 F120.00
G01 X12.7591 Y36.1072 F120.00
G01 X12.7628 Y36.1136 F120.00
G01 X12.7652 Y36.1193 F120.00
G01 X12.7880 Y36.1867 F120.00
G01 X12.7900 Y36.1964 F120.00
G01 X12.7901 Y36.2051 F120.00
G01 X12.7888 Y36.2137 F120.00
G01 X12.7715 Y36.2827 F120.00
G01 X12.7695 Y36.2885 F120.00
G01 X12.7668 Y36.2941 F120.00
G01 X12.7626 Y36.3003 F120.00
G01 X12.7576 Y36.3058 F120.00
G01 X12.7058 Y36.3545 F120.00
G01 X12.7009 Y36.3583 F120.00
G01 X12.6956 Y36.3615 F120.00
G01 X12.6899 Y36.3641 F120.00
G01 X12.6828 Y36.3661 F120.00
G01 X12.6129 Y36.3791 F120.00
G01 X12.6046 Y36.3800 F120.00
G01 X12.5987 Y36.3797 F120.00
G01 X12.5475 Y36.3745 F120.00
G01 X11.5525 Y36.3745 F120.00
G01 X11.4577 Y36.3842 F120.00
G01 X11.3019 Y36.4358 F120.00
G01 X11.1626 Y36.5218 F120.00
G01 X11.0468 Y36.6376 F120.00
G01 X10.9608 Y36.7769 F120.00
G01 X10.9092 Y36.9327 F120.00
G01 X10.8995 Y37.0275 F120.00
G01 X10.8995 Y39.9725 F120.00
G01 X10.9092 Y40.0673 F120.00
G01 X10.9608 Y40.2231 F120.00
G01 X11.0468 Y40.3624 F120.00
G01 X11.0513 Y40.3671 F120.00
G01 X11.0687 Y40.3888 F120.00
G01 X11.0741 Y40.3970 F120.00
G01 X11.0778 Y40.4061 F120.00
G01 X11.0975 Y40.4731 F120.00
G01 X11.0990 Y40.4801 F120.00
G01 X11.0995 Y40.4872 F120.00
G01 X11.0995 Y41.0128 F120.00
G01 X11.0992 Y41.0181 F120.00
G01 X11.0959 Y41.0481 F120.00
G01 X11.0940 Y41.0552 F120.00
G01 X11.0911 Y41.0620 F120.00
G01 X11.0565 Y41.1255 F120.00
G01 X11.0525 Y41.1314 F120.00
G01 X11.0468 Y41.1376 F120.00
G01 X10.9608 Y41.2769 F120.00
G01 X10.9092 Y41.4327 F120.00
G01 X10.8995 Y41.5275 F120.00
G01 X10.8995 Y44.4725 F120.00
G01 X10.9092 Y44.5673 F120.00
G01 X10.9608 Y44.7231 F120.00
G01 X11.0468 Y44.8624 F120.00
G01 X11.1626 Y44.9782 F120.00
G01 X11.3019 Y45.0642 F120.00
G01 X11.4577 Y45.1158 F120.00
G01 X11.5525 Y45.1255 F120.00
G01 X12.5475 Y45.1255 F120.00
G01 X12.6423 Y45.1158 F120.00
G01 X12.7981 Y45.0642 F120.00
G01 X12.9374 Y44.9782 F120.00
G01 X13.0532 Y44.8624 F120.00
G01 X13.1392 Y44.7231 F120.00
G01 X13.1908 Y44.5673 F120.00
G01 X13.2005 Y44.4725 F120.00
G01 X13.2005 Y41.5275 F120.00
G01 X13.1908 Y41.4327 F120.00
G01 X13.1392 Y41.2769 F120.00
G01 X13.0532 Y41.1376 F120.00
G01 X13.0487 Y41.1329 F120.00
G01 X13.0313 Y41.1112 F120.00
G01 X13.0265 Y41.1041 F120.00
G01 X13.0243 Y41.0997 F120.00
G01 X13.0222 Y41.0939 F120.00
G01 X13.0014 Y41.0222 F120.00
G01 X13.0005 Y41.0128 F120.00
G01 X13.0005 Y40.6233 F120.00
G01 X13.0016 Y40.6139 F120.00
G01 X13.0138 Y40.5587 F120.00
G01 X13.0176 Y40.5495 F120.00
G01 X13.0231 Y40.5412 F120.00
G01 X13.0705 Y40.4865 F120.00
G01 X13.0740 Y40.4830 F120.00
G01 X13.0789 Y40.4792 F120.00
G01 X13.0864 Y40.4748 F120.00
G01 X13.0934 Y40.4722 F120.00
G01 X13.1616 Y40.4522 F120.00
G01 X13.1674 Y40.4510 F120.00
G01 X13.1721 Y40.4506 F120.00
G01 X14.2880 Y40.4505 F120.00
G01 X14.3142 Y40.4527 F120.00
G01 X14.3203 Y40.4539 F120.00
G01 X14.3261 Y40.4559 F120.00
G01 X14.3934 Y40.4886 F120.00
G01 X14.3977 Y40.4912 F120.00
G01 X14.4026 Y40.4949 F120.00
G01 X14.4087 Y40.5010 F120.00
G01 X14.4131 Y40.5071 F120.00
G01 X14.4499 Y40.5679 F120.00
G01 X14.4531 Y40.5747 F120.00
G01 X14.4553 Y40.5818 F120.00
G01 X14.4561 Y40.5867 F120.00
G01 X14.4565 Y40.5929 F120.00
G01 X14.4545 Y40.6664 F120.00
G01 X14.4536 Y40.6726 F120.00
G01 X14.4520 Y40.6786 F120.00
G01 X14.4502 Y40.6832 F120.00
G01 X14.4473 Y40.6887 F120.00
G01 X14.4079 Y40.7467 F120.00
G01 X14.4014 Y40.7550 F120.00
G01 X14.3958 Y40.7600 F120.00
G01 X13.7617 Y41.3941 F120.00
G01 X13.6577 Y41.5498 F120.00
G01 X13.5860 Y41.7228 F120.00
G01 X13.5495 Y41.9064 F120.00
G01 X13.5495 Y50.5936 F120.00
G01 X13.5860 Y50.7773 F120.00
G01 X13.6577 Y50.9502 F120.00
G01 X13.7617 Y51.1059 F120.00
G01 X14.4083 Y51.7525 F120.00
G01 X14.4179 Y51.7630 F120.00
G01 X14.4215 Y51.7681 F120.00
G01 X14.4239 Y51.7724 F120.00
G01 X14.4534 Y51.8371 F120.00
G01 X14.4560 Y51.8441 F120.00
G01 X14.4575 Y51.8514 F120.00
G01 X14.4580 Y51.8575 F120.00
G01 X14.4574 Y51.8650 F120.00
G01 X14.4473 Y51.9354 F120.00
G01 X14.4462 Y51.9402 F120.00
G01 X14.4442 Y51.9461 F120.00
G01 X14.4402 Y51.9538 F120.00
G01 X14.4358 Y51.9598 F120.00
G01 X14.3892 Y52.0135 F120.00
G01 X14.3848 Y52.0178 F120.00
G01 X14.3798 Y52.0215 F120.00
G01 X14.3733 Y52.0252 F120.00
G01 X14.3663 Y52.0278 F120.00
G01 X14.2982 Y52.0478 F120.00
G01 X14.2912 Y52.0491 F120.00
G01 X14.2852 Y52.0495 F120.00
G01 X1.1245 Y52.0495 F120.00
G01 X1.1150 Y52.0486 F120.00
G01 X1.0624 Y52.0372 F120.00
G01 X1.0564 Y52.0354 F120.00
G01 X1.0495 Y52.0324 F120.00
G01 X1.0412 Y52.0269 F120.00
G01 X0.9874 Y51.9803 F120.00
G01 X0.9830 Y51.9760 F120.00
G01 X0.9792 Y51.9711 F120.00
G01 X0.9748 Y51.9636 F120.00
G01 X0.9722 Y51.9566 F120.00
G01 X0.9522 Y51.8884 F120.00
G01 X0.9509 Y51.8814 F120.00
G01 X0.9505 Y51.8755 F120.00
G01 X0.9507 Y1.1197 F120.00
G00 Z1.0000
G00 X4.9997 Y5.4975
G01 F60.00
G01 Z0.0000
G01 F120.00
G01 X5.1434 Y5.3103 F120.00
G01 X5.3103 Y5.1434 F120.00
G01 X5.4975 Y4.9997 F120.00
G01 X5.7019 Y4.8817 F120.00
G01 X5.9200 Y4.7914 F120.00
G01 X6.1480 Y4.7303 F120.00
G01 X6.3820 Y4.6995 F120.00
G01 X6.6180 Y4.6995 F120.00
G01 X6.8520 Y4.7303 F120.00
G01 X7.0800 Y4.7914 F120.00
G01 X7.2981 Y4.8817 F120.00
G01 X7.5025 Y4.9997 F120.00
G01 X7.6897 Y5.1434 F120.00
G01 X7.8566 Y5.3103 F120.00
G01 X8.0003 Y5.4975 F120.00
G01 X8.1183 Y5.7019 F120.00
G01 X8.2086 Y5.9200 F120.00
G01 X8.2697 Y6.1480 F120.00
G01 X8.3005 Y6.3820 F120.00
G01 X8.3005 Y6.6180 F120.00
G01 X8.2697 Y6.8520 F120.00
G01 X8.2086 Y7.0800 F120.00
G01 X8.1183 Y7.2981 F120.00
G01 X8.0003 Y7.5025 F120.00
G01 X7.8566 Y7.6897 F120.00
G01 X7.6897 Y7.8566 F120.00
G01 X7.5025 Y8.0003 F120.00
G01 X7.2981 Y8.1183 F120.00
G01 X7.0800 Y8.2086 F120.00
G01 X6.8520 Y8.2697 F120.00
G01 X6.6180 Y8.3005 F120.00
G01 X6.3820 Y8.3005 F120.00
G01 X6.1480 Y8.2697 F120.00
G01 X5.9200 Y8.2086 F120.00
G01 X5.7020 Y8.1183 F120.00
G01 X5.4975 Y8.0003 F120.00
G01 X5.3103 Y7.8566 F120.00
G01 X5.1434 Y7.6897 F120.00
G01 X4.9997 Y7.5025 F120.00
G01 X4.8817 Y7.2981 F120.00
G01 X4.7914 Y7.0800 F120.00
G01 X4.7303 Y6.8520 F120.00
G01 X4.6995 Y6.6180 F120.00
G01 X4.6995 Y6.3820 F120.00
G01 X4.7303 Y6.1480 F120.00
G01 X4.7914 Y5.9200 F120.00
G01 X4.8817 Y5.7020 F120.00
G01 X4.9997 Y5.4975 F120.00
G00 Z1.0000
G00 X2.1439 Y19.1004
G01 F60.00
G01 Z0.0000
G01 F120.00
G01 X2.1500 Y19.1000 F120.00
G01 X3.8512 Y19.1000 F120.00
G01 X3.8585 Y19.1007 F120.00
G01 X3.8668 Y19.1029 F120.00
G01 X3.8736 Y19.1059 F120.00
G01 X3.8798 Y19.1098 F120.00
G01 X3.8862 Y19.1155 F120.00
G01 X3.8909 Y19.1212 F120.00
G01 X3.8947 Y19.1275 F120.00
G01 X3.8978 Y19.1355 F120.00
G01 X3.8995 Y19.1427 F120.00
G01 X3.9000 Y19.1500 F120.00
G01 X3.9000 Y20.8500 F120.00
G01 X3.8990 Y20.8598 F120.00
G01 X3.8966 Y20.8680 F120.00
G01 X3.8935 Y20.8746 F120.00
G01 X3.8894 Y20.8808 F120.00
G01 X3.8845 Y20.8862 F120.00
G01 X3.8788 Y20.8909 F120.00
G01 X3.8714 Y20.8952 F120.00
G01 X3.8645 Y20.8978 F120.00
G01 X3.8561 Y20.8996 F120.00
G01 X3.8500 Y20.9000 F120.00
G01 X3.5503 Y20.9000 F120.00
G01 X3.5503 Y23.1000 F120.00
G01 X3.8500 Y23.1000 F120.00
G01 X3.8561 Y23.1004 F120.00
G01 X3.8645 Y23.1022 F120.00
G01 X3.8725 Y23.1053 F120.00
G01 X3.8798 Y23.1098 F120.00
G01 X3.8862 Y23.1155 F120.00
G01 X3.8916 Y23.1222 F120.00
G01 X3.8957 Y23.1297 F120.00
G01 X3.8985 Y23.1379 F120.00
G01 X3.8999 Y23.1463 F120.00
G01 X3.9000 Y24.8512 F120.00
G01 X3.8993 Y24.8585 F120.00
G01 X3.8975 Y24.8657 F120.00
G01 X3.8941 Y24.8736 F120.00
G01 X3.8902 Y24.8798 F120.00
G01 X3.8845 Y24.8862 F120.00
G01 X3.8788 Y24.8909 F120.00
G01 X3.8725 Y24.8947 F120.00
G01 X3.8645 Y24.8978 F120.00
G01 X3.8573 Y24.8995 F120.00
G01 X3.8500 Y24.9000 F120.00
G01 X2.1488 Y24.9000 F120.00
G01 X2.1415 Y24.8993 F120.00
G01 X2.1332 Y24.8971 F120.00
G01 X2.1264 Y24.8941 F120.00
G01 X2.1202 Y24.8902 F120.00
G01 X2.1138 Y24.8845 F120.00
G01 X2.1091 Y24.8788 F120.00
G01 X2.1053 Y24.8725 F120.00
G01 X2.1022 Y24.8645 F120.00
G01 X2.1005 Y24.8573 F120.00
G01 X2.1000 Y24.8500 F120.00
G01 X2.1000 Y23.1500 F120.00
G01 X2.1010 Y23.1402 F120.00
G01 X2.1034 Y23.1320 F120.00
G01 X2.1065 Y23.1254 F120.00
G01 X2.1106 Y23.1192 F120.00
G01 X2.1155 Y23.1138 F120.00
G01 X2.1212 Y23.1091 F120.00
G01 X2.1286 Y23.1048 F120.00
G01 X2.1355 Y23.1022 F120.00
G01 X2.1439 Y23.1004 F120.00
G01 X2.1500 Y23.1000 F120.00
G01 X2.4497 Y23.1000 F120.00
G01 X2.4497 Y20.9000 F120.00
G01 X2.1500 Y20.9000 F120.00
G01 X2.1439 Y20.8996 F120.00
G01 X2.1355 Y20.8978 F120.00
G01 X2.1275 Y20.8947 F120.00
G01 X2.1202 Y20.8902 F120.00
G01 X2.1138 Y20.8845 F120.00
G01 X2.1084 Y20.8778 F120.00
G01 X2.1043 Y20.8703 F120.00
G01 X2.1015 Y20.8621 F120.00
G01 X2.1001 Y20.8537 F120.00
G01 X2.1000 Y19.1488 F120.00
G01 X2.1010 Y19.1402 F120.00
G01 X2.1034 Y19.1320 F120.00
G01 X2.1078 Y19.1233 F120.00
G01 X2.1130 Y19.1164 F120.00
G01 X2.1202 Y19.1098 F120.00
G01 X2.1275 Y19.1053 F120.00
G01 X2.1355 Y19.1022 F120.00
G01 X2.1439 Y19.1004 F120.00
G00 Z1.0000
G00 X4.6442 Y19.9130
G01 F60.00
G01 Z0.0000
G01 F120.00
G01 X4.6572 Y19.8247 F120.00
G01 X4.6788 Y19.7387 F120.00
G01 X4.7083 Y19.6561 F120.00
G01 X4.7468 Y19.5748 F120.00
G01 X4.7920 Y19.4995 F120.00
G01 X4.8451 Y19.4281 F120.00
G01 X4.9045 Y19.3627 F120.00
G01 X4.9681 Y19.3051 F120.00
G01 X4.9897 Y19.2889 F120.00
G01 X4.9898 Y17.4575 F120.00
G01 X4.9924 Y17.4061 F120.00
G01 X4.9999 Y17.3551 F120.00
G01 X5.0134 Y17.3003 F120.00
G01 X5.0314 Y17.2499 F120.00
G01 X5.0536 Y17.2028 F120.00
G01 X5.0825 Y17.1543 F120.00
G01 X5.1145 Y17.1111 F120.00
G01 X5.1509 Y17.0709 F120.00
G01 X9.4497 Y12.7721 F120.00
G01 X9.4498 Y9.7488 F120.00
G01 X9.4524 Y9.6961 F120.00
G01 X9.4599 Y9.6451 F120.00
G01 X9.4734 Y9.5903 F120.00
G01 X9.4914 Y9.5399 F120.00
G01 X9.5136 Y9.4928 F120.00
G01 X9.5432 Y9.4433 F120.00
G01 X9.5745 Y9.4011 F120.00
G01 X9.6109 Y9.3609 F120.00
G01 X17.8609 Y1.1109 F120.00
G01 X17.9011 Y1.0745 F120.00
G01 X17.9423 Y1.0439 F120.00
G01 X17.9906 Y1.0147 F120.00
G01 X18.0417 Y0.9908 F120.00
G01 X18.0903 Y0.9734 F120.00
G01 X18.1403 Y0.9609 F120.00
G01 X18.1961 Y0.9524 F120.00
G01 X18.2500 Y0.9497 F120.00
G01 X29.5000 Y0.9497 F120.00
G01 X29.5527 Y0.9523 F120.00
G01 X29.6097 Y0.9609 F120.00
G01 X29.6597 Y0.9734 F120.00
G01 X29.7100 Y0.9914 F120.00
G01 X29.7593 Y1.0147 F120.00
G01 X29.8036 Y1.0412 F120.00
G01 X29.8509 Y1.0763 F120.00
G01 X29.8891 Y1.1109 F120.00
G01 X31.2279 Y2.4497 F120.00
G01 X37.0000 Y2.4497 F120.00
G01 X37.0539 Y2.4524 F120.00
G01 X37.1097 Y2.4609 F120.00
G01 X37.1597 Y2.4734 F120.00
G01 X37.2083 Y2.4908 F120.00
G01 X37.2593 Y2.5147 F120.00
G01 X37.3077 Y2.5439 F120.00
G01 X37.3489 Y2.5745 F120.00
G01 X37.3882 Y2.6101 F120.00
G01 X40.8891 Y6.1109 F120.00
G01 X40.9255 Y6.1511 F120.00
G01 X40.9561 Y6.1923 F120.00
G01 X40.9858 Y6.2417 F120.00
G01 X41.0092 Y6.2917 F120.00
G01 X41.0266 Y6.3403 F120.00
G01 X41.0391 Y6.3903 F120.00
G01 X41.0476 Y6.4461 F120.00
G01 X41.0502 Y6.4988 F120.00
G01 X41.0503 Y10.2721 F120.00
G01 X47.3891 Y16.6109 F120.00
G01 X47.4255 Y16.6511 F120.00
G01 X47.4576 Y16.6944 F120.00
G01 X47.4853 Y16.7406 F120.00
G01 X47.5088 Y16.7905 F120.00
G01 X47.5266 Y16.8403 F120.00
G01 X47.5396 Y16.8925 F120.00
G01 X47.5476 Y16.9461 F120.00
G01 X47.5503 Y17.0000 F120.00
G01 X47.5503 Y30.0000 F120.00
G01 X47.5476 Y30.0539 F120.00
G01 X47.5391 Y30.1097 F120.00
G01 X47.5266 Y30.1597 F120.00
G01 X47.5092 Y30.2083 F120.00
G01 X47.4852 Y30.2596 F120.00
G01 X47.4561 Y30.3077 F120.00
G01 X47.4255 Y30.3489 F120.00
G01 X47.3908 Y30.3873 F120.00
G01 X45.8891 Y31.8891 F120.00
G01 X45.8491 Y31.9253 F120.00
G01 X45.8077 Y31.9561 F120.00
G01 X45.7572 Y31.9864 F120.00
G01 X45.7100 Y32.0086 F120.00
G01 X45.6597 Y32.0266 F120.00
G01 X45.6071 Y32.0397 F120.00
G01 X45.5552 Y32.0475 F120.00
G01 X45.5000 Y32.0503 F120.00
G01 X31.3500 Y32.0500 F120.00
G01 X31.3427 Y32.0495 F120.00
G01 X31.3355 Y32.0478 F120.00
G01 X31.3286 Y32.0452 F120.00
G01 X31.3222 Y32.0416 F120.00
G01 X31.3164 Y32.0370 F120.00
G01 X31.3113 Y32.0317 F120.00
G01 X31.3071 Y32.0257 F120.00
G01 X31.3038 Y32.0191 F120.00
G01 X31.3010 Y32.0098 F120.00
G01 X31.3000 Y32.0000 F120.00
G01 X31.3000 Y30.9988 F120.00
G01 X31.3010 Y30.9902 F120.00
G01 X31.3034 Y30.9820 F120.00
G01 X31.3071 Y30.9743 F120.00
G01 X31.3121 Y30.9673 F120.00
G01 X31.3183 Y30.9613 F120.00
G01 X31.3264 Y30.9559 F120.00
G01 X31.3343 Y30.9525 F120.00
G01 X31.3427 Y30.9505 F120.00
G01 X31.3500 Y30.9500 F120.00
G01 X32.6000 Y30.9497 F120.00
G01 X45.2721 Y30.9497 F120.00
G01 X46.4497 Y29.7721 F120.00
G01 X46.4497 Y17.2279 F120.00
G01 X40.1109 Y10.8891 F120.00
G01 X40.0745 Y10.8489 F120.00
G01 X40.0432 Y10.8067 F120.00
G01 X40.0136 Y10.7572 F120.00
G01 X39.9917 Y10.7107 F120.00
G01 X39.9734 Y10.6597 F120.00
G01 X39.9599 Y10.6049 F120.00
G01 X39.9524 Y10.5539 F120.00
G01 X39.9498 Y10.5012 F120.00
G01 X39.9497 Y6.7279 F120.00
G01 X36.7721 Y3.5503 F120.00
G01 X31.0000 Y3.5503 F120.00
G01 X30.9461 Y3.5476 F120.00
G01 X30.8927 Y3.5397 F120.00
G01 X30.8379 Y3.5258 F120.00
G01 X30.7900 Y3.5086 F120.00
G01 X30.7407 Y3.4853 F120.00
G01 X30.6923 Y3.4561 F120.00
G01 X30.6511 Y3.4255 F120.00
G01 X30.6127 Y3.3908 F120.00
G01 X29.2721 Y2.0503 F120.00
G01 X18.4779 Y2.0503 F120.00
G01 X10.5503 Y9.9779 F120.00
G01 X10.5502 Y13.0012 F120.00
G01 X10.5473 Y13.0564 F120.00
G01 X10.5397 Y13.1073 F120.00
G01 X10.5272 Y13.1574 F120.00
G01 X10.5086 Y13.2101 F120.00
G01 X10.4847 Y13.2604 F120.00
G01 X10.4575 Y13.3057 F120.00
G01 X10.4269 Y13.3471 F120.00
G01 X10.3891 Y13.3891 F120.00
G01 X6.0903 Y17.6879 F120.00
G01 X6.0903 Y19.2889 F120.00
G01 X6.1119 Y19.3051 F120.00
G01 X6.1755 Y19.3627 F120.00
G01 X6.2349 Y19.4281 F120.00
G01 X6.2883 Y19.5000 F120.00
G01 X6.3331 Y19.5747 F120.00
G01 X6.3717 Y19.6561 F120.00
G01 X6.4012 Y19.7386 F120.00
G01 X6.4228 Y19.8247 F120.00
G01 X6.4358 Y19.9142 F120.00
G01 X6.4400 Y20.0000 F120.00
G01 X6.4357 Y20.0882 F120.00
G01 X6.4227 Y20.1756 F120.00
G01 X6.4012 Y20.2613 F120.00
G01 X6.3717 Y20.3439 F120.00
G01 X6.3338 Y20.4242 F120.00
G01 X6.2880 Y20.5005 F120.00
G01 X6.2365 Y20.5700 F120.00
G01 X6.1746 Y20.6381 F120.00
G01 X6.1109 Y20.6957 F120.00
G01 X6.0405 Y20.7480 F120.00
G01 X5.9643 Y20.7937 F120.00
G01 X5.8867 Y20.8305 F120.00
G01 X5.7989 Y20.8619 F120.00
G01 X5.7156 Y20.8827 F120.00
G01 X5.6282 Y20.8957 F120.00
G01 X5.5400 Y20.9000 F120.00
G01 X5.4542 Y20.8958 F120.00
G01 X5.3620 Y20.8822 F120.00
G01 X5.2787 Y20.8612 F120.00
G01 X5.1961 Y20.8317 F120.00
G01 X5.1136 Y20.7925 F120.00
G01 X5.0395 Y20.7480 F120.00
G01 X4.9690 Y20.6957 F120.00
G01 X4.9036 Y20.6364 F120.00
G01 X4.8459 Y20.5728 F120.00
G01 X4.7904 Y20.4979 F120.00
G01 X4.7463 Y20.4243 F120.00
G01 X4.7083 Y20.3439 F120.00
G01 X4.6788 Y20.2614 F120.00
G01 X4.6578 Y20.1780 F120.00
G01 X4.6442 Y20.0858 F120.00
G01 X4.6400 Y20.0000 F120.00
G01 X4.6442 Y19.9130 F120.00
G00 Z1.0000
G00 X6.4321 Y23.2510
G01 F60.00
G01 Z0.0000
G01 F120.00
G01 X6.5542 Y23.2054 F120.00
G01 X6.6048 Y23.2000 F120.00
G01 X7.2000 Y23.2000 F120.00
G01 X7.2000 Y23.6000 F120.00
G01 X6.6488 Y23.6000 F120.00
G01 X6.6415 Y23.6007 F120.00
G01 X6.6355 Y23.6022 F120.00
G01 X6.6297 Y23.6043 F120.00
G01 X6.6243 Y23.6071 F120.00
G01 X6.6192 Y23.6106 F120.00
G01 X6.6146 Y23.6146 F120.00
G01 X6.6106 Y23.6192 F120.00
G01 X6.6071 Y23.6243 F120.00
G01 X6.6043 Y23.6297 F120.00
G01 X6.6022 Y23.6355 F120.00
G01 X6.6007 Y23.6415 F120.00
G01 X6.6001 Y23.6475 F120.00
G01 X6.6000 Y24.1218 F120.00
G01 X6.5218 Y24.2000 F120.00
G01 X6.2000 Y24.2000 F120.00
G01 X6.2000 Y23.6048 F120.00
G01 X6.2054 Y23.5542 F120.00
G01 X6.2510 Y23.4321 F120.00
G01 X6.3285 Y23.3285 F120.00
G01 X6.4321 Y23.2510 F120.00
G00 Z1.0000
G00 X8.5182 Y25.9045
G01 F60.00
G01 Z0.0000
G01 F120.00
G01 X8.5182 Y25.8983 F120.00
G01 X8.5235 Y25.8261 F120.00
G01 X8.5243 Y25.8212 F120.00
G01 X8.5260 Y25.8153 F120.00
G01 X8.5285 Y25.8096 F120.00
G01 X8.5316 Y25.8042 F120.00
G01 X8.5749 Y25.7463 F120.00
G01 X8.5805 Y25.7400 F120.00
G01 X8.5850 Y25.7362 F120.00
G01 X8.6715 Y25.6715 F120.00
G01 X8.7490 Y25.5679 F120.00
G01 X8.7538 Y25.5554 F120.00
G01 X8.7576 Y25.5485 F120.00
G01 X8.7939 Y25.4962 F120.00
G01 X8.7995 Y25.4898 F120.00
G01 X8.8051 Y25.4851 F120.00
G01 X8.8135 Y25.4802 F120.00
G01 X8.8771 Y25.4512 F120.00
G01 X8.8841 Y25.4486 F120.00
G01 X8.8901 Y25.4473 F120.00
G01 X8.8963 Y25.4467 F120.00
G01 X8.9037 Y25.4470 F120.00
G01 X8.9741 Y25.4571 F120.00
G01 X8.9802 Y25.4584 F120.00
G01 X8.9861 Y25.4604 F120.00
G01 X8.9927 Y25.4638 F120.00
G01 X8.9978 Y25.4673 F120.00
G01 X9.0535 Y25.5154 F120.00
G01 X9.0570 Y25.5190 F120.00
G01 X9.0608 Y25.5238 F120.00
G01 X9.0646 Y25.5302 F120.00
G01 X9.0674 Y25.5371 F120.00
G01 X9.0878 Y25.6065 F120.00
G01 X9.0894 Y25.6159 F120.00
G01 X9.0893 Y25.8803 F120.00
G01 X9.0884 Y25.8861 F120.00
G01 X9.0769 Y25.9389 F120.00
G01 X9.0746 Y25.9460 F120.00
G01 X9.0718 Y25.9516 F120.00
G01 X9.0661 Y25.9598 F120.00
G01 X9.0203 Y26.0126 F120.00
G01 X9.0160 Y26.0170 F120.00
G01 X9.0111 Y26.0208 F120.00
G01 X9.0047 Y26.0246 F120.00
G01 X8.9978 Y26.0274 F120.00
G01 X8.9284 Y26.0478 F120.00
G01 X8.9191 Y26.0494 F120.00
G01 X8.6879 Y26.0495 F120.00
G01 X8.6576 Y26.0464 F120.00
G01 X8.6515 Y26.0454 F120.00
G01 X8.6456 Y26.0436 F120.00
G01 X8.6400 Y26.0411 F120.00
G01 X8.5776 Y26.0071 F120.00
G01 X8.5714 Y26.0030 F120.00
G01 X8.5649 Y25.9972 F120.00
G01 X8.5610 Y25.9924 F120.00
G01 X8.5583 Y25.9882 F120.00
G01 X8.5236 Y25.9247 F120.00
G01 X8.5200 Y25.9155 F120.00
G01 X8.5189 Y25.9107 F120.00
G01 X8.5182 Y25.9045 F120.00
G00 Z1.0000
G00 X7.2763 Y28.4218
G01 F60.00
G01 Z0.0000
G01 F120.00
G01 X7.2807 Y28.3917 F120.00
G01 X7.2880 Y28.3628 F120.00
G01 X7.2979 Y28.3351 F120.00
G01 X7.3093 Y28.3108 F120.00
G01 X7.3270 Y28.2813 F120.00
G01 X7.3431 Y28.2597 F120.00
G01 X7.3646 Y28.2362 F120.00
G01 X7.3847 Y28.2181 F120.00
G01 X7.4082 Y28.2007 F120.00
G01 X7.4335 Y28.1855 F120.00
G01 X7.4602 Y28.1728 F120.00
G01 X7.4878 Y28.1630 F120.00
G01 X7.5167 Y28.1557 F120.00
G01 X7.5456 Y28.1514 F120.00
G01 X7.5738 Y28.1500 F120.00
G01 X10.4275 Y28.1501 F120.00
G01 X10.4544 Y28.1514 F120.00
G01 X10.4811 Y28.1553 F120.00
G01 X10.5122 Y28.1630 F120.00
G01 X10.5399 Y28.1729 F120.00
G01 X10.5642 Y28.1843 F120.00
G01 X10.5927 Y28.2013 F120.00
G01 X10.6153 Y28.2181 F120.00
G01 X10.6354 Y28.2362 F120.00
G01 X10.6577 Y28.2606 F120.00
G01 X10.6743 Y28.2832 F120.00
G01 X10.6890 Y28.3075 F120.00
G01 X10.7017 Y28.3341 F120.00
G01 X10.7074 Y28.3497 F120.00
G01 X12.8721 Y28.3497 F120.00
G01 X13.9718 Y27.2500 F120.00
G01 X12.1899 Y25.4680 F120.00
G01 X12.1545 Y25.4289 F120.00
G01 X12.1239 Y25.3877 F120.00
G01 X12.0953 Y25.3405 F120.00
G01 X12.0714 Y25.2901 F120.00
G01 X12.0538 Y25.2409 F120.00
G01 X12.0500 Y25.2261 F120.00
G01 X12.0081 Y25.1949 F120.00
G01 X11.9427 Y25.1355 F120.00
G01 X11.8843 Y25.0709 F120.00
G01 X11.8310 Y24.9990 F120.00
G01 X11.7863 Y24.9243 F120.00
G01 X11.7483 Y24.8439 F120.00
G01 X11.7188 Y24.7614 F120.00
G01 X11.6978 Y24.6780 F120.00
G01 X11.6842 Y24.5858 F120.00
G01 X11.6800 Y24.5000 F120.00
G01 X11.6845 Y24.4106 F120.00
G01 X11.6973 Y24.3244 F120.00
G01 X11.7188 Y24.2387 F120.00
G01 X11.7483 Y24.1561 F120.00
G01 X11.7869 Y24.0746 F120.00
G01 X11.8320 Y23.9995 F120.00
G01 X11.8851 Y23.9281 F120.00
G01 X11.9445 Y23.8627 F120.00
G01 X12.0081 Y23.8051 F120.00
G01 X12.0297 Y23.7889 F120.00
G01 X12.0297 Y23.2279 F120.00
G01 X10.2309 Y21.4291 F120.00
G01 X10.1947 Y21.3891 F120.00
G01 X10.1624 Y21.3456 F120.00
G01 X10.1347 Y21.2994 F120.00
G01 X10.1120 Y21.2515 F120.00
G01 X10.0934 Y21.1997 F120.00
G01 X10.0809 Y21.1497 F120.00
G01 X10.0723 Y21.0927 F120.00
G01 X10.0697 Y21.0400 F120.00
G01 X10.0697 Y20.7111 F120.00
G01 X10.0481 Y20.6949 F120.00
G01 X9.9845 Y20.6373 F120.00
G01 X9.9251 Y20.5719 F120.00
G01 X9.8717 Y20.5000 F120.00
G01 X9.8257 Y20.4232 F120.00
G01 X9.7876 Y20.3421 F120.00
G01 X9.7588 Y20.2614 F120.00
G01 X9.7378 Y20.1780 F120.00
G01 X9.7243 Y20.0882 F120.00
G01 X9.7200 Y20.0000 F120.00
G01 X9.7243 Y19.9118 F120.00
G01 X9.7378 Y19.8220 F120.00
G01 X9.7588 Y19.7387 F120.00
G01 X9.7876 Y19.6579 F120.00
G01 X9.8257 Y19.5768 F120.00
G01 X9.8717 Y19.5000 F120.00
G01 X9.9251 Y19.4281 F120.00
G01 X9.9845 Y19.3627 F120.00
G01 X10.0481 Y19.3051 F120.00
G01 X10.0697 Y19.2889 F120.00
G01 X10.0697 Y18.3800 F120.00
G01 X10.0724 Y18.3261 F120.00
G01 X10.0806 Y18.2715 F120.00
G01 X10.0934 Y18.2203 F120.00
G01 X10.1108 Y18.1717 F120.00
G01 X10.1348 Y18.1204 F120.00
G01 X10.1639 Y18.0723 F120.00
G01 X10.1945 Y18.0311 F120.00
G01 X10.2301 Y17.9918 F120.00
G01 X12.8618 Y15.3601 F120.00
G01 X12.9029 Y15.3231 F120.00
G01 X12.9444 Y15.2924 F120.00
G01 X12.9885 Y15.2659 F120.00
G01 X13.0389 Y15.2418 F120.00
G01 X13.0891 Y15.2238 F120.00
G01 X13.1429 Y15.2103 F120.00
G01 X13.1961 Y15.2024 F120.00
G01 X13.2488 Y15.1998 F120.00
G01 X13.3570 Y15.1997 F120.00
G01 X13.3777 Y15.1656 F120.00
G01 X13.4376 Y15.0848 F120.00
G01 X13.5075 Y15.0075 F120.00
G01 X13.5849 Y14.9376 F120.00
G01 X13.6654 Y14.8778 F120.00
G01 X13.6997 Y14.8570 F120.00
G01 X13.6998 Y11.2488 F120.00
G01 X13.7024 Y11.1961 F120.00
G01 X13.7099 Y11.1451 F120.00
G01 X13.7234 Y11.0903 F120.00
G01 X13.7414 Y11.0399 F120.00
G01 X13.7636 Y10.9928 F120.00
G01 X13.7932 Y10.9433 F120.00
G01 X13.8245 Y10.9011 F120.00
G01 X13.8609 Y10.8609 F120.00
G01 X18.8609 Y5.8609 F120.00
G01 X18.9011 Y5.8245 F120.00
G01 X18.9444 Y5.7924 F120.00
G01 X18.9906 Y5.7647 F120.00
G01 X19.0389 Y5.7418 F120.00
G01 X19.0903 Y5.7234 F120.00
G01 X19.1416 Y5.7106 F120.00
G01 X19.1985 Y5.7022 F120.00
G01 X19.2488 Y5.6998 F120.00
G01 X19.3570 Y5.6997 F120.00
G01 X19.3777 Y5.6656 F120.00
G01 X19.4376 Y5.5848 F120.00
G01 X19.5067 Y5.5084 F120.00
G01 X19.5839 Y5.4383 F120.00
G01 X19.6675 Y5.3764 F120.00
G01 X19.7572 Y5.3229 F120.00
G01 X19.8477 Y5.2801 F120.00
G01 X19.9429 Y5.2460 F120.00
G01 X20.0454 Y5.2201 F120.00
G01 X20.1483 Y5.2050 F120.00
G01 X20.2500 Y5.2000 F120.00
G01 X20.3505 Y5.2049 F120.00
G01 X20.4548 Y5.2202 F120.00
G01 X20.5571 Y5.2460 F120.00
G01 X20.6514 Y5.2797 F120.00
G01 X20.7439 Y5.3234 F120.00
G01 X20.8354 Y5.3784 F120.00
G01 X20.9161 Y5.4383 F120.00
G01 X20.9916 Y5.5067 F120.00
G01 X21.0624 Y5.5849 F120.00
G01 X21.1223 Y5.6656 F120.00
G01 X21.1430 Y5.6997 F120.00
G01 X25.8570 Y5.6997 F120.00
G01 X25.8777 Y5.6656 F120.00
G01 X25.9391 Y5.5829 F120.00
G01 X26.0075 Y5.5075 F120.00
G01 X26.0830 Y5.4391 F120.00
G01 X26.1687 Y5.3756 F120.00
G01 X26.2550 Y5.3240 F120.00
G01 X26.3473 Y5.2803 F120.00
G01 X26.4476 Y5.2446 F120.00
G01 X26.5454 Y5.2201 F120.00
G01 X26.6471 Y5.2051 F120.00
G01 X26.7525 Y5.2001 F120.00
G01 X26.8529 Y5.2051 F120.00
G01 X26.9536 Y5.2200 F120.00
G01 X27.0548 Y5.2452 F120.00
G01 X27.1513 Y5.2797 F120.00
G01 X27.2451 Y5.3240 F120.00
G01 X27.3313 Y5.3756 F120.00
G01 X27.4180 Y5.4399 F120.00
G01 X27.4925 Y5.5075 F120.00
G01 X27.5624 Y5.5849 F120.00
G01 X27.6244 Y5.6687 F120.00
G01 X27.6761 Y5.7552 F120.00
G01 X27.7191 Y5.8459 F120.00
G01 X27.7547 Y5.9451 F120.00
G01 X27.7801 Y6.0467 F120.00
G01 X27.7949 Y6.1471 F120.00
G01 X27.7999 Y6.2475 F120.00
G01 X27.7950 Y6.3517 F120.00
G01 X27.7796 Y6.4560 F120.00
G01 X27.7551 Y6.5536 F120.00
G01 X27.7359 Y6.6077 F120.00
G01 X28.9054 Y7.7772 F120.00
G01 X28.9248 Y7.7511 F120.00
G01 X28.9602 Y7.7120 F120.00
G01 X29.0001 Y7.6757 F120.00
G01 X29.0444 Y7.6427 F120.00
G01 X29.0917 Y7.6144 F120.00
G01 X29.1395 Y7.5919 F120.00
G01 X29.1927 Y7.5730 F120.00
G01 X29.2427 Y7.5606 F120.00
G01 X29.2937 Y7.5529 F120.00
G01 X29.3488 Y7.5500 F120.00
G01 X30.3500 Y7.5500 F120.00
G01 X30.4051 Y7.5528 F120.00
G01 X30.4573 Y7.5606 F120.00
G01 X30.5093 Y7.5736 F120.00
G01 X30.5606 Y7.5919 F120.00
G01 X30.6071 Y7.6138 F120.00
G01 X30.6576 Y7.6441 F120.00
G01 X30.6989 Y7.6748 F120.00
G01 X30.7380 Y7.7102 F120.00
G01 X30.7751 Y7.7510 F120.00
G01 X30.8059 Y7.7924 F120.00
G01 X30.8362 Y7.8429 F120.00
G01 X30.8581 Y7.8895 F120.00
G01 X30.8763 Y7.9403 F120.00
G01 X30.8894 Y7.9925 F120.00
G01 X30.8972 Y8.0449 F120.00
G01 X30.9000 Y8.1000 F120.00
G01 X30.9000 Y8.9497 F120.00
G01 X35.1382 Y8.9497 F120.00
G01 X35.1502 Y8.9247 F120.00
G01 X35.1710 Y8.8899 F120.00
G01 X35.1967 Y8.8551 F120.00
G01 X35.2245 Y8.8245 F120.00
G01 X35.2535 Y8.7981 F120.00
G01 X35.2899 Y8.7710 F120.00
G01 X35.3247 Y8.7502 F120.00
G01 X35.3601 Y8.7333 F120.00
G01 X35.4020 Y8.7182 F120.00
G01 X35.4421 Y8.7082 F120.00
G01 X35.4809 Y8.7023 F120.00
G01 X35.5250 Y8.7000 F120.00
G01 X36.7750 Y8.7000 F120.00
G01 X36.8179 Y8.7022 F120.00
G01 X36.8579 Y8.7082 F120.00
G01 X36.9007 Y8.7191 F120.00
G01 X36.9399 Y8.7333 F120.00
G01 X36.9753 Y8.7502 F120.00
G01 X37.0090 Y8.7703 F120.00
G01 X37.0445 Y8.7963 F120.00
G01 X37.0755 Y8.8245 F120.00
G01 X37.1035 Y8.8554 F120.00
G01 X37.1284 Y8.8889 F120.00
G01 X37.1509 Y8.9268 F120.00
G01 X37.1676 Y8.9624 F120.00
G01 X37.1809 Y8.9993 F120.00
G01 X37.1918 Y9.0419 F120.00
G01 X37.1981 Y9.0858 F120.00
G01 X37.2000 Y9.1250 F120.00
G01 X37.2000 Y9.8750 F120.00
G01 X37.1980 Y9.9167 F120.00
G01 X37.1918 Y9.9579 F120.00
G01 X37.1818 Y9.9980 F120.00
G01 X37.1685 Y10.0354 F120.00
G01 X37.1498 Y10.0753 F120.00
G01 X37.1284 Y10.1111 F120.00
G01 X37.1050 Y10.1427 F120.00
G01 X37.0755 Y10.1755 F120.00
G01 X37.0427 Y10.2050 F120.00
G01 X37.0111 Y10.2284 F120.00
G01 X36.9753 Y10.2498 F120.00
G01 X36.9353 Y10.2685 F120.00
G01 X36.8984 Y10.2817 F120.00
G01 X36.8579 Y10.2918 F120.00
G01 X36.8167 Y10.2980 F120.00
G01 X36.7750 Y10.3000 F120.00
G01 X35.5250 Y10.3000 F120.00
G01 X35.4809 Y10.2977 F120.00
G01 X35.4397 Y10.2913 F120.00
G01 X35.4020 Y10.2818 F120.00
G01 X35.3646 Y10.2685 F120.00
G01 X35.3247 Y10.2498 F120.00
G01 X35.2879 Y10.2277 F120.00
G01 X35.2555 Y10.2037 F120.00
G01 X35.2263 Y10.1772 F120.00
G01 X35.1973 Y10.1456 F120.00
G01 X35.1710 Y10.1101 F120.00
G01 X35.1502 Y10.0753 F120.00
G01 X35.1382 Y10.0503 F120.00
G01 X30.9000 Y10.0503 F120.00
G01 X30.9000 Y10.9012 F120.00
G01 X30.8974 Y10.9539 F120.00
G01 X30.8899 Y11.0049 F120.00
G01 X30.8755 Y11.0620 F120.00
G01 X30.8581 Y11.1106 F120.00
G01 X30.8362 Y11.1571 F120.00
G01 X30.8072 Y11.2057 F120.00
G01 X30.7752 Y11.2489 F120.00
G01 X30.7406 Y11.2871 F120.00
G01 X30.6989 Y11.3252 F120.00
G01 X30.6556 Y11.3573 F120.00
G01 X30.6114 Y11.3838 F120.00
G01 X30.5605 Y11.4081 F120.00
G01 X30.5093 Y11.4264 F120.00
G01 X30.4597 Y11.4389 F120.00
G01 X30.4063 Y11.4471 F120.00
G01 X30.4003 Y11.4476 F120.00
G01 X30.4003 Y15.1997 F120.00
G01 X31.8570 Y15.1997 F120.00
G01 X31.8777 Y15.1656 F120.00
G01 X31.9376 Y15.0848 F120.00
G01 X32.0067 Y15.0084 F120.00
G01 X32.0839 Y14.9383 F120.00
G01 X32.1677 Y14.8763 F120.00
G01 X32.2550 Y14.8240 F120.00
G01 X32.3505 Y14.7790 F120.00
G01 X32.4451 Y14.7453 F120.00
G01 X32.5428 Y14.7207 F120.00
G01 X32.6459 Y14.7052 F120.00
G01 X32.7525 Y14.7001 F120.00
G01 X32.8529 Y14.7051 F120.00
G01 X32.9548 Y14.7202 F120.00
G01 X33.0571 Y14.7460 F120.00
G01 X33.1513 Y14.7797 F120.00
G01 X33.2428 Y14.8229 F120.00
G01 X33.3333 Y14.8770 F120.00
G01 X33.4180 Y14.9399 F120.00
G01 X33.4925 Y15.0075 F120.00
G01 X33.5601 Y15.0820 F120.00
G01 X33.6230 Y15.1667 F120.00
G01 X33.6771 Y15.2572 F120.00
G01 X33.7200 Y15.3481 F120.00
G01 X33.7540 Y15.4429 F120.00
G01 X33.7799 Y15.5454 F120.00
G01 X33.7951 Y15.6495 F120.00
G01 X33.8000 Y15.7500 F120.00
G01 X33.7951 Y15.8505 F120.00
G01 X33.7798 Y15.9548 F120.00
G01 X33.7540 Y16.0571 F120.00
G01 X33.7201 Y16.1518 F120.00
G01 X33.6771 Y16.2428 F120.00
G01 X33.6230 Y16.3333 F120.00
G01 X33.5601 Y16.4180 F120.00
G01 X33.4925 Y16.4925 F120.00
G01 X33.4180 Y16.5601 F120.00
G01 X33.3344 Y16.6223 F120.00
G01 X33.2450 Y16.6760 F120.00
G01 X33.1513 Y16.7203 F120.00
G01 X33.0549 Y16.7547 F120.00
G01 X32.9546 Y16.7799 F120.00
G01 X32.8529 Y16.7949 F120.00
G01 X32.7500 Y16.8000 F120.00
G01 X32.6471 Y16.7949 F120.00
G01 X32.5440 Y16.7796 F120.00
G01 X32.4452 Y16.7548 F120.00
G01 X32.3487 Y16.7203 F120.00
G01 X32.2549 Y16.6760 F120.00
G01 X32.1656 Y16.6223 F120.00
G01 X32.0839 Y16.5617 F120.00
G01 X32.0067 Y16.4916 F120.00
G01 X31.9376 Y16.4151 F120.00
G01 X31.8777 Y16.3344 F120.00
G01 X31.8570 Y16.3003 F120.00
G01 X27.1430 Y16.3003 F120.00
G01 X27.1223 Y16.3344 F120.00
G01 X27.0624 Y16.4152 F120.00
G01 X26.9916 Y16.4933 F120.00
G01 X26.9161 Y16.5617 F120.00
G01 X26.8354 Y16.6216 F120.00
G01 X26.7439 Y16.6766 F120.00
G01 X26.6513 Y16.7203 F120.00
G01 X26.5571 Y16.7540 F120.00
G01 X26.4546 Y16.7799 F120.00
G01 X26.3529 Y16.7949 F120.00
G01 X26.2525 Y16.7999 F120.00
G01 X26.1459 Y16.7948 F120.00
G01 X26.0452 Y16.7798 F120.00
G01 X25.9476 Y16.7554 F120.00
G01 X25.8459 Y16.7191 F120.00
G01 X25.7549 Y16.6760 F120.00
G01 X25.6667 Y16.6230 F120.00
G01 X25.5839 Y16.5617 F120.00
G01 X25.5093 Y16.4942 F120.00
G01 X25.4368 Y16.4142 F120.00
G01 X25.3770 Y16.3333 F120.00
G01 X25.3239 Y16.2448 F120.00
G01 X25.2800 Y16.1519 F120.00
G01 X25.2460 Y16.0571 F120.00
G01 X25.2201 Y15.9546 F120.00
G01 X25.2051 Y15.8529 F120.00
G01 X25.2001 Y15.7525 F120.00
G01 X25.2054 Y15.6446 F120.00
G01 X25.2202 Y15.5452 F120.00
G01 X25.2452 Y15.4452 F120.00
G01 X25.2799 Y15.3482 F120.00
G01 X25.3229 Y15.2572 F120.00
G01 X25.3784 Y15.1646 F120.00
G01 X25.4383 Y15.0839 F120.00
G01 X25.5075 Y15.0075 F120.00
G01 X25.5839 Y14.9383 F120.00
G01 X25.6646 Y14.8784 F120.00
G01 X25.7561 Y14.8234 F120.00
G01 X25.8487 Y14.7797 F120.00
G01 X25.9451 Y14.7453 F120.00
G01 X26.0454 Y14.7201 F120.00
G01 X26.1471 Y14.7051 F120.00
G01 X26.2500 Y14.7000 F120.00
G01 X26.3529 Y14.7051 F120.00
G01 X26.4548 Y14.7202 F120.00
G01 X26.5536 Y14.7449 F120.00
G01 X26.6513 Y14.7797 F120.00
G01 X26.7451 Y14.8240 F120.00
G01 X26.8333 Y14.8770 F120.00
G01 X26.9152 Y14.9376 F120.00
G01 X26.9925 Y15.0075 F120.00
G01 X27.0609 Y15.0830 F120.00
G01 X27.1223 Y15.1656 F120.00
G01 X27.1430 Y15.1997 F120.00
G01 X29.2998 Y15.1997 F120.00
G01 X29.2998 Y11.4476 F120.00
G01 X29.2937 Y11.4471 F120.00
G01 X29.2403 Y11.4389 F120.00
G01 X29.1902 Y11.4263 F120.00
G01 X29.1394 Y11.4081 F120.00
G01 X29.0906 Y11.3850 F120.00
G01 X29.0465 Y11.3586 F120.00
G01 X28.9992 Y11.3236 F120.00
G01 X28.9611 Y11.2889 F120.00
G01 X28.9249 Y11.2490 F120.00
G01 X28.8928 Y11.2057 F120.00
G01 X28.8662 Y11.1614 F120.00
G01 X28.8410 Y11.1082 F120.00
G01 X28.8237 Y11.0597 F120.00
G01 X28.8108 Y11.0086 F120.00
G01 X28.8026 Y10.9539 F120.00
G01 X28.8000 Y10.9000 F120.00
G01 X28.8000 Y9.2282 F120.00
G01 X26.8650 Y7.2932 F120.00
G01 X26.8505 Y7.2951 F120.00
G01 X26.7475 Y7.2999 F120.00
G01 X26.6471 Y7.2949 F120.00
G01 X26.5452 Y7.2798 F120.00
G01 X26.4429 Y7.2540 F120.00
G01 X26.3487 Y7.2203 F120.00
G01 X26.2572 Y7.1771 F120.00
G01 X26.1646 Y7.1216 F120.00
G01 X26.0839 Y7.0617 F120.00
G01 X26.0084 Y6.9933 F120.00
G01 X25.9376 Y6.9151 F120.00
G01 X25.8777 Y6.8344 F120.00
G01 X25.8570 Y6.8003 F120.00
G01 X21.1430 Y6.8003 F120.00
G01 X21.1223 Y6.8344 F120.00
G01 X21.0624 Y6.9152 F120.00
G01 X20.9916 Y6.9933 F120.00
G01 X20.9161 Y7.0617 F120.00
G01 X20.8354 Y7.1216 F120.00
G01 X20.7460 Y7.1755 F120.00
G01 X20.6523 Y7.2199 F120.00
G01 X20.5524 Y7.2554 F120.00
G01 X20.4546 Y7.2799 F120.00
G01 X20.3554 Y7.2946 F120.00
G01 X20.2500 Y7.3000 F120.00
G01 X20.1471 Y7.2949 F120.00
G01 X20.0428 Y7.2793 F120.00
G01 X19.9452 Y7.2548 F120.00
G01 X19.8505 Y7.2210 F120.00
G01 X19.7561 Y7.1766 F120.00
G01 X19.6667 Y7.1230 F120.00
G01 X19.5829 Y7.0609 F120.00
G01 X19.5067 Y6.9916 F120.00
G01 X19.4391 Y6.9170 F120.00
G01 X19.4058 Y6.8724 F120.00
G01 X14.8003 Y11.4779 F120.00
G01 X14.8003 Y14.8570 F120.00
G01 X14.8344 Y14.8777 F120.00
G01 X14.9152 Y14.9376 F120.00
G01 X14.9925 Y15.0075 F120.00
G01 X15.0624 Y15.0849 F120.00
G01 X15.1222 Y15.1654 F120.00
G01 X15.1430 Y15.1997 F120.00
G01 X19.8570 Y15.1997 F120.00
G01 X19.8777 Y15.1656 F120.00
G01 X19.9391 Y15.0829 F120.00
G01 X20.0075 Y15.0075 F120.00
G01 X20.0830 Y14.9391 F120.00
G01 X20.1687 Y14.8756 F120.00
G01 X20.2552 Y14.8239 F120.00
G01 X20.3477 Y14.7801 F120.00
G01 X20.4476 Y14.7446 F120.00
G01 X20.5454 Y14.7201 F120.00
G01 X20.6471 Y14.7051 F120.00
G01 X20.7500 Y14.7000 F120.00
G01 X20.8505 Y14.7049 F120.00
G01 X20.9560 Y14.7204 F120.00
G01 X21.0571 Y14.7460 F120.00
G01 X21.1513 Y14.7797 F120.00
G01 X21.2428 Y14.8229 F120.00
G01 X21.3333 Y14.8770 F120.00
G01 X21.4161 Y14.9383 F120.00
G01 X21.4925 Y15.0075 F120.00
G01 X21.5632 Y15.0858 F120.00
G01 X21.6230 Y15.1667 F120.00
G01 X21.6748 Y15.2529 F120.00
G01 X21.7200 Y15.3481 F120.00
G01 X21.7547 Y15.4451 F120.00
G01 X21.7802 Y15.5476 F120.00
G01 X21.7949 Y15.6471 F120.00
G01 X21.7999 Y15.7475 F120.00
G01 X21.7949 Y15.8529 F120.00
G01 X21.7793 Y15.9572 F120.00
G01 X21.7548 Y16.0548 F120.00
G01 X21.7210 Y16.1495 F120.00
G01 X21.6760 Y16.2450 F120.00
G01 X21.6223 Y16.3344 F120.00
G01 X21.5601 Y16.4180 F120.00
G01 X21.4925 Y16.4925 F120.00
G01 X21.4180 Y16.5601 F120.00
G01 X21.3333 Y16.6230 F120.00
G01 X21.2450 Y16.6760 F120.00
G01 X21.1495 Y16.7210 F120.00
G01 X21.0549 Y16.7547 F120.00
G01 X20.9572 Y16.7793 F120.00
G01 X20.8529 Y16.7949 F120.00
G01 X20.7500 Y16.8000 F120.00
G01 X20.6446 Y16.7946 F120.00
G01 X20.5452 Y16.7798 F120.00
G01 X20.4476 Y16.7554 F120.00
G01 X20.3486 Y16.7203 F120.00
G01 X20.2540 Y16.6754 F120.00
G01 X20.1667 Y16.6230 F120.00
G01 X20.0858 Y16.5632 F120.00
G01 X20.0084 Y16.4933 F120.00
G01 X19.9376 Y16.4151 F120.00
G01 X19.8778 Y16.3346 F120.00
G01 X19.8570 Y16.3003 F120.00
G01 X15.1430 Y16.3003 F120.00
G01 X15.1223 Y16.3344 F120.00
G01 X15.0624 Y16.4152 F120.00
G01 X14.9916 Y16.4933 F120.00
G01 X14.9161 Y16.5617 F120.00
G01 X14.8354 Y16.6216 F120.00
G01 X14.7460 Y16.6755 F120.00
G01 X14.6523 Y16.7199 F120.00
G01 X14.5524 Y16.7554 F120.00
G01 X14.4546 Y16.7799 F120.00
G01 X14.3554 Y16.7946 F120.00
G01 X14.2500 Y16.8000 F120.00
G01 X14.1471 Y16.7949 F120.00
G01 X14.0428 Y16.7793 F120.00
G01 X13.9452 Y16.7548 F120.00
G01 X13.8505 Y16.7210 F120.00
G01 X13.7561 Y16.6766 F120.00
G01 X13.6667 Y16.6230 F120.00
G01 X13.5829 Y16.5609 F120.00
G01 X13.5067 Y16.4916 F120.00
G01 X13.4391 Y16.4170 F120.00
G01 X13.4058 Y16.3724 F120.00
G01 X11.1703 Y18.6079 F120.00
G01 X11.1703 Y19.2889 F120.00
G01 X11.1919 Y19.3051 F120.00
G01 X11.2555 Y19.3627 F120.00
G01 X11.3149 Y19.4281 F120.00
G01 X11.3683 Y19.5000 F120.00
G01 X11.4143 Y19.5768 F120.00
G01 X11.4524 Y19.6579 F120.00
G01 X11.4812 Y19.7386 F120.00
G01 X11.5022 Y19.8220 F120.00
G01 X11.5157 Y19.9118 F120.00
G01 X11.5200 Y20.0000 F120.00
G01 X11.5157 Y20.0882 F120.00
G01 X11.5027 Y20.1756 F120.00
G01 X11.4812 Y20.2613 F120.00
G01 X11.4511 Y20.3453 F120.00
G01 X11.4125 Y20.4264 F120.00
G01 X11.3680 Y20.5005 F120.00
G01 X11.3165 Y20.5700 F120.00
G01 X11.2555 Y20.6373 F120.00
G01 X11.1919 Y20.6949 F120.00
G01 X11.1703 Y20.7111 F120.00
G01 X11.1703 Y20.8121 F120.00
G01 X12.9691 Y22.6109 F120.00
G01 X13.0055 Y22.6511 F120.00
G01 X13.0361 Y22.6923 F120.00
G01 X13.0658 Y22.7417 F120.00
G01 X13.0882 Y22.7889 F120.00
G01 X13.1066 Y22.8403 F120.00
G01 X13.1197 Y22.8929 F120.00
G01 X13.1277 Y22.9473 F120.00
G01 X13.1303 Y23.0000 F120.00
G01 X13.1303 Y23.7889 F120.00
G01 X13.1519 Y23.8051 F120.00
G01 X13.2155 Y23.8627 F120.00
G01 X13.2749 Y23.9281 F120.00
G01 X13.3283 Y24.0000 F120.00
G01 X13.3731 Y24.0747 F120.00
G01 X13.4117 Y24.1561 F120.00
G01 X13.4412 Y24.2386 F120.00
G01 X13.4628 Y24.3247 F120.00
G01 X13.4757 Y24.4118 F120.00
G01 X13.4800 Y24.5000 F120.00
G01 X13.4757 Y24.5882 F120.00
G01 X13.4627 Y24.6756 F120.00
G01 X13.4416 Y24.7601 F120.00
G01 X13.4117 Y24.8439 F120.00
G01 X13.3743 Y24.9231 F120.00
G01 X13.3288 Y24.9992 F120.00
G01 X13.3070 Y25.0288 F120.00
G01 X15.2279 Y26.9497 F120.00
G01 X18.6500 Y26.9500 F120.00
G01 X18.6573 Y26.9505 F120.00
G01 X18.6633 Y26.9518 F120.00
G01 X18.6691 Y26.9538 F120.00
G01 X18.6746 Y26.9565 F120.00
G01 X18.6798 Y26.9598 F120.00
G01 X18.6845 Y26.9638 F120.00
G01 X18.6887 Y26.9683 F120.00
G01 X18.6929 Y26.9743 F120.00
G01 X18.6957 Y26.9797 F120.00
G01 X18.6978 Y26.9855 F120.00
G01 X18.6995 Y26.9927 F120.00
G01 X18.7000 Y26.9988 F120.00
G01 X18.7000 Y28.0000 F120.00
G01 X18.6996 Y28.0061 F120.00
G01 X18.6985 Y28.0121 F120.00
G01 X18.6962 Y28.0191 F120.00
G01 X18.6935 Y28.0246 F120.00
G01 X18.6902 Y28.0298 F120.00
G01 X18.6862 Y28.0345 F120.00
G01 X18.6817 Y28.0387 F120.00
G01 X18.6757 Y28.0429 F120.00
G01 X18.6703 Y28.0457 F120.00
G01 X18.6633 Y28.0482 F120.00
G01 X18.6561 Y28.0496 F120.00
G01 X18.6500 Y28.0500 F120.00
G01 X14.7279 Y28.0503 F120.00
G01 X13.4883 Y29.2898 F120.00
G01 X13.4489 Y29.3255 F120.00
G01 X13.4056 Y29.3576 F120.00
G01 X13.3594 Y29.3853 F120.00
G01 X13.3092 Y29.4089 F120.00
G01 X13.2597 Y29.4266 F120.00
G01 X13.2071 Y29.4397 F120.00
G01 X13.1539 Y29.4476 F120.00
G01 X13.1012 Y29.4502 F120.00
G01 X10.7074 Y29.4503 F120.00
G01 X10.7016 Y29.4661 F120.00
G01 X10.6890 Y29.4925 F120.00
G01 X10.6744 Y29.5167 F120.00
G01 X10.6577 Y29.5394 F120.00
G01 X10.6354 Y29.5638 F120.00
G01 X10.6153 Y29.5819 F120.00
G01 X10.5928 Y29.5987 F120.00
G01 X10.5644 Y29.6156 F120.00
G01 X10.5398 Y29.6272 F120.00
G01 X10.5122 Y29.6370 F120.00
G01 X10.4811 Y29.6447 F120.00
G01 X10.4544 Y29.6486 F120.00
G01 X10.4262 Y29.6500 F120.00
G01 X7.5750 Y29.6500 F120.00
G01 X7.5456 Y29.6486 F120.00
G01 X7.5165 Y29.6442 F120.00
G01 X7.4878 Y29.6370 F120.00
G01 X7.4614 Y29.6277 F120.00
G01 X7.4336 Y29.6146 F120.00
G01 X7.4063 Y29.5980 F120.00
G01 X7.3847 Y29.5819 F120.00
G01 X7.3646 Y29.5638 F120.00
G01 X7.3431 Y29.5403 F120.00
G01 X7.3243 Y29.5147 F120.00
G01 X7.3103 Y29.4913 F120.00
G01 X7.2988 Y29.4670 F120.00
G01 X7.2880 Y29.4372 F120.00
G01 X7.2803 Y29.4061 F120.00
G01 X7.2764 Y29.3794 F120.00
G01 X7.2750 Y29.3500 F120.00
G01 X7.2750 Y28.4500 F120.00
G01 X7.2763 Y28.4218 F120.00
G00 Z1.0000
G00 X6.9506 Y30.0958
G01 F60.00
G01 Z0.0000
G01 F120.00
G01 X6.9515 Y30.0894 F120.00
G01 X6.9621 Y30.0388 F120.00
G01 X6.9638 Y30.0329 F120.00
G01 X6.9663 Y30.0273 F120.00
G01 X6.9688 Y30.0231 F120.00
G01 X6.9724 Y30.0182 F120.00
G01 X7.0205 Y29.9609 F120.00
G01 X7.0242 Y29.9576 F120.00
G01 X7.0293 Y29.9540 F120.00
G01 X7.0348 Y29.9511 F120.00
G01 X7.0394 Y29.9492 F120.00
G01 X7.1084 Y29.9276 F120.00
G01 X7.1145 Y29.9262 F120.00
G01 X7.1207 Y29.9256 F120.00
G01 X7.1281 Y29.9260 F120.00
G01 X7.1342 Y29.9271 F120.00
G01 X7.2073 Y29.9473 F120.00
G01 X7.2158 Y29.9515 F120.00
G01 X7.2769 Y29.9892 F120.00
G01 X7.4327 Y30.0408 F120.00
G01 X7.5275 Y30.0505 F120.00
G01 X10.4725 Y30.0505 F120.00
G01 X10.5673 Y30.0408 F120.00
G01 X10.7231 Y29.9892 F120.00
G01 X10.8624 Y29.9032 F120.00
G01 X10.8671 Y29.8987 F120.00
G01 X10.8888 Y29.8813 F120.00
G01 X10.8970 Y29.8759 F120.00
G01 X10.9061 Y29.8722 F120.00
G01 X10.9731 Y29.8525 F120.00
G01 X10.9825 Y29.8507 F120.00
G01 X12.0343 Y29.8505 F120.00
G01 X12.0404 Y29.8510 F120.00
G01 X12.0452 Y29.8520 F120.00
G01 X12.1108 Y29.8700 F120.00
G01 X12.1186 Y29.8731 F120.00
G01 X12.1248 Y29.8767 F120.00
G01 X12.1322 Y29.8829 F120.00
G01 X12.1806 Y29.9349 F120.00
G01 X12.1853 Y29.9407 F120.00
G01 X12.1884 Y29.9461 F120.00
G01 X12.1909 Y29.9517 F120.00
G01 X12.1930 Y29.9589 F120.00
G01 X12.2056 Y30.0289 F120.00
G01 X12.2063 Y30.0348 F120.00
G01 X12.2061 Y30.0431 F120.00
G01 X12.1995 Y30.1048 F120.00
G01 X12.1995 Y31.8952 F120.00
G01 X12.2050 Y31.9459 F120.00
G01 X12.2505 Y32.0681 F120.00
G01 X12.3282 Y32.1718 F120.00
G01 X12.4319 Y32.2495 F120.00
G01 X12.5541 Y32.2950 F120.00
G01 X12.6048 Y32.3005 F120.00
