(G-CODE GENERATED BY FLATCAM v8.994 - www.flatcam.org - Version Date: 2020/11/7)

(Name: kicad-F_Cu.gbr_iso_combined_cnc)
(Type: G-code from Geometry)
(Units: MM)

(Created on Friday, 08 November 2024 at 17:49)

(This preprocessor is used with a motion controller loaded with GRBL firmware.)
(It is configured to be compatible with almost any version of GRBL firmware.)

(TOOL DIAMETER: 0.45 mm)
(Feedrate_XY: 120.0 mm/min)
(Feedrate_Z: 60.0 mm/min)
(Feedrate rapids 1500.0 mm/min)

(Z_Cut: -0.0 mm)
(Z_Move: 2.0 mm)
(Z Start: None mm)
(Z End: 15.0 mm)
(X,Y End: None mm)
(Steps per circle: 64)
(Steps per circle: 64)
(Preprocessor Geometry: GRBL_11_no_M6)

(X range:    0.7755 ...   46.2253  mm)
(Y range:  -54.2253 ...   -0.7755  mm)

(Spindle Speed: 0.0 RPM)
G21
G90
G17
G94


G01 F120.00

M5             
G00 Z15.0000
G00 X0.0000 Y0.0000                
T1
(MSG, Change to Tool Dia = 0.4500)
M0
G00 Z15.0000
        
M03
G01 F120.00
G00 X0.7772 Y-1.0220
G01 F60.00
G01 Z-0.0000
G01 F120.00
G01 X0.7761 Y-1.0329 F120.00
G01 X0.7755 Y-1.0495 F120.00
G01 X0.7755 Y-53.9505 F120.00
G01 X0.7758 Y-53.9615 F120.00
G01 X0.7766 Y-53.9726 F120.00
G01 X0.7788 Y-53.9890 F120.00
G01 X0.7822 Y-54.0052 F120.00
G01 X0.7852 Y-54.0158 F120.00
G01 X0.7887 Y-54.0263 F120.00
G01 X0.8070 Y-54.0713 F120.00
G01 X0.8139 Y-54.0863 F120.00
G01 X0.8191 Y-54.0961 F120.00
G01 X0.8248 Y-54.1055 F120.00
G01 X0.8309 Y-54.1147 F120.00
G01 X0.8375 Y-54.1236 F120.00
G01 X0.8445 Y-54.1321 F120.00
G01 X0.8558 Y-54.1442 F120.00
G01 X0.8638 Y-54.1519 F120.00
G01 X0.8721 Y-54.1591 F120.00
G01 X0.8808 Y-54.1659 F120.00
G01 X0.8945 Y-54.1752 F120.00
G01 X0.9039 Y-54.1809 F120.00
G01 X0.9187 Y-54.1885 F120.00
G01 X0.9685 Y-54.2094 F120.00
G01 X0.9789 Y-54.2131 F120.00
G01 X0.9895 Y-54.2163 F120.00
G01 X1.0002 Y-54.2190 F120.00
G01 X1.0165 Y-54.2221 F120.00
G01 X1.0329 Y-54.2239 F120.00
G01 X1.0495 Y-54.2245 F120.00
G01 X21.4663 Y-54.2245 F120.00
G01 X21.4828 Y-54.2239 F120.00
G01 X21.4993 Y-54.2221 F120.00
G01 X21.5156 Y-54.2190 F120.00
G01 X21.5316 Y-54.2148 F120.00
G01 X21.5421 Y-54.2113 F120.00
G01 X21.5524 Y-54.2074 F120.00
G01 X21.5921 Y-54.1908 F120.00
G01 X21.6070 Y-54.1836 F120.00
G01 X21.6213 Y-54.1752 F120.00
G01 X21.6305 Y-54.1691 F120.00
G01 X21.6394 Y-54.1625 F120.00
G01 X21.6520 Y-54.1519 F120.00
G01 X21.6600 Y-54.1442 F120.00
G01 X21.6713 Y-54.1321 F120.00
G01 X21.6783 Y-54.1236 F120.00
G01 X21.6880 Y-54.1102 F120.00
G01 X21.6967 Y-54.0961 F120.00
G01 X21.7043 Y-54.0813 F120.00
G01 X21.7252 Y-54.0315 F120.00
G01 X21.7289 Y-54.0211 F120.00
G01 X21.7321 Y-54.0105 F120.00
G01 X21.7360 Y-53.9944 F120.00
G01 X21.7378 Y-53.9835 F120.00
G01 X21.7392 Y-53.9726 F120.00
G01 X21.7400 Y-53.9615 F120.00
G01 X21.7402 Y-53.9450 F120.00
G01 X21.7397 Y-53.9339 F120.00
G01 X21.7378 Y-53.9175 F120.00
G01 X21.7360 Y-53.9066 F120.00
G01 X21.7335 Y-53.8958 F120.00
G01 X21.7306 Y-53.8852 F120.00
G01 X21.7271 Y-53.8747 F120.00
G01 X21.7232 Y-53.8644 F120.00
G01 X21.7088 Y-53.8297 F120.00
G01 X21.7019 Y-53.8147 F120.00
G01 X21.6967 Y-53.8049 F120.00
G01 X21.6880 Y-53.7908 F120.00
G01 X21.6783 Y-53.7774 F120.00
G01 X21.6713 Y-53.7689 F120.00
G01 X21.6600 Y-53.7568 F120.00
G01 X17.8176 Y-49.9144 F120.00
G01 X17.7328 Y-49.7873 F120.00
G01 X17.6743 Y-49.6462 F120.00
G01 X17.6445 Y-49.4964 F120.00
G01 X17.6445 Y-45.4142 F120.00
G01 X17.6466 Y-45.3947 F120.00
G01 X17.6757 Y-45.3166 F120.00
G01 X17.7232 Y-45.2532 F120.00
G01 X17.7866 Y-45.2057 F120.00
G01 X17.8647 Y-45.1766 F120.00
G01 X17.8842 Y-45.1745 F120.00
G01 X18.9558 Y-45.1745 F120.00
G01 X18.9753 Y-45.1766 F120.00
G01 X19.0534 Y-45.2057 F120.00
G01 X19.1168 Y-45.2532 F120.00
G01 X19.1643 Y-45.3166 F120.00
G01 X19.1934 Y-45.3947 F120.00
G01 X19.1955 Y-45.4142 F120.00
G01 X19.1955 Y-48.9853 F120.00
G01 X19.1961 Y-49.0018 F120.00
G01 X19.1979 Y-49.0183 F120.00
G01 X19.2010 Y-49.0346 F120.00
G01 X19.2037 Y-49.0453 F120.00
G01 X19.2069 Y-49.0559 F120.00
G01 X19.2126 Y-49.0714 F120.00
G01 X19.2315 Y-49.1161 F120.00
G01 X19.2391 Y-49.1308 F120.00
G01 X19.2448 Y-49.1403 F120.00
G01 X19.2509 Y-49.1495 F120.00
G01 X19.2609 Y-49.1627 F120.00
G01 X19.2681 Y-49.1710 F120.00
G01 X19.2758 Y-49.1790 F120.00
G01 X19.7168 Y-49.6200 F120.00
G01 X19.7289 Y-49.6313 F120.00
G01 X19.7374 Y-49.6383 F120.00
G01 X19.7508 Y-49.6480 F120.00
G01 X19.7649 Y-49.6567 F120.00
G01 X19.7797 Y-49.6643 F120.00
G01 X19.8244 Y-49.6832 F120.00
G01 X19.8347 Y-49.6871 F120.00
G01 X19.8505 Y-49.6921 F120.00
G01 X19.8666 Y-49.6960 F120.00
G01 X19.8775 Y-49.6978 F120.00
G01 X19.8939 Y-49.6997 F120.00
G01 X19.9050 Y-49.7002 F120.00
G01 X19.9160 Y-49.7002 F120.00
G01 X19.9271 Y-49.6997 F120.00
G01 X19.9435 Y-49.6978 F120.00
G01 X19.9598 Y-49.6948 F120.00
G01 X19.9705 Y-49.6921 F120.00
G01 X19.9811 Y-49.6889 F120.00
G01 X19.9915 Y-49.6852 F120.00
G01 X20.0413 Y-49.6643 F120.00
G01 X20.0512 Y-49.6594 F120.00
G01 X20.0608 Y-49.6539 F120.00
G01 X20.0702 Y-49.6480 F120.00
G01 X20.0836 Y-49.6383 F120.00
G01 X20.0921 Y-49.6313 F120.00
G01 X20.1003 Y-49.6239 F120.00
G01 X20.1081 Y-49.6161 F120.00
G01 X20.1155 Y-49.6079 F120.00
G01 X20.1225 Y-49.5994 F120.00
G01 X20.1291 Y-49.5905 F120.00
G01 X20.1352 Y-49.5813 F120.00
G01 X20.1436 Y-49.5670 F120.00
G01 X20.1485 Y-49.5571 F120.00
G01 X20.1530 Y-49.5470 F120.00
G01 X20.1713 Y-49.5021 F120.00
G01 X20.1748 Y-49.4916 F120.00
G01 X20.1778 Y-49.4810 F120.00
G01 X20.1812 Y-49.4648 F120.00
G01 X20.1828 Y-49.4538 F120.00
G01 X20.1839 Y-49.4428 F120.00
G01 X20.1845 Y-49.4263 F120.00
G01 X20.1845 Y-45.4142 F120.00
G01 X20.1866 Y-45.3947 F120.00
G01 X20.2157 Y-45.3166 F120.00
G01 X20.2632 Y-45.2532 F120.00
G01 X20.3266 Y-45.2057 F120.00
G01 X20.4047 Y-45.1766 F120.00
G01 X20.4242 Y-45.1745 F120.00
G01 X21.4958 Y-45.1745 F120.00
G01 X21.5153 Y-45.1766 F120.00
G01 X21.5934 Y-45.2057 F120.00
G01 X21.6568 Y-45.2532 F120.00
G01 X21.7043 Y-45.3166 F120.00
G01 X21.7334 Y-45.3947 F120.00
G01 X21.7355 Y-45.4142 F120.00
G01 X21.7355 Y-49.0253 F120.00
G01 X21.7361 Y-49.0418 F120.00
G01 X21.7379 Y-49.0583 F120.00
G01 X21.7398 Y-49.0692 F120.00
G01 X21.7422 Y-49.0800 F120.00
G01 X21.7469 Y-49.0959 F120.00
G01 X21.7526 Y-49.1114 F120.00
G01 X21.7715 Y-49.1561 F120.00
G01 X21.7791 Y-49.1708 F120.00
G01 X21.7878 Y-49.1849 F120.00
G01 X21.7975 Y-49.1984 F120.00
G01 X21.8045 Y-49.2069 F120.00
G01 X21.8119 Y-49.2151 F120.00
G01 X22.2568 Y-49.6600 F120.00
G01 X22.2648 Y-49.6676 F120.00
G01 X22.2774 Y-49.6783 F120.00
G01 X22.2908 Y-49.6880 F120.00
G01 X22.3002 Y-49.6939 F120.00
G01 X22.3147 Y-49.7019 F120.00
G01 X22.3297 Y-49.7088 F120.00
G01 X22.3695 Y-49.7252 F120.00
G01 X22.3852 Y-49.7306 F120.00
G01 X22.3958 Y-49.7335 F120.00
G01 X22.4066 Y-49.7360 F120.00
G01 X22.4230 Y-49.7386 F120.00
G01 X22.4339 Y-49.7397 F120.00
G01 X22.4505 Y-49.7403 F120.00
G01 X22.4615 Y-49.7400 F120.00
G01 X22.4726 Y-49.7392 F120.00
G01 X22.4890 Y-49.7370 F120.00
G01 X22.4998 Y-49.7348 F120.00
G01 X22.5158 Y-49.7306 F120.00
G01 X22.5263 Y-49.7271 F120.00
G01 X22.5763 Y-49.7066 F120.00
G01 X22.5863 Y-49.7019 F120.00
G01 X22.5961 Y-49.6967 F120.00
G01 X22.6055 Y-49.6910 F120.00
G01 X22.6192 Y-49.6817 F120.00
G01 X22.6279 Y-49.6749 F120.00
G01 X22.6403 Y-49.6639 F120.00
G01 X22.6481 Y-49.6561 F120.00
G01 X22.6555 Y-49.6479 F120.00
G01 X22.6625 Y-49.6394 F120.00
G01 X22.6691 Y-49.6305 F120.00
G01 X22.6752 Y-49.6213 F120.00
G01 X22.6809 Y-49.6118 F120.00
G01 X22.6861 Y-49.6021 F120.00
G01 X22.6908 Y-49.5921 F120.00
G01 X22.7113 Y-49.5421 F120.00
G01 X22.7148 Y-49.5316 F120.00
G01 X22.7178 Y-49.5210 F120.00
G01 X22.7212 Y-49.5048 F120.00
G01 X22.7228 Y-49.4938 F120.00
G01 X22.7242 Y-49.4773 F120.00
G01 X22.7245 Y-49.4663 F120.00
G01 X22.7245 Y-45.4142 F120.00
G01 X22.7266 Y-45.3947 F120.00
G01 X22.7557 Y-45.3166 F120.00
G01 X22.8032 Y-45.2532 F120.00
G01 X22.8666 Y-45.2057 F120.00
G01 X22.9447 Y-45.1766 F120.00
G01 X22.9642 Y-45.1745 F120.00
G01 X24.0358 Y-45.1745 F120.00
G01 X24.0553 Y-45.1766 F120.00
G01 X24.1334 Y-45.2057 F120.00
G01 X24.1968 Y-45.2532 F120.00
G01 X24.2443 Y-45.3166 F120.00
G01 X24.2734 Y-45.3947 F120.00
G01 X24.2755 Y-45.4142 F120.00
G01 X24.2755 Y-49.0653 F120.00
G01 X24.2761 Y-49.0818 F120.00
G01 X24.2779 Y-49.0983 F120.00
G01 X24.2810 Y-49.1146 F120.00
G01 X24.2837 Y-49.1253 F120.00
G01 X24.2869 Y-49.1359 F120.00
G01 X24.2926 Y-49.1514 F120.00
G01 X24.3115 Y-49.1961 F120.00
G01 X24.3164 Y-49.2060 F120.00
G01 X24.3219 Y-49.2156 F120.00
G01 X24.3309 Y-49.2295 F120.00
G01 X24.3409 Y-49.2427 F120.00
G01 X24.3519 Y-49.2551 F120.00
G01 X24.7410 Y-49.6442 F120.00
G01 X24.7531 Y-49.6555 F120.00
G01 X24.7660 Y-49.6659 F120.00
G01 X24.7751 Y-49.6722 F120.00
G01 X24.7844 Y-49.6781 F120.00
G01 X24.7989 Y-49.6861 F120.00
G01 X24.8140 Y-49.6930 F120.00
G01 X24.8537 Y-49.7094 F120.00
G01 X24.8641 Y-49.7131 F120.00
G01 X24.8747 Y-49.7163 F120.00
G01 X24.8908 Y-49.7202 F120.00
G01 X24.9072 Y-49.7228 F120.00
G01 X24.9182 Y-49.7239 F120.00
G01 X24.9347 Y-49.7245 F120.00
G01 X38.9505 Y-49.7245 F120.00
G01 X38.9671 Y-49.7239 F120.00
G01 X38.9780 Y-49.7228 F120.00
G01 X38.9890 Y-49.7212 F120.00
G01 X39.0052 Y-49.7178 F120.00
G01 X39.0158 Y-49.7148 F120.00
G01 X39.0263 Y-49.7113 F120.00
G01 X39.0713 Y-49.6930 F120.00
G01 X39.0863 Y-49.6861 F120.00
G01 X39.0961 Y-49.6809 F120.00
G01 X39.1055 Y-49.6752 F120.00
G01 X39.1147 Y-49.6691 F120.00
G01 X39.1236 Y-49.6625 F120.00
G01 X39.1362 Y-49.6519 F120.00
G01 X39.1442 Y-49.6442 F120.00
G01 X39.1519 Y-49.6362 F120.00
G01 X39.1591 Y-49.6279 F120.00
G01 X39.1659 Y-49.6192 F120.00
G01 X39.1722 Y-49.6102 F120.00
G01 X39.1809 Y-49.5961 F120.00
G01 X39.1861 Y-49.5863 F120.00
G01 X39.1930 Y-49.5713 F120.00
G01 X39.2074 Y-49.5366 F120.00
G01 X39.2113 Y-49.5263 F120.00
G01 X39.2148 Y-49.5158 F120.00
G01 X39.2190 Y-49.4998 F120.00
G01 X39.2221 Y-49.4835 F120.00
G01 X39.2234 Y-49.4726 F120.00
G01 X39.2244 Y-49.4560 F120.00
G01 X39.2245 Y-40.4236 F120.00
G01 X39.2543 Y-40.2738 F120.00
G01 X39.3128 Y-40.1327 F120.00
G01 X39.3976 Y-40.0056 F120.00
G01 X41.5139 Y-37.8894 F120.00
G01 X41.5255 Y-37.8769 F120.00
G01 X41.5360 Y-37.8637 F120.00
G01 X41.5455 Y-37.8496 F120.00
G01 X41.5513 Y-37.8399 F120.00
G01 X41.5695 Y-37.8067 F120.00
G01 X41.5764 Y-37.7914 F120.00
G01 X41.5803 Y-37.7810 F120.00
G01 X41.5837 Y-37.7704 F120.00
G01 X41.5878 Y-37.7542 F120.00
G01 X41.5899 Y-37.7432 F120.00
G01 X41.5920 Y-37.7266 F120.00
G01 X41.5928 Y-37.7099 F120.00
G01 X41.5927 Y-37.6988 F120.00
G01 X41.5920 Y-37.6877 F120.00
G01 X41.5908 Y-37.6766 F120.00
G01 X41.5820 Y-37.6232 F120.00
G01 X41.5794 Y-37.6124 F120.00
G01 X41.5763 Y-37.6018 F120.00
G01 X41.5708 Y-37.5862 F120.00
G01 X41.5664 Y-37.5761 F120.00
G01 X41.5616 Y-37.5662 F120.00
G01 X41.5534 Y-37.5518 F120.00
G01 X41.5442 Y-37.5380 F120.00
G01 X41.5375 Y-37.5292 F120.00
G01 X41.5304 Y-37.5208 F120.00
G01 X41.5189 Y-37.5088 F120.00
G01 X41.5067 Y-37.4976 F120.00
G01 X41.4936 Y-37.4875 F120.00
G01 X41.4541 Y-37.4593 F120.00
G01 X41.4399 Y-37.4508 F120.00
G01 X41.4251 Y-37.4433 F120.00
G01 X41.4149 Y-37.4390 F120.00
G01 X41.4046 Y-37.4351 F120.00
G01 X41.3940 Y-37.4318 F120.00
G01 X41.3834 Y-37.4290 F120.00
G01 X41.3726 Y-37.4267 F120.00
G01 X41.3617 Y-37.4250 F120.00
G01 X41.3507 Y-37.4237 F120.00
G01 X41.3397 Y-37.4231 F120.00
G01 X41.3286 Y-37.4229 F120.00
G01 X41.3176 Y-37.4234 F120.00
G01 X41.3011 Y-37.4250 F120.00
G01 X41.2532 Y-37.4327 F120.00
G01 X41.2370 Y-37.4364 F120.00
G01 X41.2264 Y-37.4394 F120.00
G01 X41.2108 Y-37.4450 F120.00
G01 X41.2007 Y-37.4494 F120.00
G01 X41.1907 Y-37.4542 F120.00
G01 X41.1811 Y-37.4596 F120.00
G01 X41.1486 Y-37.4795 F120.00
G01 X41.0304 Y-37.5187 F120.00
G01 X40.9635 Y-37.5255 F120.00
G01 X40.5495 Y-37.5255 F120.00
G01 X40.5385 Y-37.5258 F120.00
G01 X40.5274 Y-37.5266 F120.00
G01 X40.5110 Y-37.5288 F120.00
G01 X40.4948 Y-37.5322 F120.00
G01 X40.4789 Y-37.5369 F120.00
G01 X40.4634 Y-37.5426 F120.00
G01 X40.4237 Y-37.5592 F120.00
G01 X40.4088 Y-37.5664 F120.00
G01 X40.3992 Y-37.5719 F120.00
G01 X40.3898 Y-37.5778 F120.00
G01 X40.3808 Y-37.5841 F120.00
G01 X40.3721 Y-37.5909 F120.00
G01 X40.3638 Y-37.5981 F120.00
G01 X40.3558 Y-37.6058 F120.00
G01 X40.3481 Y-37.6138 F120.00
G01 X40.3409 Y-37.6221 F120.00
G01 X40.3309 Y-37.6353 F120.00
G01 X40.3248 Y-37.6445 F120.00
G01 X40.3191 Y-37.6539 F120.00
G01 X40.3139 Y-37.6637 F120.00
G01 X40.3092 Y-37.6737 F120.00
G01 X40.2906 Y-37.7185 F120.00
G01 X40.2852 Y-37.7342 F120.00
G01 X40.2822 Y-37.7448 F120.00
G01 X40.2798 Y-37.7556 F120.00
G01 X40.2779 Y-37.7665 F120.00
G01 X40.2766 Y-37.7774 F120.00
G01 X40.2756 Y-37.7940 F120.00
G01 X40.2755 Y-38.0764 F120.00
G01 X40.2457 Y-38.2262 F120.00
G01 X40.1872 Y-38.3673 F120.00
G01 X40.1024 Y-38.4944 F120.00
G01 X38.3919 Y-40.2049 F120.00
G01 X38.3845 Y-40.2131 F120.00
G01 X38.3741 Y-40.2260 F120.00
G01 X38.3678 Y-40.2351 F120.00
G01 X38.3591 Y-40.2492 F120.00
G01 X38.3539 Y-40.2589 F120.00
G01 X38.3492 Y-40.2689 F120.00
G01 X38.3326 Y-40.3086 F120.00
G01 X38.3287 Y-40.3189 F120.00
G01 X38.3252 Y-40.3294 F120.00
G01 X38.3222 Y-40.3400 F120.00
G01 X38.3198 Y-40.3508 F120.00
G01 X38.3179 Y-40.3617 F120.00
G01 X38.3166 Y-40.3727 F120.00
G01 X38.3158 Y-40.3837 F120.00
G01 X38.3155 Y-40.3947 F120.00
G01 X38.3155 Y-48.6358 F120.00
G01 X38.3134 Y-48.6553 F120.00
G01 X38.2843 Y-48.7334 F120.00
G01 X38.2368 Y-48.7968 F120.00
G01 X38.1734 Y-48.8443 F120.00
G01 X38.0953 Y-48.8734 F120.00
G01 X38.0758 Y-48.8755 F120.00
G01 X37.0042 Y-48.8755 F120.00
G01 X36.9843 Y-48.8732 F120.00
G01 X36.9061 Y-48.8439 F120.00
G01 X36.8432 Y-48.7968 F120.00
G01 X36.7957 Y-48.7334 F120.00
G01 X36.7666 Y-48.6553 F120.00
G01 X36.7645 Y-48.6358 F120.00
G01 X36.7645 Y-39.8836 F120.00
G01 X36.7943 Y-39.7338 F120.00
G01 X36.8528 Y-39.5927 F120.00
G01 X36.9376 Y-39.4656 F120.00
G01 X38.4100 Y-37.9932 F120.00
G01 X38.4176 Y-37.9852 F120.00
G01 X38.4283 Y-37.9726 F120.00
G01 X38.4349 Y-37.9637 F120.00
G01 X38.4410 Y-37.9545 F120.00
G01 X38.4494 Y-37.9402 F120.00
G01 X38.4543 Y-37.9303 F120.00
G01 X38.4588 Y-37.9203 F120.00
G01 X38.4771 Y-37.8753 F120.00
G01 X38.4821 Y-37.8595 F120.00
G01 X38.4848 Y-37.8488 F120.00
G01 X38.4870 Y-37.8380 F120.00
G01 X38.4886 Y-37.8270 F120.00
G01 X38.4897 Y-37.8161 F120.00
G01 X38.4902 Y-37.8050 F120.00
G01 X38.4902 Y-37.7940 F120.00
G01 X38.4897 Y-37.7829 F120.00
G01 X38.4878 Y-37.7665 F120.00
G01 X38.4848 Y-37.7502 F120.00
G01 X38.4806 Y-37.7342 F120.00
G01 X38.4771 Y-37.7237 F120.00
G01 X38.4566 Y-37.6737 F120.00
G01 X38.4494 Y-37.6588 F120.00
G01 X38.4410 Y-37.6445 F120.00
G01 X38.4317 Y-37.6308 F120.00
G01 X38.4249 Y-37.6221 F120.00
G01 X38.4139 Y-37.6097 F120.00
G01 X38.4020 Y-37.5981 F120.00
G01 X38.3894 Y-37.5875 F120.00
G01 X38.3805 Y-37.5809 F120.00
G01 X38.3666 Y-37.5719 F120.00
G01 X38.3521 Y-37.5639 F120.00
G01 X38.3370 Y-37.5570 F120.00
G01 X38.3024 Y-37.5426 F120.00
G01 X38.2869 Y-37.5369 F120.00
G01 X38.2763 Y-37.5337 F120.00
G01 X38.2656 Y-37.5310 F120.00
G01 X38.2548 Y-37.5288 F120.00
G01 X38.2438 Y-37.5272 F120.00
G01 X38.2328 Y-37.5261 F120.00
G01 X38.2163 Y-37.5255 F120.00
G01 X38.0365 Y-37.5255 F120.00
G01 X37.9696 Y-37.5187 F120.00
G01 X37.8514 Y-37.4795 F120.00
G01 X37.7468 Y-37.4150 F120.00
G01 X37.6854 Y-37.3539 F120.00
G01 X37.6770 Y-37.3467 F120.00
G01 X37.6683 Y-37.3399 F120.00
G01 X37.6593 Y-37.3336 F120.00
G01 X37.6500 Y-37.3277 F120.00
G01 X37.6355 Y-37.3197 F120.00
G01 X37.6255 Y-37.3150 F120.00
G01 X37.5754 Y-37.2945 F120.00
G01 X37.5650 Y-37.2910 F120.00
G01 X37.5489 Y-37.2868 F120.00
G01 X37.5327 Y-37.2837 F120.00
G01 X37.5217 Y-37.2824 F120.00
G01 X37.5052 Y-37.2814 F120.00
G01 X37.4941 Y-37.2814 F120.00
G01 X37.4831 Y-37.2819 F120.00
G01 X37.4666 Y-37.2837 F120.00
G01 X37.4503 Y-37.2868 F120.00
G01 X37.4343 Y-37.2910 F120.00
G01 X37.4187 Y-37.2964 F120.00
G01 X37.3688 Y-37.3173 F120.00
G01 X37.3589 Y-37.3222 F120.00
G01 X37.3446 Y-37.3306 F120.00
G01 X37.3310 Y-37.3399 F120.00
G01 X37.3223 Y-37.3467 F120.00
G01 X37.3139 Y-37.3539 F120.00
G01 X37.3059 Y-37.3616 F120.00
G01 X37.2528 Y-37.4146 F120.00
G01 X37.1484 Y-37.4791 F120.00
G01 X37.0303 Y-37.5182 F120.00
G01 X36.9635 Y-37.5250 F120.00
G01 X35.9750 Y-37.5250 F120.00
G01 X35.9750 Y-37.4750 F120.00
G01 X36.9305 Y-37.4749 F120.00
G01 X36.9716 Y-37.4727 F120.00
G01 X37.0068 Y-37.4678 F120.00
G01 X37.0177 Y-37.4659 F120.00
G01 X37.0284 Y-37.4635 F120.00
G01 X37.0629 Y-37.4545 F120.00
G01 X37.0965 Y-37.4428 F120.00
G01 X37.1068 Y-37.4388 F120.00
G01 X37.1169 Y-37.4344 F120.00
G01 X37.1440 Y-37.4215 F120.00
G01 X37.1538 Y-37.4162 F120.00
G01 X37.1889 Y-37.3949 F120.00
G01 X37.1979 Y-37.3886 F120.00
G01 X37.2263 Y-37.3672 F120.00
G01 X37.2569 Y-37.3397 F120.00
G01 X37.2685 Y-37.3279 F120.00
G01 X37.2922 Y-37.3013 F120.00
G01 X37.3136 Y-37.2729 F120.00
G01 X37.3199 Y-37.2639 F120.00
G01 X37.3385 Y-37.2335 F120.00
G01 X37.3439 Y-37.2239 F120.00
G01 X37.3594 Y-37.1919 F120.00
G01 X37.3659 Y-37.1766 F120.00
G01 X37.3795 Y-37.1379 F120.00
G01 X37.3885 Y-37.1034 F120.00
G01 X37.3909 Y-37.0927 F120.00
G01 X37.3964 Y-37.0575 F120.00
G01 X37.3982 Y-37.0411 F120.00
G01 X37.4000 Y-37.0000 F120.00
G01 X37.4000 Y-36.1000 F120.00
G01 X37.3985 Y-36.0645 F120.00
G01 X37.3971 Y-36.0480 F120.00
G01 X37.3909 Y-36.0073 F120.00
G01 X37.3885 Y-35.9966 F120.00
G01 X37.3795 Y-35.9621 F120.00
G01 X37.3678 Y-35.9285 F120.00
G01 X37.3638 Y-35.9182 F120.00
G01 X37.3489 Y-35.8860 F120.00
G01 X37.3439 Y-35.8761 F120.00
G01 X37.3385 Y-35.8665 F120.00
G01 X37.3230 Y-35.8407 F120.00
G01 X37.3168 Y-35.8316 F120.00
G01 X37.2922 Y-35.7987 F120.00
G01 X37.2685 Y-35.7721 F120.00
G01 X37.2609 Y-35.7641 F120.00
G01 X37.2529 Y-35.7565 F120.00
G01 X37.2263 Y-35.7328 F120.00
G01 X37.1934 Y-35.7082 F120.00
G01 X37.1843 Y-35.7020 F120.00
G01 X37.1585 Y-35.6865 F120.00
G01 X37.1489 Y-35.6811 F120.00
G01 X37.1390 Y-35.6761 F120.00
G01 X37.1068 Y-35.6612 F120.00
G01 X37.0965 Y-35.6572 F120.00
G01 X37.0629 Y-35.6455 F120.00
G01 X37.0284 Y-35.6365 F120.00
G01 X37.0177 Y-35.6341 F120.00
G01 X36.9825 Y-35.6286 F120.00
G01 X36.9661 Y-35.6268 F120.00
G01 X36.9250 Y-35.6250 F120.00
G01 X35.9750 Y-35.6250 F120.00
G01 X35.9750 Y-35.5750 F120.00
G01 X36.9635 Y-35.5750 F120.00
G01 X37.0303 Y-35.5818 F120.00
G01 X37.1484 Y-35.6209 F120.00
G01 X37.2528 Y-35.6854 F120.00
G01 X37.3059 Y-35.7384 F120.00
G01 X37.3180 Y-35.7497 F120.00
G01 X37.3266 Y-35.7567 F120.00
G01 X37.3400 Y-35.7664 F120.00
G01 X37.3493 Y-35.7723 F120.00
G01 X37.3638 Y-35.7803 F120.00
G01 X37.3789 Y-35.7872 F120.00
G01 X37.4135 Y-35.8016 F120.00
G01 X37.4238 Y-35.8055 F120.00
G01 X37.4343 Y-35.8090 F120.00
G01 X37.4503 Y-35.8132 F120.00
G01 X37.4666 Y-35.8163 F120.00
G01 X37.4776 Y-35.8176 F120.00
G01 X37.4941 Y-35.8186 F120.00
G01 X37.5107 Y-35.8184 F120.00
G01 X37.5272 Y-35.8170 F120.00
G01 X37.5435 Y-35.8144 F120.00
G01 X37.5597 Y-35.8105 F120.00
G01 X37.5754 Y-35.8055 F120.00
G01 X37.5858 Y-35.8016 F120.00
G01 X37.6255 Y-35.7850 F120.00
G01 X37.6355 Y-35.7803 F120.00
G01 X37.6452 Y-35.7751 F120.00
G01 X37.6547 Y-35.7694 F120.00
G01 X37.6639 Y-35.7633 F120.00
G01 X37.6770 Y-35.7533 F120.00
G01 X37.6854 Y-35.7461 F120.00
G01 X37.7468 Y-35.6850 F120.00
G01 X37.8514 Y-35.6205 F120.00
G01 X37.9696 Y-35.5813 F120.00
G01 X38.0365 Y-35.5745 F120.00
G01 X40.9635 Y-35.5745 F120.00
G01 X41.0304 Y-35.5813 F120.00
G01 X41.1486 Y-35.6205 F120.00
G01 X41.2532 Y-35.6850 F120.00
G01 X41.2648 Y-35.6962 F120.00
G01 X41.2774 Y-35.7069 F120.00
G01 X41.2908 Y-35.7166 F120.00
G01 X41.3049 Y-35.7253 F120.00
G01 X41.3147 Y-35.7305 F120.00
G01 X41.3247 Y-35.7352 F120.00
G01 X41.3695 Y-35.7538 F120.00
G01 X41.3852 Y-35.7591 F120.00
G01 X41.4012 Y-35.7634 F120.00
G01 X41.4175 Y-35.7664 F120.00
G01 X41.4284 Y-35.7678 F120.00
G01 X41.4395 Y-35.7686 F120.00
G01 X41.4505 Y-35.7688 F120.00
G01 X41.4615 Y-35.7686 F120.00
G01 X41.4726 Y-35.7678 F120.00
G01 X41.4890 Y-35.7655 F120.00
G01 X41.4998 Y-35.7634 F120.00
G01 X41.5158 Y-35.7591 F120.00
G01 X41.5263 Y-35.7557 F120.00
G01 X41.5763 Y-35.7352 F120.00
G01 X41.5863 Y-35.7305 F120.00
G01 X41.5961 Y-35.7253 F120.00
G01 X41.6055 Y-35.7196 F120.00
G01 X41.6147 Y-35.7134 F120.00
G01 X41.6236 Y-35.7069 F120.00
G01 X41.6362 Y-35.6962 F120.00
G01 X41.6442 Y-35.6886 F120.00
G01 X41.6555 Y-35.6764 F120.00
G01 X41.6625 Y-35.6679 F120.00
G01 X41.6722 Y-35.6545 F120.00
G01 X41.6781 Y-35.6452 F120.00
G01 X41.6861 Y-35.6306 F120.00
G01 X41.6930 Y-35.6156 F120.00
G01 X41.7074 Y-35.5809 F120.00
G01 X41.7113 Y-35.5706 F120.00
G01 X41.7148 Y-35.5602 F120.00
G01 X41.7190 Y-35.5441 F120.00
G01 X41.7212 Y-35.5333 F120.00
G01 X41.7234 Y-35.5169 F120.00
G01 X41.7244 Y-35.5004 F120.00
G01 X41.7245 Y-31.5052 F120.00
G01 X41.7242 Y-31.4941 F120.00
G01 X41.7228 Y-31.4776 F120.00
G01 X41.7202 Y-31.4613 F120.00
G01 X41.7163 Y-31.4452 F120.00
G01 X41.7131 Y-31.4346 F120.00
G01 X41.7094 Y-31.4242 F120.00
G01 X41.6930 Y-31.3844 F120.00
G01 X41.6861 Y-31.3694 F120.00
G01 X41.6781 Y-31.3548 F120.00
G01 X41.6722 Y-31.3455 F120.00
G01 X41.6659 Y-31.3365 F120.00
G01 X41.6555 Y-31.3236 F120.00
G01 X41.6481 Y-31.3154 F120.00
G01 X41.6403 Y-31.3076 F120.00
G01 X41.6279 Y-31.2966 F120.00
G01 X41.6192 Y-31.2898 F120.00
G01 X41.6102 Y-31.2834 F120.00
G01 X41.6008 Y-31.2775 F120.00
G01 X41.5912 Y-31.2721 F120.00
G01 X41.5763 Y-31.2648 F120.00
G01 X41.5315 Y-31.2462 F120.00
G01 X41.5211 Y-31.2425 F120.00
G01 X41.5105 Y-31.2393 F120.00
G01 X41.4944 Y-31.2355 F120.00
G01 X41.4835 Y-31.2336 F120.00
G01 X41.4726 Y-31.2322 F120.00
G01 X41.4560 Y-31.2312 F120.00
G01 X41.4395 Y-31.2314 F120.00
G01 X41.4284 Y-31.2322 F120.00
G01 X41.4120 Y-31.2345 F120.00
G01 X41.3958 Y-31.2379 F120.00
G01 X41.3852 Y-31.2409 F120.00
G01 X41.3695 Y-31.2462 F120.00
G01 X41.3197 Y-31.2671 F120.00
G01 X41.3049 Y-31.2747 F120.00
G01 X41.2955 Y-31.2804 F120.00
G01 X41.2863 Y-31.2866 F120.00
G01 X41.2774 Y-31.2931 F120.00
G01 X41.2689 Y-31.3001 F120.00
G01 X41.2532 Y-31.3150 F120.00
G01 X41.1486 Y-31.3795 F120.00
G01 X41.0304 Y-31.4187 F120.00
G01 X40.9635 Y-31.4255 F120.00
G01 X38.0365 Y-31.4255 F120.00
G01 X37.9696 Y-31.4187 F120.00
G01 X37.8514 Y-31.3795 F120.00
G01 X37.7468 Y-31.3150 F120.00
G01 X37.6857 Y-31.2543 F120.00
G01 X37.6731 Y-31.2436 F120.00
G01 X37.6642 Y-31.2371 F120.00
G01 X37.6550 Y-31.2309 F120.00
G01 X37.6456 Y-31.2252 F120.00
G01 X37.6308 Y-31.2176 F120.00
G01 X37.6208 Y-31.2131 F120.00
G01 X37.5810 Y-31.1967 F120.00
G01 X37.5653 Y-31.1914 F120.00
G01 X37.5493 Y-31.1871 F120.00
G01 X37.5385 Y-31.1850 F120.00
G01 X37.5221 Y-31.1827 F120.00
G01 X37.5055 Y-31.1817 F120.00
G01 X37.4890 Y-31.1819 F120.00
G01 X37.4725 Y-31.1834 F120.00
G01 X37.4561 Y-31.1860 F120.00
G01 X37.4400 Y-31.1898 F120.00
G01 X37.4242 Y-31.1948 F120.00
G01 X37.4139 Y-31.1988 F120.00
G01 X37.3742 Y-31.2153 F120.00
G01 X37.3642 Y-31.2200 F120.00
G01 X37.3544 Y-31.2252 F120.00
G01 X37.3450 Y-31.2309 F120.00
G01 X37.3358 Y-31.2371 F120.00
G01 X37.3269 Y-31.2436 F120.00
G01 X37.3143 Y-31.2543 F120.00
G01 X37.2532 Y-31.3150 F120.00
G01 X37.1486 Y-31.3795 F120.00
G01 X37.0304 Y-31.4187 F120.00
G01 X36.9635 Y-31.4255 F120.00
G01 X34.0365 Y-31.4255 F120.00
G01 X33.9696 Y-31.4187 F120.00
G01 X33.8514 Y-31.3795 F120.00
G01 X33.7468 Y-31.3150 F120.00
G01 X33.6600 Y-31.2282 F120.00
G01 X33.5955 Y-31.1236 F120.00
G01 X33.5563 Y-31.0054 F120.00
G01 X33.5495 Y-30.9385 F120.00
G01 X33.5495 Y-29.9614 F120.00
G01 X33.5563 Y-29.8946 F120.00
G01 X33.5955 Y-29.7764 F120.00
G01 X33.6600 Y-29.6718 F120.00
G01 X33.7468 Y-29.5850 F120.00
G01 X33.8514 Y-29.5205 F120.00
G01 X33.9696 Y-29.4813 F120.00
G01 X34.0365 Y-29.4745 F120.00
G01 X34.9560 Y-29.4744 F120.00
G01 X34.9671 Y-29.4739 F120.00
G01 X34.9835 Y-29.4721 F120.00
G01 X34.9944 Y-29.4702 F120.00
G01 X35.0105 Y-29.4663 F120.00
G01 X35.0211 Y-29.4631 F120.00
G01 X35.0366 Y-29.4574 F120.00
G01 X35.0763 Y-29.4408 F120.00
G01 X35.0863 Y-29.4361 F120.00
G01 X35.0961 Y-29.4309 F120.00
G01 X35.1102 Y-29.4222 F120.00
G01 X35.1236 Y-29.4125 F120.00
G01 X35.1362 Y-29.4019 F120.00
G01 X35.1481 Y-29.3903 F120.00
G01 X35.1591 Y-29.3779 F120.00
G01 X35.1691 Y-29.3647 F120.00
G01 X35.1781 Y-29.3508 F120.00
G01 X35.1861 Y-29.3363 F120.00
G01 X35.1930 Y-29.3213 F120.00
G01 X35.2113 Y-29.2763 F120.00
G01 X35.2163 Y-29.2605 F120.00
G01 X35.2202 Y-29.2444 F120.00
G01 X35.2221 Y-29.2335 F120.00
G01 X35.2234 Y-29.2226 F120.00
G01 X35.2242 Y-29.2115 F120.00
G01 X35.2245 Y-29.2005 F120.00
G01 X35.2245 Y-26.5436 F120.00
G01 X35.2235 Y-26.5208 F120.00
G01 X35.2224 Y-26.5097 F120.00
G01 X35.2207 Y-26.4986 F120.00
G01 X35.2184 Y-26.4877 F120.00
G01 X35.2157 Y-26.4769 F120.00
G01 X35.2123 Y-26.4663 F120.00
G01 X35.2085 Y-26.4558 F120.00
G01 X35.2018 Y-26.4405 F120.00
G01 X35.1967 Y-26.4306 F120.00
G01 X35.1760 Y-26.3928 F120.00
G01 X35.1672 Y-26.3788 F120.00
G01 X35.1574 Y-26.3655 F120.00
G01 X35.1466 Y-26.3529 F120.00
G01 X35.1349 Y-26.3411 F120.00
G01 X35.1224 Y-26.3303 F120.00
G01 X35.1092 Y-26.3204 F120.00
G01 X35.0952 Y-26.3115 F120.00
G01 X35.0806 Y-26.3036 F120.00
G01 X35.0655 Y-26.2968 F120.00
G01 X35.0499 Y-26.2912 F120.00
G01 X35.0087 Y-26.2790 F120.00
G01 X34.9926 Y-26.2749 F120.00
G01 X34.9817 Y-26.2729 F120.00
G01 X34.9708 Y-26.2714 F120.00
G01 X34.9598 Y-26.2704 F120.00
G01 X34.9433 Y-26.2699 F120.00
G01 X34.9267 Y-26.2707 F120.00
G01 X34.8858 Y-26.2750 F120.00
G01 X34.0750 Y-26.2750 F120.00
G01 X34.0750 Y-26.2250 F120.00
G01 X34.8500 Y-26.2250 F120.00
G01 X34.8666 Y-26.2244 F120.00
G01 X34.8830 Y-26.2226 F120.00
G01 X34.8939 Y-26.2207 F120.00
G01 X34.9047 Y-26.2183 F120.00
G01 X34.9153 Y-26.2153 F120.00
G01 X34.9258 Y-26.2118 F120.00
G01 X34.9361 Y-26.2079 F120.00
G01 X34.9462 Y-26.2034 F120.00
G01 X34.9561 Y-26.1984 F120.00
G01 X34.9657 Y-26.1930 F120.00
G01 X34.9750 Y-26.1871 F120.00
G01 X34.9840 Y-26.1807 F120.00
G01 X34.9927 Y-26.1739 F120.00
G01 X35.0011 Y-26.1667 F120.00
G01 X35.0091 Y-26.1591 F120.00
G01 X35.0167 Y-26.1511 F120.00
G01 X35.0239 Y-26.1427 F120.00
G01 X35.0307 Y-26.1340 F120.00
G01 X35.0401 Y-26.1204 F120.00
G01 X35.0458 Y-26.1109 F120.00
G01 X35.0510 Y-26.1012 F120.00
G01 X35.0579 Y-26.0861 F120.00
G01 X35.0636 Y-26.0706 F120.00
G01 X35.0683 Y-26.0547 F120.00
G01 X35.0717 Y-26.0385 F120.00
G01 X35.0739 Y-26.0221 F120.00
G01 X35.0749 Y-26.0055 F120.00
G01 X35.0750 Y-25.0000 F120.00
G01 X35.0747 Y-24.9890 F120.00
G01 X35.0733 Y-24.9725 F120.00
G01 X35.0707 Y-24.9561 F120.00
G01 X35.0668 Y-24.9400 F120.00
G01 X35.0618 Y-24.9242 F120.00
G01 X35.0557 Y-24.9088 F120.00
G01 X35.0484 Y-24.8939 F120.00
G01 X35.0430 Y-24.8843 F120.00
G01 X35.0371 Y-24.8750 F120.00
G01 X35.0274 Y-24.8616 F120.00
G01 X35.0167 Y-24.8489 F120.00
G01 X35.0051 Y-24.8370 F120.00
G01 X34.9970 Y-24.8296 F120.00
G01 X34.9884 Y-24.8226 F120.00
G01 X34.9796 Y-24.8160 F120.00
G01 X34.9704 Y-24.8099 F120.00
G01 X34.9561 Y-24.8016 F120.00
G01 X34.9412 Y-24.7943 F120.00
G01 X34.9258 Y-24.7882 F120.00
G01 X34.9100 Y-24.7832 F120.00
G01 X34.8939 Y-24.7793 F120.00
G01 X34.8775 Y-24.7767 F120.00
G01 X34.8610 Y-24.7753 F120.00
G01 X34.8500 Y-24.7750 F120.00
G01 X32.3445 Y-24.7751 F120.00
G01 X32.3334 Y-24.7756 F120.00
G01 X32.3225 Y-24.7767 F120.00
G01 X32.3115 Y-24.7783 F120.00
G01 X32.3007 Y-24.7805 F120.00
G01 X32.2847 Y-24.7847 F120.00
G01 X32.2742 Y-24.7882 F120.00
G01 X32.2639 Y-24.7921 F120.00
G01 X32.2488 Y-24.7990 F120.00
G01 X32.2391 Y-24.8042 F120.00
G01 X32.2296 Y-24.8099 F120.00
G01 X32.2204 Y-24.8160 F120.00
G01 X32.2116 Y-24.8226 F120.00
G01 X32.1989 Y-24.8333 F120.00
G01 X32.1870 Y-24.8449 F120.00
G01 X32.1796 Y-24.8530 F120.00
G01 X32.1726 Y-24.8616 F120.00
G01 X32.1660 Y-24.8704 F120.00
G01 X32.1599 Y-24.8796 F120.00
G01 X32.1516 Y-24.8939 F120.00
G01 X32.1443 Y-24.9088 F120.00
G01 X32.1401 Y-24.9190 F120.00
G01 X32.1364 Y-24.9294 F120.00
G01 X32.1317 Y-24.9453 F120.00
G01 X32.1293 Y-24.9561 F120.00
G01 X32.1274 Y-24.9670 F120.00
G01 X32.1261 Y-24.9779 F120.00
G01 X32.1253 Y-24.9890 F120.00
G01 X32.1250 Y-25.0250 F120.00
G01 X32.0750 Y-25.0250 F120.00
G01 X32.0750 Y-24.9642 F120.00
G01 X32.0771 Y-24.9448 F120.00
G01 X32.1062 Y-24.8668 F120.00
G01 X32.1535 Y-24.8035 F120.00
G01 X32.2170 Y-24.7561 F120.00
G01 X32.2357 Y-24.7481 F120.00
G01 X32.2507 Y-24.7402 F120.00
G01 X32.2652 Y-24.7313 F120.00
G01 X32.2789 Y-24.7212 F120.00
G01 X32.2876 Y-24.7140 F120.00
G01 X32.3000 Y-24.7023 F120.00
G01 X32.3294 Y-24.6707 F120.00
G01 X32.3403 Y-24.6582 F120.00
G01 X32.3502 Y-24.6449 F120.00
G01 X32.3562 Y-24.6356 F120.00
G01 X32.3618 Y-24.6261 F120.00
G01 X32.3692 Y-24.6113 F120.00
G01 X32.3736 Y-24.6012 F120.00
G01 X32.3774 Y-24.5908 F120.00
G01 X32.3823 Y-24.5750 F120.00
G01 X32.3848 Y-24.5642 F120.00
G01 X32.3869 Y-24.5534 F120.00
G01 X32.3884 Y-24.5424 F120.00
G01 X32.3893 Y-24.5314 F120.00
G01 X32.3898 Y-24.5149 F120.00
G01 X32.3876 Y-24.4609 F120.00
G01 X32.3856 Y-24.4444 F120.00
G01 X32.3824 Y-24.4282 F120.00
G01 X32.3796 Y-24.4175 F120.00
G01 X32.3763 Y-24.4069 F120.00
G01 X32.3703 Y-24.3915 F120.00
G01 X32.3633 Y-24.3765 F120.00
G01 X32.3579 Y-24.3668 F120.00
G01 X32.3522 Y-24.3574 F120.00
G01 X32.3459 Y-24.3483 F120.00
G01 X32.3392 Y-24.3395 F120.00
G01 X32.3321 Y-24.3311 F120.00
G01 X32.3246 Y-24.3230 F120.00
G01 X32.2893 Y-24.2897 F120.00
G01 X32.2768 Y-24.2788 F120.00
G01 X32.2635 Y-24.2690 F120.00
G01 X32.2495 Y-24.2601 F120.00
G01 X32.2349 Y-24.2523 F120.00
G01 X32.2167 Y-24.2443 F120.00
G01 X32.1532 Y-24.1968 F120.00
G01 X32.1057 Y-24.1334 F120.00
G01 X32.0766 Y-24.0553 F120.00
G01 X32.0745 Y-24.0358 F120.00
G01 X32.0745 Y-22.9642 F120.00
G01 X32.0766 Y-22.9447 F120.00
G01 X32.1057 Y-22.8666 F120.00
G01 X32.1532 Y-22.8032 F120.00
G01 X32.2168 Y-22.7556 F120.00
G01 X32.2350 Y-22.7478 F120.00
G01 X32.2501 Y-22.7400 F120.00
G01 X32.2645 Y-22.7310 F120.00
G01 X32.2782 Y-22.7209 F120.00
G01 X32.2911 Y-22.7099 F120.00
G01 X32.3032 Y-22.6979 F120.00
G01 X32.3324 Y-22.6664 F120.00
G01 X32.3396 Y-22.6579 F120.00
G01 X32.3463 Y-22.6491 F120.00
G01 X32.3555 Y-22.6354 F120.00
G01 X32.3637 Y-22.6210 F120.00
G01 X32.3708 Y-22.6060 F120.00
G01 X32.3749 Y-22.5958 F120.00
G01 X32.3785 Y-22.5853 F120.00
G01 X32.3829 Y-22.5694 F120.00
G01 X32.3862 Y-22.5531 F120.00
G01 X32.3882 Y-22.5367 F120.00
G01 X32.3889 Y-22.5257 F120.00
G01 X32.3890 Y-22.5146 F120.00
G01 X32.3869 Y-22.4606 F120.00
G01 X32.3849 Y-22.4441 F120.00
G01 X32.3817 Y-22.4279 F120.00
G01 X32.3773 Y-22.4119 F120.00
G01 X32.3737 Y-22.4015 F120.00
G01 X32.3696 Y-22.3912 F120.00
G01 X32.3625 Y-22.3762 F120.00
G01 X32.3572 Y-22.3666 F120.00
G01 X32.3515 Y-22.3572 F120.00
G01 X32.3452 Y-22.3480 F120.00
G01 X32.3385 Y-22.3393 F120.00
G01 X32.3314 Y-22.3308 F120.00
G01 X32.3239 Y-22.3227 F120.00
G01 X32.2886 Y-22.2894 F120.00
G01 X32.2761 Y-22.2786 F120.00
G01 X32.2628 Y-22.2687 F120.00
G01 X32.2488 Y-22.2598 F120.00
G01 X32.2342 Y-22.2520 F120.00
G01 X32.2167 Y-22.2444 F120.00
G01 X32.1532 Y-22.1968 F120.00
G01 X32.1057 Y-22.1334 F120.00
G01 X32.0766 Y-22.0553 F120.00
G01 X32.0745 Y-22.0358 F120.00
G01 X32.0745 Y-20.9642 F120.00
G01 X32.0766 Y-20.9447 F120.00
G01 X32.1057 Y-20.8666 F120.00
G01 X32.1532 Y-20.8032 F120.00
G01 X32.2168 Y-20.7556 F120.00
G01 X32.2350 Y-20.7478 F120.00
G01 X32.2501 Y-20.7400 F120.00
G01 X32.2645 Y-20.7310 F120.00
G01 X32.2782 Y-20.7209 F120.00
G01 X32.2911 Y-20.7099 F120.00
G01 X32.3032 Y-20.6979 F120.00
G01 X32.3324 Y-20.6664 F120.00
G01 X32.3396 Y-20.6579 F120.00
G01 X32.3463 Y-20.6491 F120.00
G01 X32.3555 Y-20.6354 F120.00
G01 X32.3637 Y-20.6210 F120.00
G01 X32.3708 Y-20.6060 F120.00
G01 X32.3749 Y-20.5958 F120.00
G01 X32.3785 Y-20.5853 F120.00
G01 X32.3829 Y-20.5694 F120.00
G01 X32.3862 Y-20.5531 F120.00
G01 X32.3882 Y-20.5367 F120.00
G01 X32.3889 Y-20.5257 F120.00
G01 X32.3890 Y-20.5146 F120.00
G01 X32.3869 Y-20.4606 F120.00
G01 X32.3849 Y-20.4441 F120.00
G01 X32.3817 Y-20.4279 F120.00
G01 X32.3773 Y-20.4119 F120.00
G01 X32.3737 Y-20.4015 F120.00
G01 X32.3696 Y-20.3912 F120.00
G01 X32.3625 Y-20.3762 F120.00
G01 X32.3572 Y-20.3666 F120.00
G01 X32.3515 Y-20.3572 F120.00
G01 X32.3452 Y-20.3480 F120.00
G01 X32.3385 Y-20.3393 F120.00
G01 X32.3314 Y-20.3308 F120.00
G01 X32.3239 Y-20.3227 F120.00
G01 X32.2886 Y-20.2894 F120.00
G01 X32.2761 Y-20.2786 F120.00
G01 X32.2628 Y-20.2687 F120.00
G01 X32.2488 Y-20.2598 F120.00
G01 X32.2342 Y-20.2520 F120.00
G01 X32.2167 Y-20.2444 F120.00
G01 X32.1532 Y-20.1968 F120.00
G01 X32.1057 Y-20.1334 F120.00
G01 X32.0766 Y-20.0553 F120.00
G01 X32.0745 Y-20.0358 F120.00
G01 X32.0745 Y-18.9642 F120.00
G01 X32.0766 Y-18.9447 F120.00
G01 X32.1057 Y-18.8666 F120.00
G01 X32.1532 Y-18.8032 F120.00
G01 X32.2168 Y-18.7556 F120.00
G01 X32.2350 Y-18.7478 F120.00
G01 X32.2501 Y-18.7400 F120.00
G01 X32.2645 Y-18.7310 F120.00
G01 X32.2782 Y-18.7209 F120.00
G01 X32.2911 Y-18.7099 F120.00
G01 X32.3032 Y-18.6979 F120.00
G01 X32.3324 Y-18.6664 F120.00
G01 X32.3396 Y-18.6579 F120.00
G01 X32.3463 Y-18.6491 F120.00
G01 X32.3555 Y-18.6354 F120.00
G01 X32.3637 Y-18.6210 F120.00
G01 X32.3708 Y-18.6060 F120.00
G01 X32.3749 Y-18.5958 F120.00
G01 X32.3785 Y-18.5853 F120.00
G01 X32.3829 Y-18.5694 F120.00
G01 X32.3862 Y-18.5531 F120.00
G01 X32.3882 Y-18.5367 F120.00
G01 X32.3889 Y-18.5257 F120.00
G01 X32.3890 Y-18.5146 F120.00
G01 X32.3869 Y-18.4606 F120.00
G01 X32.3849 Y-18.4441 F120.00
G01 X32.3817 Y-18.4279 F120.00
G01 X32.3773 Y-18.4119 F120.00
G01 X32.3737 Y-18.4015 F120.00
G01 X32.3696 Y-18.3912 F120.00
G01 X32.3625 Y-18.3762 F120.00
G01 X32.3572 Y-18.3666 F120.00
G01 X32.3515 Y-18.3572 F120.00
G01 X32.3452 Y-18.3480 F120.00
G01 X32.3385 Y-18.3393 F120.00
G01 X32.3314 Y-18.3308 F120.00
G01 X32.3239 Y-18.3227 F120.00
G01 X32.2886 Y-18.2894 F120.00
G01 X32.2761 Y-18.2786 F120.00
G01 X32.2628 Y-18.2687 F120.00
G01 X32.2488 Y-18.2598 F120.00
G01 X32.2342 Y-18.2520 F120.00
G01 X32.2167 Y-18.2444 F120.00
G01 X32.1532 Y-18.1968 F120.00
G01 X32.1057 Y-18.1334 F120.00
G01 X32.0766 Y-18.0553 F120.00
G01 X32.0745 Y-18.0358 F120.00
G01 X32.0745 Y-16.9642 F120.00
G01 X32.0766 Y-16.9447 F120.00
G01 X32.1057 Y-16.8666 F120.00
G01 X32.1532 Y-16.8032 F120.00
G01 X32.2168 Y-16.7556 F120.00
G01 X32.2350 Y-16.7478 F120.00
G01 X32.2501 Y-16.7400 F120.00
G01 X32.2645 Y-16.7310 F120.00
G01 X32.2782 Y-16.7209 F120.00
G01 X32.2911 Y-16.7099 F120.00
G01 X32.3032 Y-16.6979 F120.00
G01 X32.3324 Y-16.6664 F120.00
G01 X32.3396 Y-16.6579 F120.00
G01 X32.3463 Y-16.6491 F120.00
G01 X32.3555 Y-16.6354 F120.00
G01 X32.3637 Y-16.6210 F120.00
G01 X32.3708 Y-16.6060 F120.00
G01 X32.3749 Y-16.5958 F120.00
G01 X32.3785 Y-16.5853 F120.00
G01 X32.3829 Y-16.5694 F120.00
G01 X32.3862 Y-16.5531 F120.00
G01 X32.3882 Y-16.5367 F120.00
G01 X32.3889 Y-16.5257 F120.00
G01 X32.3890 Y-16.5146 F120.00
G01 X32.3869 Y-16.4606 F120.00
G01 X32.3849 Y-16.4441 F120.00
G01 X32.3817 Y-16.4279 F120.00
G01 X32.3773 Y-16.4119 F120.00
G01 X32.3737 Y-16.4015 F120.00
G01 X32.3696 Y-16.3912 F120.00
G01 X32.3625 Y-16.3762 F120.00
G01 X32.3572 Y-16.3666 F120.00
G01 X32.3515 Y-16.3572 F120.00
G01 X32.3452 Y-16.3480 F120.00
G01 X32.3385 Y-16.3393 F120.00
G01 X32.3314 Y-16.3308 F120.00
G01 X32.3239 Y-16.3227 F120.00
G01 X32.2886 Y-16.2894 F120.00
G01 X32.2761 Y-16.2786 F120.00
G01 X32.2628 Y-16.2687 F120.00
G01 X32.2488 Y-16.2598 F120.00
G01 X32.2342 Y-16.2520 F120.00
G01 X32.2167 Y-16.2444 F120.00
G01 X32.1532 Y-16.1968 F120.00
G01 X32.1057 Y-16.1334 F120.00
G01 X32.0766 Y-16.0553 F120.00
G01 X32.0745 Y-16.0358 F120.00
G01 X32.0745 Y-14.9642 F120.00
G01 X32.0766 Y-14.9447 F120.00
G01 X32.1057 Y-14.8666 F120.00
G01 X32.1532 Y-14.8032 F120.00
G01 X32.2168 Y-14.7556 F120.00
G01 X32.2350 Y-14.7478 F120.00
G01 X32.2501 Y-14.7400 F120.00
G01 X32.2645 Y-14.7310 F120.00
G01 X32.2782 Y-14.7209 F120.00
G01 X32.2911 Y-14.7099 F120.00
G01 X32.3032 Y-14.6979 F120.00
G01 X32.3324 Y-14.6664 F120.00
G01 X32.3396 Y-14.6579 F120.00
G01 X32.3463 Y-14.6491 F120.00
G01 X32.3555 Y-14.6354 F120.00
G01 X32.3637 Y-14.6210 F120.00
G01 X32.3685 Y-14.6111 F120.00
G01 X32.3729 Y-14.6009 F120.00
G01 X32.3785 Y-14.5853 F120.00
G01 X32.3829 Y-14.5694 F120.00
G01 X32.3862 Y-14.5531 F120.00
G01 X32.3882 Y-14.5367 F120.00
G01 X32.3889 Y-14.5257 F120.00
G01 X32.3890 Y-14.5146 F120.00
G01 X32.3869 Y-14.4606 F120.00
G01 X32.3849 Y-14.4441 F120.00
G01 X32.3817 Y-14.4279 F120.00
G01 X32.3773 Y-14.4119 F120.00
G01 X32.3737 Y-14.4015 F120.00
G01 X32.3696 Y-14.3912 F120.00
G01 X32.3625 Y-14.3762 F120.00
G01 X32.3572 Y-14.3666 F120.00
G01 X32.3515 Y-14.3572 F120.00
G01 X32.3452 Y-14.3480 F120.00
G01 X32.3385 Y-14.3393 F120.00
G01 X32.3314 Y-14.3308 F120.00
G01 X32.3239 Y-14.3227 F120.00
G01 X32.2886 Y-14.2894 F120.00
G01 X32.2763 Y-14.2788 F120.00
G01 X32.2632 Y-14.2690 F120.00
G01 X32.2495 Y-14.2603 F120.00
G01 X32.2352 Y-14.2525 F120.00
G01 X32.2167 Y-14.2444 F120.00
G01 X32.1532 Y-14.1968 F120.00
G01 X32.1057 Y-14.1333 F120.00
G01 X32.0766 Y-14.0553 F120.00
G01 X32.0745 Y-14.0358 F120.00
G01 X32.0745 Y-12.9642 F120.00
G01 X32.0766 Y-12.9447 F120.00
G01 X32.1057 Y-12.8666 F120.00
G01 X32.1532 Y-12.8032 F120.00
G01 X32.2168 Y-12.7556 F120.00
G01 X32.2350 Y-12.7478 F120.00
G01 X32.2501 Y-12.7400 F120.00
G01 X32.2645 Y-12.7310 F120.00
G01 X32.2782 Y-12.7209 F120.00
G01 X32.2911 Y-12.7099 F120.00
G01 X32.3032 Y-12.6979 F120.00
G01 X32.3324 Y-12.6664 F120.00
G01 X32.3396 Y-12.6579 F120.00
G01 X32.3463 Y-12.6491 F120.00
G01 X32.3555 Y-12.6354 F120.00
G01 X32.3637 Y-12.6210 F120.00
G01 X32.3685 Y-12.6111 F120.00
G01 X32.3729 Y-12.6009 F120.00
G01 X32.3785 Y-12.5853 F120.00
G01 X32.3829 Y-12.5694 F120.00
G01 X32.3862 Y-12.5531 F120.00
G01 X32.3882 Y-12.5367 F120.00
G01 X32.3889 Y-12.5257 F120.00
G01 X32.3890 Y-12.5146 F120.00
G01 X32.3869 Y-12.4606 F120.00
G01 X32.3857 Y-12.4496 F120.00
G01 X32.3840 Y-12.4387 F120.00
G01 X32.3803 Y-12.4225 F120.00
G01 X32.3756 Y-12.4067 F120.00
G01 X32.3717 Y-12.3963 F120.00
G01 X32.3674 Y-12.3862 F120.00
G01 X32.3625 Y-12.3762 F120.00
G01 X32.3572 Y-12.3666 F120.00
G01 X32.3484 Y-12.3526 F120.00
G01 X32.3385 Y-12.3393 F120.00
G01 X32.3314 Y-12.3308 F120.00
G01 X32.3239 Y-12.3227 F120.00
G01 X32.2886 Y-12.2894 F120.00
G01 X32.2761 Y-12.2786 F120.00
G01 X32.2628 Y-12.2687 F120.00
G01 X32.2488 Y-12.2598 F120.00
G01 X32.2342 Y-12.2520 F120.00
G01 X32.2167 Y-12.2444 F120.00
G01 X32.1532 Y-12.1968 F120.00
G01 X32.1057 Y-12.1334 F120.00
G01 X32.0766 Y-12.0553 F120.00
G01 X32.0745 Y-12.0358 F120.00
G01 X32.0745 Y-10.9642 F120.00
G01 X32.0766 Y-10.9447 F120.00
G01 X32.1057 Y-10.8666 F120.00
G01 X32.1532 Y-10.8032 F120.00
G01 X32.2166 Y-10.7557 F120.00
G01 X32.2947 Y-10.7266 F120.00
G01 X32.3142 Y-10.7245 F120.00
G01 X35.9663 Y-10.7245 F120.00
G01 X35.9773 Y-10.7242 F120.00
G01 X35.9883 Y-10.7234 F120.00
G01 X35.9993 Y-10.7221 F120.00
G01 X36.0102 Y-10.7202 F120.00
G01 X36.0210 Y-10.7178 F120.00
G01 X36.0316 Y-10.7148 F120.00
G01 X36.0473 Y-10.7094 F120.00
G01 X36.0921 Y-10.6908 F120.00
G01 X36.1070 Y-10.6836 F120.00
G01 X36.1166 Y-10.6781 F120.00
G01 X36.1259 Y-10.6722 F120.00
G01 X36.1394 Y-10.6625 F120.00
G01 X36.1479 Y-10.6555 F120.00
G01 X36.1561 Y-10.6481 F120.00
G01 X36.1676 Y-10.6362 F120.00
G01 X36.1749 Y-10.6279 F120.00
G01 X36.1817 Y-10.6192 F120.00
G01 X36.1880 Y-10.6102 F120.00
G01 X36.1939 Y-10.6008 F120.00
G01 X36.2019 Y-10.5863 F120.00
G01 X36.2088 Y-10.5713 F120.00
G01 X36.2271 Y-10.5263 F120.00
G01 X36.2306 Y-10.5158 F120.00
G01 X36.2335 Y-10.5052 F120.00
G01 X36.2360 Y-10.4944 F120.00
G01 X36.2378 Y-10.4835 F120.00
G01 X36.2392 Y-10.4726 F120.00
G01 X36.2400 Y-10.4615 F120.00
G01 X36.2402 Y-10.4450 F120.00
G01 X36.2397 Y-10.4339 F120.00
G01 X36.2386 Y-10.4230 F120.00
G01 X36.2370 Y-10.4120 F120.00
G01 X36.2348 Y-10.4012 F120.00
G01 X36.2306 Y-10.3852 F120.00
G01 X36.2271 Y-10.3747 F120.00
G01 X36.2232 Y-10.3644 F120.00
G01 X36.2088 Y-10.3297 F120.00
G01 X36.2019 Y-10.3147 F120.00
G01 X36.1967 Y-10.3049 F120.00
G01 X36.1880 Y-10.2908 F120.00
G01 X36.1783 Y-10.2774 F120.00
G01 X36.1713 Y-10.2689 F120.00
G01 X36.1600 Y-10.2568 F120.00
G01 X35.3976 Y-9.4944 F120.00
G01 X35.3128 Y-9.3673 F120.00
G01 X35.2543 Y-9.2262 F120.00
G01 X35.2245 Y-9.0764 F120.00
G01 X35.2245 Y-3.4347 F120.00
G01 X35.2239 Y-3.4182 F120.00
G01 X35.2228 Y-3.4072 F120.00
G01 X35.2212 Y-3.3962 F120.00
G01 X35.2190 Y-3.3854 F120.00
G01 X35.2163 Y-3.3747 F120.00
G01 X35.2113 Y-3.3589 F120.00
G01 X35.1930 Y-3.3140 F120.00
G01 X35.1861 Y-3.2989 F120.00
G01 X35.1809 Y-3.2892 F120.00
G01 X35.1752 Y-3.2797 F120.00
G01 X35.1691 Y-3.2705 F120.00
G01 X35.1625 Y-3.2616 F120.00
G01 X35.1519 Y-3.2490 F120.00
G01 X35.1442 Y-3.2410 F120.00
G01 X34.7590 Y-2.8558 F120.00
G01 X34.7469 Y-2.8445 F120.00
G01 X34.7384 Y-2.8375 F120.00
G01 X34.7249 Y-2.8278 F120.00
G01 X34.7108 Y-2.8191 F120.00
G01 X34.6961 Y-2.8115 F120.00
G01 X34.6514 Y-2.7926 F120.00
G01 X34.6411 Y-2.7887 F120.00
G01 X34.6253 Y-2.7837 F120.00
G01 X34.6092 Y-2.7798 F120.00
G01 X34.5983 Y-2.7779 F120.00
G01 X34.5873 Y-2.7766 F120.00
G01 X34.5763 Y-2.7758 F120.00
G01 X34.5653 Y-2.7755 F120.00
G01 X34.1635 Y-2.7756 F120.00
G01 X34.1469 Y-2.7766 F120.00
G01 X34.1305 Y-2.7788 F120.00
G01 X34.1143 Y-2.7822 F120.00
G01 X34.0984 Y-2.7869 F120.00
G01 X34.0829 Y-2.7926 F120.00
G01 X34.0432 Y-2.8092 F120.00
G01 X34.0332 Y-2.8139 F120.00
G01 X34.0187 Y-2.8219 F120.00
G01 X34.0048 Y-2.8309 F120.00
G01 X33.9916 Y-2.8409 F120.00
G01 X33.9792 Y-2.8519 F120.00
G01 X33.9676 Y-2.8638 F120.00
G01 X33.9570 Y-2.8764 F120.00
G01 X33.9473 Y-2.8898 F120.00
G01 X33.9386 Y-2.9039 F120.00
G01 X33.9310 Y-2.9187 F120.00
G01 X33.9121 Y-2.9634 F120.00
G01 X33.9082 Y-2.9737 F120.00
G01 X33.9032 Y-2.9895 F120.00
G01 X33.8993 Y-3.0056 F120.00
G01 X33.8974 Y-3.0165 F120.00
G01 X33.8961 Y-3.0274 F120.00
G01 X33.8953 Y-3.0385 F120.00
G01 X33.8950 Y-3.0495 F120.00
G01 X33.8950 Y-9.9750 F120.00
G01 X18.6277 Y-9.9751 F120.00
G01 X18.6167 Y-9.9756 F120.00
G01 X18.6057 Y-9.9767 F120.00
G01 X18.5893 Y-9.9793 F120.00
G01 X18.5785 Y-9.9817 F120.00
G01 X18.5679 Y-9.9847 F120.00
G01 X18.5574 Y-9.9882 F120.00
G01 X18.5471 Y-9.9921 F120.00
G01 X18.5074 Y-10.0087 F120.00
G01 X18.4974 Y-10.0134 F120.00
G01 X18.4877 Y-10.0186 F120.00
G01 X18.4736 Y-10.0273 F120.00
G01 X18.4645 Y-10.0336 F120.00
G01 X18.4516 Y-10.0440 F120.00
G01 X18.4434 Y-10.0514 F120.00
G01 X18.4319 Y-10.0633 F120.00
G01 X18.4246 Y-10.0716 F120.00
G01 X18.4178 Y-10.0803 F120.00
G01 X18.4115 Y-10.0893 F120.00
G01 X18.4056 Y-10.0987 F120.00
G01 X18.4001 Y-10.1083 F120.00
G01 X18.3952 Y-10.1182 F120.00
G01 X18.3763 Y-10.1629 F120.00
G01 X18.3724 Y-10.1732 F120.00
G01 X18.3689 Y-10.1837 F120.00
G01 X18.3647 Y-10.1997 F120.00
G01 X18.3625 Y-10.2105 F120.00
G01 X18.3609 Y-10.2215 F120.00
G01 X18.3598 Y-10.2324 F120.00
G01 X18.3593 Y-10.2435 F120.00
G01 X18.3593 Y-10.2545 F120.00
G01 X18.3598 Y-10.2656 F120.00
G01 X18.3609 Y-10.2765 F120.00
G01 X18.3635 Y-10.2929 F120.00
G01 X18.3660 Y-10.3037 F120.00
G01 X18.3689 Y-10.3143 F120.00
G01 X18.3724 Y-10.3248 F120.00
G01 X18.3763 Y-10.3351 F120.00
G01 X18.3952 Y-10.3798 F120.00
G01 X18.4001 Y-10.3897 F120.00
G01 X18.4056 Y-10.3993 F120.00
G01 X18.4115 Y-10.4087 F120.00
G01 X18.4178 Y-10.4177 F120.00
G01 X18.4282 Y-10.4306 F120.00
G01 X18.4395 Y-10.4427 F120.00
G01 X18.6449 Y-10.6481 F120.00
G01 X18.6531 Y-10.6555 F120.00
G01 X18.6616 Y-10.6625 F120.00
G01 X18.6751 Y-10.6722 F120.00
G01 X18.6892 Y-10.6809 F120.00
G01 X18.7039 Y-10.6885 F120.00
G01 X18.7486 Y-10.7074 F120.00
G01 X18.7589 Y-10.7113 F120.00
G01 X18.7694 Y-10.7148 F120.00
G01 X18.7800 Y-10.7178 F120.00
G01 X18.7962 Y-10.7212 F120.00
G01 X18.8127 Y-10.7234 F120.00
G01 X18.8237 Y-10.7242 F120.00
G01 X18.8347 Y-10.7245 F120.00
G01 X19.6858 Y-10.7245 F120.00
G01 X19.7053 Y-10.7266 F120.00
G01 X19.7834 Y-10.7557 F120.00
G01 X19.8468 Y-10.8032 F120.00
G01 X19.8943 Y-10.8666 F120.00
G01 X19.9234 Y-10.9447 F120.00
G01 X19.9255 Y-10.9642 F120.00
G01 X19.9255 Y-12.0358 F120.00
G01 X19.9234 Y-12.0553 F120.00
G01 X19.8943 Y-12.1334 F120.00
G01 X19.8468 Y-12.1968 F120.00
G01 X19.7832 Y-12.2444 F120.00
G01 X19.7650 Y-12.2522 F120.00
G01 X19.7500 Y-12.2600 F120.00
G01 X19.7355 Y-12.2690 F120.00
G01 X19.7218 Y-12.2791 F120.00
G01 X19.7089 Y-12.2901 F120.00
G01 X19.6968 Y-12.3021 F120.00
G01 X19.6676 Y-12.3336 F120.00
G01 X19.6604 Y-12.3421 F120.00
G01 X19.6537 Y-12.3509 F120.00
G01 X19.6445 Y-12.3646 F120.00
G01 X19.6363 Y-12.3790 F120.00
G01 X19.6292 Y-12.3940 F120.00
G01 X19.6251 Y-12.4042 F120.00
G01 X19.6215 Y-12.4147 F120.00
G01 X19.6171 Y-12.4306 F120.00
G01 X19.6138 Y-12.4469 F120.00
G01 X19.6123 Y-12.4578 F120.00
G01 X19.6114 Y-12.4688 F120.00
G01 X19.6110 Y-12.4854 F120.00
G01 X19.6131 Y-12.5394 F120.00
G01 X19.6151 Y-12.5558 F120.00
G01 X19.6183 Y-12.5721 F120.00
G01 X19.6227 Y-12.5881 F120.00
G01 X19.6263 Y-12.5985 F120.00
G01 X19.6304 Y-12.6088 F120.00
G01 X19.6374 Y-12.6237 F120.00
G01 X19.6428 Y-12.6334 F120.00
G01 X19.6485 Y-12.6428 F120.00
G01 X19.6548 Y-12.6520 F120.00
G01 X19.6615 Y-12.6607 F120.00
G01 X19.6686 Y-12.6692 F120.00
G01 X19.6761 Y-12.6773 F120.00
G01 X19.7114 Y-12.7106 F120.00
G01 X19.7239 Y-12.7214 F120.00
G01 X19.7372 Y-12.7313 F120.00
G01 X19.7512 Y-12.7402 F120.00
G01 X19.7658 Y-12.7480 F120.00
G01 X19.7833 Y-12.7556 F120.00
G01 X19.8468 Y-12.8032 F120.00
G01 X19.8943 Y-12.8666 F120.00
G01 X19.9234 Y-12.9447 F120.00
G01 X19.9255 Y-12.9642 F120.00
G01 X19.9255 Y-14.0358 F120.00
G01 X19.9234 Y-14.0553 F120.00
G01 X19.8943 Y-14.1334 F120.00
G01 X19.8468 Y-14.1968 F120.00
G01 X19.7832 Y-14.2444 F120.00
G01 X19.7650 Y-14.2522 F120.00
G01 X19.7500 Y-14.2600 F120.00
G01 X19.7355 Y-14.2690 F120.00
G01 X19.7218 Y-14.2791 F120.00
G01 X19.7089 Y-14.2901 F120.00
G01 X19.6968 Y-14.3021 F120.00
G01 X19.6676 Y-14.3336 F120.00
G01 X19.6604 Y-14.3421 F120.00
G01 X19.6537 Y-14.3509 F120.00
G01 X19.6445 Y-14.3646 F120.00
G01 X19.6363 Y-14.3790 F120.00
G01 X19.6292 Y-14.3940 F120.00
G01 X19.6251 Y-14.4042 F120.00
G01 X19.6215 Y-14.4147 F120.00
G01 X19.6171 Y-14.4306 F120.00
G01 X19.6138 Y-14.4469 F120.00
G01 X19.6123 Y-14.4578 F120.00
G01 X19.6114 Y-14.4688 F120.00
G01 X19.6110 Y-14.4854 F120.00
G01 X19.6131 Y-14.5394 F120.00
G01 X19.6151 Y-14.5558 F120.00
G01 X19.6183 Y-14.5721 F120.00
G01 X19.6227 Y-14.5881 F120.00
G01 X19.6263 Y-14.5985 F120.00
G01 X19.6304 Y-14.6088 F120.00
G01 X19.6374 Y-14.6237 F120.00
G01 X19.6428 Y-14.6334 F120.00
G01 X19.6485 Y-14.6428 F120.00
G01 X19.6548 Y-14.6520 F120.00
G01 X19.6615 Y-14.6607 F120.00
G01 X19.6686 Y-14.6692 F120.00
G01 X19.6761 Y-14.6773 F120.00
G01 X19.7114 Y-14.7106 F120.00
G01 X19.7239 Y-14.7214 F120.00
G01 X19.7372 Y-14.7313 F120.00
G01 X19.7512 Y-14.7402 F120.00
G01 X19.7658 Y-14.7480 F120.00
G01 X19.7833 Y-14.7556 F120.00
G01 X19.8468 Y-14.8032 F120.00
G01 X19.8943 Y-14.8666 F120.00
G01 X19.9234 Y-14.9447 F120.00
G01 X19.9255 Y-14.9642 F120.00
G01 X19.9255 Y-16.0358 F120.00
G01 X19.9234 Y-16.0553 F120.00
G01 X19.8943 Y-16.1334 F120.00
G01 X19.8468 Y-16.1968 F120.00
G01 X19.7832 Y-16.2444 F120.00
G01 X19.7650 Y-16.2522 F120.00
G01 X19.7500 Y-16.2600 F120.00
G01 X19.7355 Y-16.2690 F120.00
G01 X19.7218 Y-16.2791 F120.00
G01 X19.7089 Y-16.2901 F120.00
G01 X19.6968 Y-16.3021 F120.00
G01 X19.6676 Y-16.3336 F120.00
G01 X19.6604 Y-16.3421 F120.00
G01 X19.6537 Y-16.3509 F120.00
G01 X19.6445 Y-16.3646 F120.00
G01 X19.6363 Y-16.3790 F120.00
G01 X19.6292 Y-16.3940 F120.00
G01 X19.6251 Y-16.4042 F120.00
G01 X19.6215 Y-16.4147 F120.00
G01 X19.6171 Y-16.4306 F120.00
G01 X19.6138 Y-16.4469 F120.00
G01 X19.6123 Y-16.4578 F120.00
G01 X19.6114 Y-16.4688 F120.00
G01 X19.6110 Y-16.4854 F120.00
G01 X19.6131 Y-16.5394 F120.00
G01 X19.6151 Y-16.5558 F120.00
G01 X19.6183 Y-16.5721 F120.00
G01 X19.6227 Y-16.5881 F120.00
G01 X19.6263 Y-16.5985 F120.00
G01 X19.6304 Y-16.6088 F120.00
G01 X19.6374 Y-16.6237 F120.00
G01 X19.6428 Y-16.6334 F120.00
G01 X19.6485 Y-16.6428 F120.00
G01 X19.6548 Y-16.6520 F120.00
G01 X19.6615 Y-16.6607 F120.00
G01 X19.6686 Y-16.6692 F120.00
G01 X19.6761 Y-16.6773 F120.00
G01 X19.7114 Y-16.7106 F120.00
G01 X19.7239 Y-16.7214 F120.00
G01 X19.7372 Y-16.7313 F120.00
G01 X19.7512 Y-16.7402 F120.00
G01 X19.7658 Y-16.7480 F120.00
G01 X19.7833 Y-16.7556 F120.00
G01 X19.8468 Y-16.8032 F120.00
G01 X19.8943 Y-16.8666 F120.00
G01 X19.9234 Y-16.9447 F120.00
G01 X19.9255 Y-16.9642 F120.00
G01 X19.9255 Y-18.0358 F120.00
G01 X19.9234 Y-18.0553 F120.00
G01 X19.8943 Y-18.1334 F120.00
G01 X19.8468 Y-18.1968 F120.00
G01 X19.7832 Y-18.2444 F120.00
G01 X19.7650 Y-18.2522 F120.00
G01 X19.7500 Y-18.2600 F120.00
G01 X19.7355 Y-18.2690 F120.00
G01 X19.7218 Y-18.2791 F120.00
G01 X19.7089 Y-18.2901 F120.00
G01 X19.6968 Y-18.3021 F120.00
G01 X19.6676 Y-18.3336 F120.00
G01 X19.6604 Y-18.3421 F120.00
G01 X19.6537 Y-18.3509 F120.00
G01 X19.6445 Y-18.3646 F120.00
G01 X19.6363 Y-18.3790 F120.00
G01 X19.6292 Y-18.3940 F120.00
G01 X19.6251 Y-18.4042 F120.00
G01 X19.6215 Y-18.4147 F120.00
G01 X19.6171 Y-18.4306 F120.00
G01 X19.6138 Y-18.4469 F120.00
G01 X19.6123 Y-18.4578 F120.00
G01 X19.6114 Y-18.4688 F120.00
G01 X19.6110 Y-18.4854 F120.00
G01 X19.6131 Y-18.5394 F120.00
G01 X19.6151 Y-18.5558 F120.00
G01 X19.6183 Y-18.5721 F120.00
G01 X19.6227 Y-18.5881 F120.00
G01 X19.6263 Y-18.5985 F120.00
G01 X19.6304 Y-18.6088 F120.00
G01 X19.6374 Y-18.6237 F120.00
G01 X19.6428 Y-18.6334 F120.00
G01 X19.6485 Y-18.6428 F120.00
G01 X19.6548 Y-18.6520 F120.00
G01 X19.6615 Y-18.6607 F120.00
G01 X19.6686 Y-18.6692 F120.00
G01 X19.6761 Y-18.6773 F120.00
G01 X19.7114 Y-18.7106 F120.00
G01 X19.7239 Y-18.7214 F120.00
G01 X19.7372 Y-18.7313 F120.00
G01 X19.7512 Y-18.7402 F120.00
G01 X19.7658 Y-18.7480 F120.00
G01 X19.7833 Y-18.7556 F120.00
G01 X19.8468 Y-18.8032 F120.00
G01 X19.8943 Y-18.8666 F120.00
G01 X19.9234 Y-18.9447 F120.00
G01 X19.9255 Y-18.9642 F120.00
G01 X19.9255 Y-20.0358 F120.00
G01 X19.9234 Y-20.0553 F120.00
G01 X19.8943 Y-20.1334 F120.00
G01 X19.8468 Y-20.1968 F120.00
G01 X19.7832 Y-20.2444 F120.00
G01 X19.7650 Y-20.2522 F120.00
G01 X19.7500 Y-20.2600 F120.00
G01 X19.7355 Y-20.2690 F120.00
G01 X19.7218 Y-20.2791 F120.00
G01 X19.7089 Y-20.2901 F120.00
G01 X19.6968 Y-20.3021 F120.00
G01 X19.6676 Y-20.3336 F120.00
G01 X19.6604 Y-20.3421 F120.00
G01 X19.6537 Y-20.3509 F120.00
G01 X19.6445 Y-20.3646 F120.00
G01 X19.6363 Y-20.3790 F120.00
G01 X19.6292 Y-20.3940 F120.00
G01 X19.6251 Y-20.4042 F120.00
G01 X19.6215 Y-20.4147 F120.00
G01 X19.6171 Y-20.4306 F120.00
G01 X19.6138 Y-20.4469 F120.00
G01 X19.6123 Y-20.4578 F120.00
G01 X19.6114 Y-20.4688 F120.00
G01 X19.6110 Y-20.4854 F120.00
G01 X19.6131 Y-20.5394 F120.00
G01 X19.6151 Y-20.5558 F120.00
G01 X19.6183 Y-20.5721 F120.00
G01 X19.6227 Y-20.5881 F120.00
G01 X19.6263 Y-20.5985 F120.00
G01 X19.6304 Y-20.6088 F120.00
G01 X19.6374 Y-20.6237 F120.00
G01 X19.6428 Y-20.6334 F120.00
G01 X19.6485 Y-20.6428 F120.00
G01 X19.6548 Y-20.6520 F120.00
G01 X19.6615 Y-20.6607 F120.00
G01 X19.6686 Y-20.6692 F120.00
G01 X19.6761 Y-20.6773 F120.00
G01 X19.7114 Y-20.7106 F120.00
G01 X19.7239 Y-20.7214 F120.00
G01 X19.7372 Y-20.7313 F120.00
G01 X19.7512 Y-20.7402 F120.00
G01 X19.7658 Y-20.7480 F120.00
G01 X19.7833 Y-20.7556 F120.00
G01 X19.8468 Y-20.8032 F120.00
G01 X19.8943 Y-20.8666 F120.00
G01 X19.9234 Y-20.9447 F120.00
G01 X19.9255 Y-20.9642 F120.00
G01 X19.9255 Y-22.0358 F120.00
G01 X19.9234 Y-22.0553 F120.00
G01 X19.8943 Y-22.1334 F120.00
G01 X19.8468 Y-22.1968 F120.00
G01 X19.7832 Y-22.2444 F120.00
G01 X19.7650 Y-22.2522 F120.00
G01 X19.7500 Y-22.2600 F120.00
G01 X19.7355 Y-22.2690 F120.00
G01 X19.7218 Y-22.2791 F120.00
G01 X19.7089 Y-22.2901 F120.00
G01 X19.6968 Y-22.3021 F120.00
G01 X19.6676 Y-22.3336 F120.00
G01 X19.6604 Y-22.3421 F120.00
G01 X19.6537 Y-22.3509 F120.00
G01 X19.6445 Y-22.3646 F120.00
G01 X19.6363 Y-22.3790 F120.00
G01 X19.6292 Y-22.3940 F120.00
G01 X19.6251 Y-22.4042 F120.00
G01 X19.6215 Y-22.4147 F120.00
G01 X19.6171 Y-22.4306 F120.00
G01 X19.6138 Y-22.4469 F120.00
G01 X19.6123 Y-22.4578 F120.00
G01 X19.6114 Y-22.4688 F120.00
G01 X19.6110 Y-22.4854 F120.00
G01 X19.6131 Y-22.5394 F120.00
G01 X19.6151 Y-22.5558 F120.00
G01 X19.6171 Y-22.5667 F120.00
G01 X19.6196 Y-22.5775 F120.00
G01 X19.6227 Y-22.5881 F120.00
G01 X19.6263 Y-22.5985 F120.00
G01 X19.6326 Y-22.6138 F120.00
G01 X19.6400 Y-22.6286 F120.00
G01 X19.6456 Y-22.6382 F120.00
G01 X19.6516 Y-22.6474 F120.00
G01 X19.6581 Y-22.6564 F120.00
G01 X19.6650 Y-22.6650 F120.00
G01 X19.6761 Y-22.6773 F120.00
G01 X19.7114 Y-22.7106 F120.00
G01 X19.7239 Y-22.7214 F120.00
G01 X19.7372 Y-22.7313 F120.00
G01 X19.7512 Y-22.7402 F120.00
G01 X19.7658 Y-22.7480 F120.00
G01 X19.7833 Y-22.7556 F120.00
G01 X19.8468 Y-22.8032 F120.00
G01 X19.8943 Y-22.8666 F120.00
G01 X19.9234 Y-22.9447 F120.00
G01 X19.9255 Y-22.9642 F120.00
G01 X19.9255 Y-24.0358 F120.00
G01 X19.9234 Y-24.0553 F120.00
G01 X19.8943 Y-24.1334 F120.00
G01 X19.8468 Y-24.1968 F120.00
G01 X19.7832 Y-24.2444 F120.00
G01 X19.7650 Y-24.2522 F120.00
G01 X19.7500 Y-24.2600 F120.00
G01 X19.7355 Y-24.2690 F120.00
G01 X19.7218 Y-24.2791 F120.00
G01 X19.7089 Y-24.2901 F120.00
G01 X19.6968 Y-24.3021 F120.00
G01 X19.6676 Y-24.3336 F120.00
G01 X19.6570 Y-24.3464 F120.00
G01 X19.6506 Y-24.3554 F120.00
G01 X19.6417 Y-24.3694 F120.00
G01 X19.6339 Y-24.3840 F120.00
G01 X19.6271 Y-24.3991 F120.00
G01 X19.6215 Y-24.4147 F120.00
G01 X19.6171 Y-24.4306 F120.00
G01 X19.6138 Y-24.4469 F120.00
G01 X19.6123 Y-24.4578 F120.00
G01 X19.6114 Y-24.4688 F120.00
G01 X19.6110 Y-24.4854 F120.00
G01 X19.6131 Y-24.5394 F120.00
G01 X19.6151 Y-24.5558 F120.00
G01 X19.6171 Y-24.5667 F120.00
G01 X19.6196 Y-24.5775 F120.00
G01 X19.6227 Y-24.5881 F120.00
G01 X19.6263 Y-24.5985 F120.00
G01 X19.6326 Y-24.6138 F120.00
G01 X19.6400 Y-24.6286 F120.00
G01 X19.6456 Y-24.6382 F120.00
G01 X19.6516 Y-24.6474 F120.00
G01 X19.6581 Y-24.6564 F120.00
G01 X19.6650 Y-24.6650 F120.00
G01 X19.6761 Y-24.6773 F120.00
G01 X19.7114 Y-24.7106 F120.00
G01 X19.7239 Y-24.7214 F120.00
G01 X19.7372 Y-24.7313 F120.00
G01 X19.7512 Y-24.7402 F120.00
G01 X19.7658 Y-24.7480 F120.00
G01 X19.7833 Y-24.7556 F120.00
G01 X19.8468 Y-24.8032 F120.00
G01 X19.8943 Y-24.8666 F120.00
G01 X19.9234 Y-24.9447 F120.00
G01 X19.9255 Y-24.9642 F120.00
G01 X19.9255 Y-25.6385 F120.00
G01 X19.9261 Y-25.6552 F120.00
G01 X19.9272 Y-25.6663 F120.00
G01 X19.9289 Y-25.6773 F120.00
G01 X19.9310 Y-25.6882 F120.00
G01 X19.9338 Y-25.6990 F120.00
G01 X19.9468 Y-25.7390 F120.00
G01 X19.9526 Y-25.7545 F120.00
G01 X19.9571 Y-25.7646 F120.00
G01 X19.9621 Y-25.7745 F120.00
G01 X19.9705 Y-25.7888 F120.00
G01 X19.9767 Y-25.7980 F120.00
G01 X19.9834 Y-25.8069 F120.00
G01 X19.9941 Y-25.8196 F120.00
G01 X20.0018 Y-25.8276 F120.00
G01 X20.0098 Y-25.8352 F120.00
G01 X20.0226 Y-25.8458 F120.00
G01 X20.0315 Y-25.8524 F120.00
G01 X20.0455 Y-25.8614 F120.00
G01 X20.0777 Y-25.8805 F120.00
G01 X20.0873 Y-25.8859 F120.00
G01 X20.0972 Y-25.8909 F120.00
G01 X20.1073 Y-25.8953 F120.00
G01 X20.1177 Y-25.8992 F120.00
G01 X20.1335 Y-25.9042 F120.00
G01 X20.1442 Y-25.9068 F120.00
G01 X20.1605 Y-25.9098 F120.00
G01 X20.1715 Y-25.9111 F120.00
G01 X20.1825 Y-25.9118 F120.00
G01 X20.1935 Y-25.9120 F120.00
G01 X20.2046 Y-25.9117 F120.00
G01 X20.2156 Y-25.9109 F120.00
G01 X20.2265 Y-25.9095 F120.00
G01 X20.2374 Y-25.9075 F120.00
G01 X20.2845 Y-25.8958 F120.00
G01 X20.3004 Y-25.8911 F120.00
G01 X20.3159 Y-25.8853 F120.00
G01 X20.3260 Y-25.8807 F120.00
G01 X20.3358 Y-25.8757 F120.00
G01 X20.3501 Y-25.8673 F120.00
G01 X20.3666 Y-25.8557 F120.00
G01 X20.4447 Y-25.8266 F120.00
G01 X20.4642 Y-25.8245 F120.00
G01 X21.5358 Y-25.8245 F120.00
G01 X21.5553 Y-25.8266 F120.00
G01 X21.6334 Y-25.8557 F120.00
G01 X21.6968 Y-25.9032 F120.00
G01 X21.7444 Y-25.9668 F120.00
G01 X21.7521 Y-25.9849 F120.00
G01 X21.7600 Y-26.0000 F120.00
G01 X21.7690 Y-26.0145 F120.00
G01 X21.7790 Y-26.0282 F120.00
G01 X21.7901 Y-26.0411 F120.00
G01 X21.8021 Y-26.0532 F120.00
G01 X21.8336 Y-26.0824 F120.00
G01 X21.8421 Y-26.0896 F120.00
G01 X21.8509 Y-26.0963 F120.00
G01 X21.8646 Y-26.1055 F120.00
G01 X21.8790 Y-26.1137 F120.00
G01 X21.8940 Y-26.1208 F120.00
G01 X21.9042 Y-26.1249 F120.00
G01 X21.9147 Y-26.1285 F120.00
G01 X21.9306 Y-26.1329 F120.00
G01 X21.9469 Y-26.1362 F120.00
G01 X21.9633 Y-26.1382 F120.00
G01 X21.9743 Y-26.1389 F120.00
G01 X21.9854 Y-26.1390 F120.00
G01 X22.0394 Y-26.1369 F120.00
G01 X22.0558 Y-26.1349 F120.00
G01 X22.0721 Y-26.1317 F120.00
G01 X22.0828 Y-26.1289 F120.00
G01 X22.0933 Y-26.1256 F120.00
G01 X22.1088 Y-26.1196 F120.00
G01 X22.1188 Y-26.1150 F120.00
G01 X22.1286 Y-26.1100 F120.00
G01 X22.1428 Y-26.1015 F120.00
G01 X22.1519 Y-26.0952 F120.00
G01 X22.1607 Y-26.0885 F120.00
G01 X22.1692 Y-26.0814 F120.00
G01 X22.1773 Y-26.0739 F120.00
G01 X22.2106 Y-26.0386 F120.00
G01 X22.2214 Y-26.0261 F120.00
G01 X22.2313 Y-26.0128 F120.00
G01 X22.2402 Y-25.9988 F120.00
G01 X22.2480 Y-25.9842 F120.00
G01 X22.2556 Y-25.9667 F120.00
G01 X22.3032 Y-25.9032 F120.00
G01 X22.3666 Y-25.8557 F120.00
G01 X22.4447 Y-25.8266 F120.00
G01 X22.4642 Y-25.8245 F120.00
G01 X23.5358 Y-25.8245 F120.00
G01 X23.5553 Y-25.8266 F120.00
G01 X23.6334 Y-25.8557 F120.00
G01 X23.6968 Y-25.9032 F120.00
G01 X23.7444 Y-25.9668 F120.00
G01 X23.7521 Y-25.9849 F120.00
G01 X23.7600 Y-26.0000 F120.00
G01 X23.7690 Y-26.0145 F120.00
G01 X23.7790 Y-26.0282 F120.00
G01 X23.7901 Y-26.0411 F120.00
G01 X23.8021 Y-26.0532 F120.00
G01 X23.8336 Y-26.0824 F120.00
G01 X23.8421 Y-26.0896 F120.00
G01 X23.8509 Y-26.0963 F120.00
G01 X23.8646 Y-26.1055 F120.00
G01 X23.8790 Y-26.1137 F120.00
G01 X23.8889 Y-26.1185 F120.00
G01 X23.8991 Y-26.1229 F120.00
G01 X23.9147 Y-26.1285 F120.00
G01 X23.9306 Y-26.1329 F120.00
G01 X23.9469 Y-26.1362 F120.00
G01 X23.9633 Y-26.1382 F120.00
G01 X23.9743 Y-26.1389 F120.00
G01 X23.9854 Y-26.1390 F120.00
G01 X24.0394 Y-26.1369 F120.00
G01 X24.0558 Y-26.1349 F120.00
G01 X24.0721 Y-26.1317 F120.00
G01 X24.0828 Y-26.1289 F120.00
G01 X24.0933 Y-26.1256 F120.00
G01 X24.1088 Y-26.1196 F120.00
G01 X24.1188 Y-26.1150 F120.00
G01 X24.1286 Y-26.1100 F120.00
G01 X24.1428 Y-26.1015 F120.00
G01 X24.1519 Y-26.0952 F120.00
G01 X24.1607 Y-26.0885 F120.00
G01 X24.1692 Y-26.0814 F120.00
G01 X24.1773 Y-26.0739 F120.00
G01 X24.2106 Y-26.0386 F120.00
G01 X24.2214 Y-26.0261 F120.00
G01 X24.2313 Y-26.0128 F120.00
G01 X24.2402 Y-25.9988 F120.00
G01 X24.2480 Y-25.9842 F120.00
G01 X24.2556 Y-25.9667 F120.00
G01 X24.3032 Y-25.9032 F120.00
G01 X24.3666 Y-25.8557 F120.00
G01 X24.4447 Y-25.8266 F120.00
G01 X24.4642 Y-25.8245 F120.00
G01 X25.5358 Y-25.8245 F120.00
G01 X25.5553 Y-25.8266 F120.00
G01 X25.6334 Y-25.8557 F120.00
G01 X25.6968 Y-25.9032 F120.00
G01 X25.7444 Y-25.9668 F120.00
G01 X25.7521 Y-25.9849 F120.00
G01 X25.7600 Y-26.0000 F120.00
G01 X25.7690 Y-26.0145 F120.00
G01 X25.7790 Y-26.0282 F120.00
G01 X25.7901 Y-26.0411 F120.00
G01 X25.8021 Y-26.0532 F120.00
G01 X25.8336 Y-26.0824 F120.00
G01 X25.8421 Y-26.0896 F120.00
G01 X25.8509 Y-26.0963 F120.00
G01 X25.8646 Y-26.1055 F120.00
G01 X25.8790 Y-26.1137 F120.00
G01 X25.8889 Y-26.1185 F120.00
G01 X25.8991 Y-26.1229 F120.00
G01 X25.9147 Y-26.1285 F120.00
G01 X25.9306 Y-26.1329 F120.00
G01 X25.9469 Y-26.1362 F120.00
G01 X25.9633 Y-26.1382 F120.00
G01 X25.9743 Y-26.1389 F120.00
G01 X25.9854 Y-26.1390 F120.00
G01 X26.0394 Y-26.1369 F120.00
G01 X26.0558 Y-26.1349 F120.00
G01 X26.0721 Y-26.1317 F120.00
G01 X26.0828 Y-26.1289 F120.00
G01 X26.0933 Y-26.1256 F120.00
G01 X26.1088 Y-26.1196 F120.00
G01 X26.1188 Y-26.1150 F120.00
G01 X26.1286 Y-26.1100 F120.00
G01 X26.1428 Y-26.1015 F120.00
G01 X26.1519 Y-26.0952 F120.00
G01 X26.1607 Y-26.0885 F120.00
G01 X26.1692 Y-26.0814 F120.00
G01 X26.1773 Y-26.0739 F120.00
G01 X26.2106 Y-26.0386 F120.00
G01 X26.2214 Y-26.0261 F120.00
G01 X26.2313 Y-26.0128 F120.00
G01 X26.2402 Y-25.9988 F120.00
G01 X26.2480 Y-25.9842 F120.00
G01 X26.2556 Y-25.9667 F120.00
G01 X26.3032 Y-25.9032 F120.00
G01 X26.3666 Y-25.8557 F120.00
G01 X26.4447 Y-25.8266 F120.00
G01 X26.4642 Y-25.8245 F120.00
G01 X27.5358 Y-25.8245 F120.00
G01 X27.5553 Y-25.8266 F120.00
G01 X27.6334 Y-25.8557 F120.00
G01 X27.6968 Y-25.9032 F120.00
G01 X27.7444 Y-25.9668 F120.00
G01 X27.7521 Y-25.9849 F120.00
G01 X27.7600 Y-26.0000 F120.00
G01 X27.7690 Y-26.0145 F120.00
G01 X27.7790 Y-26.0282 F120.00
G01 X27.7901 Y-26.0411 F120.00
G01 X27.8021 Y-26.0532 F120.00
G01 X27.8336 Y-26.0824 F120.00
G01 X27.8421 Y-26.0896 F120.00
G01 X27.8509 Y-26.0963 F120.00
G01 X27.8646 Y-26.1055 F120.00
G01 X27.8790 Y-26.1137 F120.00
G01 X27.8889 Y-26.1185 F120.00
G01 X27.8991 Y-26.1229 F120.00
G01 X27.9147 Y-26.1285 F120.00
G01 X27.9306 Y-26.1329 F120.00
G01 X27.9469 Y-26.1362 F120.00
G01 X27.9633 Y-26.1382 F120.00
G01 X27.9743 Y-26.1389 F120.00
G01 X27.9854 Y-26.1390 F120.00
G01 X28.0394 Y-26.1369 F120.00
G01 X28.0558 Y-26.1349 F120.00
G01 X28.0721 Y-26.1317 F120.00
G01 X28.0828 Y-26.1289 F120.00
G01 X28.0933 Y-26.1256 F120.00
G01 X28.1088 Y-26.1196 F120.00
G01 X28.1188 Y-26.1150 F120.00
G01 X28.1286 Y-26.1100 F120.00
G01 X28.1428 Y-26.1015 F120.00
G01 X28.1519 Y-26.0952 F120.00
G01 X28.1607 Y-26.0885 F120.00
G01 X28.1692 Y-26.0814 F120.00
G01 X28.1773 Y-26.0739 F120.00
G01 X28.2106 Y-26.0386 F120.00
G01 X28.2214 Y-26.0261 F120.00
G01 X28.2313 Y-26.0128 F120.00
G01 X28.2402 Y-25.9988 F120.00
G01 X28.2480 Y-25.9842 F120.00
G01 X28.2556 Y-25.9667 F120.00
G01 X28.3032 Y-25.9032 F120.00
G01 X28.3666 Y-25.8557 F120.00
G01 X28.4447 Y-25.8266 F120.00
G01 X28.4642 Y-25.8245 F120.00
G01 X29.5358 Y-25.8245 F120.00
G01 X29.5553 Y-25.8266 F120.00
G01 X29.6334 Y-25.8557 F120.00
G01 X29.6968 Y-25.9032 F120.00
G01 X29.7444 Y-25.9668 F120.00
G01 X29.7521 Y-25.9849 F120.00
G01 X29.7600 Y-26.0000 F120.00
G01 X29.7690 Y-26.0145 F120.00
G01 X29.7790 Y-26.0282 F120.00
G01 X29.7901 Y-26.0411 F120.00
G01 X29.8021 Y-26.0532 F120.00
G01 X29.8336 Y-26.0824 F120.00
G01 X29.8421 Y-26.0896 F120.00
G01 X29.8509 Y-26.0963 F120.00
G01 X29.8646 Y-26.1055 F120.00
G01 X29.8790 Y-26.1137 F120.00
G01 X29.8889 Y-26.1185 F120.00
G01 X29.8991 Y-26.1229 F120.00
G01 X29.9147 Y-26.1285 F120.00
G01 X29.9306 Y-26.1329 F120.00
G01 X29.9469 Y-26.1362 F120.00
G01 X29.9633 Y-26.1382 F120.00
G01 X29.9743 Y-26.1389 F120.00
G01 X29.9854 Y-26.1390 F120.00
G01 X30.0394 Y-26.1369 F120.00
G01 X30.0504 Y-26.1357 F120.00
G01 X30.0613 Y-26.1340 F120.00
G01 X30.0774 Y-26.1304 F120.00
G01 X30.0881 Y-26.1273 F120.00
G01 X30.0985 Y-26.1237 F120.00
G01 X30.1138 Y-26.1174 F120.00
G01 X30.1237 Y-26.1126 F120.00
G01 X30.1334 Y-26.1072 F120.00
G01 X30.1474 Y-26.0984 F120.00
G01 X30.1607 Y-26.0885 F120.00
G01 X30.1692 Y-26.0814 F120.00
G01 X30.1773 Y-26.0739 F120.00
G01 X30.2106 Y-26.0386 F120.00
G01 X30.2214 Y-26.0261 F120.00
G01 X30.2313 Y-26.0128 F120.00
G01 X30.2402 Y-25.9988 F120.00
G01 X30.2480 Y-25.9842 F120.00
G01 X30.2556 Y-25.9667 F120.00
G01 X30.3032 Y-25.9032 F120.00
G01 X30.3666 Y-25.8557 F120.00
G01 X30.4447 Y-25.8266 F120.00
G01 X30.4642 Y-25.8245 F120.00
G01 X31.5358 Y-25.8245 F120.00
G01 X31.5553 Y-25.8266 F120.00
G01 X31.6334 Y-25.8557 F120.00
G01 X31.7242 Y-25.9236 F120.00
G01 X31.7334 Y-25.9298 F120.00
G01 X31.7430 Y-25.9356 F120.00
G01 X31.7577 Y-25.9433 F120.00
G01 X31.7731 Y-25.9499 F120.00
G01 X31.8129 Y-25.9635 F120.00
G01 X31.8289 Y-25.9682 F120.00
G01 X31.8397 Y-25.9706 F120.00
G01 X31.8507 Y-25.9725 F120.00
G01 X31.8673 Y-25.9744 F120.00
G01 X31.8784 Y-25.9749 F120.00
G01 X32.1250 Y-25.9750 F120.00
G01 X32.1251 Y-26.0055 F120.00
G01 X32.1261 Y-26.0221 F120.00
G01 X32.1274 Y-26.0330 F120.00
G01 X32.1293 Y-26.0439 F120.00
G01 X32.1332 Y-26.0600 F120.00
G01 X32.1382 Y-26.0758 F120.00
G01 X32.1421 Y-26.0861 F120.00
G01 X32.1466 Y-26.0962 F120.00
G01 X32.1542 Y-26.1109 F120.00
G01 X32.1599 Y-26.1204 F120.00
G01 X32.1660 Y-26.1296 F120.00
G01 X32.1726 Y-26.1384 F120.00
G01 X32.1796 Y-26.1470 F120.00
G01 X32.1909 Y-26.1591 F120.00
G01 X32.2030 Y-26.1704 F120.00
G01 X32.2116 Y-26.1774 F120.00
G01 X32.2204 Y-26.1840 F120.00
G01 X32.2343 Y-26.1930 F120.00
G01 X32.2439 Y-26.1984 F120.00
G01 X32.2538 Y-26.2034 F120.00
G01 X32.2639 Y-26.2079 F120.00
G01 X32.2742 Y-26.2118 F120.00
G01 X32.2847 Y-26.2153 F120.00
G01 X32.2953 Y-26.2183 F120.00
G01 X32.3115 Y-26.2217 F120.00
G01 X32.3225 Y-26.2233 F120.00
G01 X32.3334 Y-26.2244 F120.00
G01 X32.3500 Y-26.2250 F120.00
G01 X33.1250 Y-26.2250 F120.00
G01 X33.1250 Y-26.2750 F120.00
G01 X32.3142 Y-26.2750 F120.00
G01 X32.2948 Y-26.2729 F120.00
G01 X32.2169 Y-26.2438 F120.00
G01 X32.2046 Y-26.2350 F120.00
G01 X32.1953 Y-26.2291 F120.00
G01 X32.1856 Y-26.2235 F120.00
G01 X32.1757 Y-26.2185 F120.00
G01 X32.1655 Y-26.2140 F120.00
G01 X32.1552 Y-26.2099 F120.00
G01 X32.1153 Y-26.1967 F120.00
G01 X32.1046 Y-26.1937 F120.00
G01 X32.0938 Y-26.1912 F120.00
G01 X32.0774 Y-26.1886 F120.00
G01 X32.0609 Y-26.1871 F120.00
G01 X32.0498 Y-26.1868 F120.00
G01 X32.0387 Y-26.1871 F120.00
G01 X32.0221 Y-26.1885 F120.00
G01 X32.0112 Y-26.1901 F120.00
G01 X32.0003 Y-26.1923 F120.00
G01 X31.9842 Y-26.1965 F120.00
G01 X31.9737 Y-26.2000 F120.00
G01 X31.9634 Y-26.2040 F120.00
G01 X31.9287 Y-26.2183 F120.00
G01 X31.9137 Y-26.2252 F120.00
G01 X31.9039 Y-26.2304 F120.00
G01 X31.8945 Y-26.2361 F120.00
G01 X31.8853 Y-26.2422 F120.00
G01 X31.8721 Y-26.2523 F120.00
G01 X31.8597 Y-26.2632 F120.00
G01 X31.8519 Y-26.2710 F120.00
G01 X31.8445 Y-26.2792 F120.00
G01 X31.8375 Y-26.2878 F120.00
G01 X31.8309 Y-26.2966 F120.00
G01 X31.8248 Y-26.3058 F120.00
G01 X31.8191 Y-26.3153 F120.00
G01 X31.8139 Y-26.3250 F120.00
G01 X31.8070 Y-26.3401 F120.00
G01 X31.7906 Y-26.3799 F120.00
G01 X31.7852 Y-26.3955 F120.00
G01 X31.7810 Y-26.4115 F120.00
G01 X31.7788 Y-26.4224 F120.00
G01 X31.7772 Y-26.4333 F120.00
G01 X31.7758 Y-26.4498 F120.00
G01 X31.7755 Y-26.4608 F120.00
G01 X31.7755 Y-27.9358 F120.00
G01 X31.7734 Y-27.9553 F120.00
G01 X31.7443 Y-28.0334 F120.00
G01 X31.6968 Y-28.0968 F120.00
G01 X31.6334 Y-28.1443 F120.00
G01 X31.5553 Y-28.1734 F120.00
G01 X31.5358 Y-28.1755 F120.00
G01 X30.4642 Y-28.1755 F120.00
G01 X30.4447 Y-28.1734 F120.00
G01 X30.3666 Y-28.1443 F120.00
G01 X30.3032 Y-28.0968 F120.00
G01 X30.2556 Y-28.0332 F120.00
G01 X30.2478 Y-28.0150 F120.00
G01 X30.2400 Y-28.0000 F120.00
G01 X30.2310 Y-27.9855 F120.00
G01 X30.2244 Y-27.9763 F120.00
G01 X30.2174 Y-27.9674 F120.00
G01 X30.2099 Y-27.9589 F120.00
G01 X30.2020 Y-27.9507 F120.00
G01 X30.1664 Y-27.9176 F120.00
G01 X30.1536 Y-27.9070 F120.00
G01 X30.1400 Y-27.8975 F120.00
G01 X30.1306 Y-27.8917 F120.00
G01 X30.1210 Y-27.8863 F120.00
G01 X30.1110 Y-27.8815 F120.00
G01 X30.1009 Y-27.8771 F120.00
G01 X30.0906 Y-27.8733 F120.00
G01 X30.0800 Y-27.8699 F120.00
G01 X30.0694 Y-27.8671 F120.00
G01 X30.0586 Y-27.8648 F120.00
G01 X30.0422 Y-27.8623 F120.00
G01 X30.0312 Y-27.8614 F120.00
G01 X30.0201 Y-27.8610 F120.00
G01 X30.0091 Y-27.8611 F120.00
G01 X29.9606 Y-27.8631 F120.00
G01 X29.9441 Y-27.8651 F120.00
G01 X29.9279 Y-27.8683 F120.00
G01 X29.9119 Y-27.8727 F120.00
G01 X29.8963 Y-27.8783 F120.00
G01 X29.8812 Y-27.8850 F120.00
G01 X29.8666 Y-27.8928 F120.00
G01 X29.8526 Y-27.9016 F120.00
G01 X29.8436 Y-27.9081 F120.00
G01 X29.8308 Y-27.9186 F120.00
G01 X29.8188 Y-27.9300 F120.00
G01 X29.7857 Y-27.9655 F120.00
G01 X29.7752 Y-27.9783 F120.00
G01 X29.7656 Y-27.9918 F120.00
G01 X29.7571 Y-28.0060 F120.00
G01 X29.7496 Y-28.0208 F120.00
G01 X29.7444 Y-28.0333 F120.00
G01 X29.6968 Y-28.0968 F120.00
G01 X29.6334 Y-28.1443 F120.00
G01 X29.5553 Y-28.1734 F120.00
G01 X29.5358 Y-28.1755 F120.00
G01 X29.1334 Y-28.1755 F120.00
G01 X29.1169 Y-28.1761 F120.00
G01 X29.1059 Y-28.1772 F120.00
G01 X29.0949 Y-28.1788 F120.00
G01 X29.0787 Y-28.1822 F120.00
G01 X29.0681 Y-28.1852 F120.00
G01 X29.0576 Y-28.1887 F120.00
G01 X29.0473 Y-28.1926 F120.00
G01 X29.0127 Y-28.2070 F120.00
G01 X28.9976 Y-28.2139 F120.00
G01 X28.9831 Y-28.2219 F120.00
G01 X28.9692 Y-28.2309 F120.00
G01 X28.9603 Y-28.2375 F120.00
G01 X28.9477 Y-28.2481 F120.00
G01 X28.9397 Y-28.2558 F120.00
G01 X28.9284 Y-28.2679 F120.00
G01 X28.9180 Y-28.2808 F120.00
G01 X28.9117 Y-28.2898 F120.00
G01 X28.9030 Y-28.3039 F120.00
G01 X28.8954 Y-28.3186 F120.00
G01 X28.8765 Y-28.3634 F120.00
G01 X28.8708 Y-28.3789 F120.00
G01 X28.8676 Y-28.3895 F120.00
G01 X28.8649 Y-28.4002 F120.00
G01 X28.8627 Y-28.4110 F120.00
G01 X28.8605 Y-28.4274 F120.00
G01 X28.8597 Y-28.4385 F120.00
G01 X28.8594 Y-28.4495 F120.00
G01 X28.8597 Y-28.4605 F120.00
G01 X28.8611 Y-28.4770 F120.00
G01 X28.8627 Y-28.4880 F120.00
G01 X28.8649 Y-28.4988 F120.00
G01 X28.8691 Y-28.5148 F120.00
G01 X28.8726 Y-28.5253 F120.00
G01 X28.8765 Y-28.5356 F120.00
G01 X28.8931 Y-28.5753 F120.00
G01 X28.9003 Y-28.5902 F120.00
G01 X28.9058 Y-28.5998 F120.00
G01 X28.9148 Y-28.6137 F120.00
G01 X28.9214 Y-28.6226 F120.00
G01 X28.9320 Y-28.6352 F120.00
G01 X28.9397 Y-28.6432 F120.00
G01 X29.6946 Y-29.3981 F120.00
G01 X29.7070 Y-29.4091 F120.00
G01 X29.7157 Y-29.4159 F120.00
G01 X29.7294 Y-29.4252 F120.00
G01 X29.7389 Y-29.4309 F120.00
G01 X29.7486 Y-29.4361 F120.00
G01 X29.7586 Y-29.4408 F120.00
G01 X29.8086 Y-29.4613 F120.00
G01 X29.8244 Y-29.4663 F120.00
G01 X29.8351 Y-29.4690 F120.00
G01 X29.8459 Y-29.4712 F120.00
G01 X29.8624 Y-29.4734 F120.00
G01 X29.8734 Y-29.4742 F120.00
G01 X29.8844 Y-29.4745 F120.00
G01 X31.9635 Y-29.4745 F120.00
G01 X32.0304 Y-29.4813 F120.00
G01 X32.1486 Y-29.5205 F120.00
G01 X32.2532 Y-29.5850 F120.00
G01 X32.3400 Y-29.6718 F120.00
G01 X32.4045 Y-29.7764 F120.00
G01 X32.4437 Y-29.8946 F120.00
G01 X32.4505 Y-29.9615 F120.00
G01 X32.4505 Y-30.9385 F120.00
G01 X32.4437 Y-31.0054 F120.00
G01 X32.4045 Y-31.1236 F120.00
G01 X32.3400 Y-31.2282 F120.00
G01 X32.2532 Y-31.3150 F120.00
G01 X32.1486 Y-31.3795 F120.00
G01 X32.0304 Y-31.4187 F120.00
G01 X31.9635 Y-31.4255 F120.00
G01 X29.0365 Y-31.4255 F120.00
G01 X28.9696 Y-31.4187 F120.00
G01 X28.8514 Y-31.3795 F120.00
G01 X28.7468 Y-31.3150 F120.00
G01 X28.6600 Y-31.2282 F120.00
G01 X28.5955 Y-31.1236 F120.00
G01 X28.5563 Y-31.0054 F120.00
G01 X28.5495 Y-30.9385 F120.00
G01 X28.5495 Y-30.5600 F120.00
G01 X28.5489 Y-30.5435 F120.00
G01 X28.5478 Y-30.5325 F120.00
G01 X28.5462 Y-30.5216 F120.00
G01 X28.5428 Y-30.5054 F120.00
G01 X28.5398 Y-30.4947 F120.00
G01 X28.5344 Y-30.4790 F120.00
G01 X28.5158 Y-30.4342 F120.00
G01 X28.5086 Y-30.4193 F120.00
G01 X28.5002 Y-30.4050 F120.00
G01 X28.4941 Y-30.3958 F120.00
G01 X28.4875 Y-30.3869 F120.00
G01 X28.4769 Y-30.3743 F120.00
G01 X28.4182 Y-30.3153 F120.00
G01 X28.4102 Y-30.3077 F120.00
G01 X28.4019 Y-30.3004 F120.00
G01 X28.3932 Y-30.2937 F120.00
G01 X28.3795 Y-30.2843 F120.00
G01 X28.3652 Y-30.2759 F120.00
G01 X28.3503 Y-30.2687 F120.00
G01 X28.3055 Y-30.2501 F120.00
G01 X28.2951 Y-30.2464 F120.00
G01 X28.2845 Y-30.2432 F120.00
G01 X28.2738 Y-30.2405 F120.00
G01 X28.2630 Y-30.2383 F120.00
G01 X28.2466 Y-30.2361 F120.00
G01 X28.2300 Y-30.2351 F120.00
G01 X28.2190 Y-30.2351 F120.00
G01 X28.2079 Y-30.2356 F120.00
G01 X28.1915 Y-30.2375 F120.00
G01 X28.1752 Y-30.2405 F120.00
G01 X28.1592 Y-30.2447 F120.00
G01 X28.1487 Y-30.2482 F120.00
G01 X28.1384 Y-30.2521 F120.00
G01 X28.0987 Y-30.2687 F120.00
G01 X28.0838 Y-30.2759 F120.00
G01 X28.0742 Y-30.2814 F120.00
G01 X28.0648 Y-30.2873 F120.00
G01 X28.0558 Y-30.2937 F120.00
G01 X28.0471 Y-30.3004 F120.00
G01 X28.0388 Y-30.3077 F120.00
G01 X28.0308 Y-30.3153 F120.00
G01 X28.0195 Y-30.3274 F120.00
G01 X28.0091 Y-30.3403 F120.00
G01 X27.9998 Y-30.3540 F120.00
G01 X27.9914 Y-30.3683 F120.00
G01 X27.9842 Y-30.3832 F120.00
G01 X27.9637 Y-30.4332 F120.00
G01 X27.9602 Y-30.4437 F120.00
G01 X27.9572 Y-30.4544 F120.00
G01 X27.9538 Y-30.4706 F120.00
G01 X27.9516 Y-30.4870 F120.00
G01 X27.9506 Y-30.5035 F120.00
G01 X27.9505 Y-30.9385 F120.00
G01 X27.9437 Y-31.0054 F120.00
G01 X27.9045 Y-31.1236 F120.00
G01 X27.8400 Y-31.2282 F120.00
G01 X27.7532 Y-31.3150 F120.00
G01 X27.6486 Y-31.3795 F120.00
G01 X27.5304 Y-31.4187 F120.00
G01 X27.4635 Y-31.4255 F120.00
G01 X27.0495 Y-31.4255 F120.00
G01 X27.0329 Y-31.4261 F120.00
G01 X27.0220 Y-31.4272 F120.00
G01 X27.0056 Y-31.4298 F120.00
G01 X26.9948 Y-31.4322 F120.00
G01 X26.9842 Y-31.4352 F120.00
G01 X26.9685 Y-31.4406 F120.00
G01 X26.9287 Y-31.4570 F120.00
G01 X26.9137 Y-31.4639 F120.00
G01 X26.8992 Y-31.4719 F120.00
G01 X26.8853 Y-31.4809 F120.00
G01 X26.8721 Y-31.4909 F120.00
G01 X26.8597 Y-31.5019 F120.00
G01 X26.8481 Y-31.5138 F120.00
G01 X26.8375 Y-31.5264 F120.00
G01 X26.8278 Y-31.5398 F120.00
G01 X26.8191 Y-31.5539 F120.00
G01 X26.8115 Y-31.5687 F120.00
G01 X26.7926 Y-31.6134 F120.00
G01 X26.7887 Y-31.6237 F120.00
G01 X26.7837 Y-31.6395 F120.00
G01 X26.7810 Y-31.6502 F120.00
G01 X26.7779 Y-31.6665 F120.00
G01 X26.7761 Y-31.6829 F120.00
G01 X26.7755 Y-31.6995 F120.00
G01 X26.7755 Y-32.0653 F120.00
G01 X26.7761 Y-32.0818 F120.00
G01 X26.7772 Y-32.0928 F120.00
G01 X26.7788 Y-32.1038 F120.00
G01 X26.7810 Y-32.1146 F120.00
G01 X26.7852 Y-32.1306 F120.00
G01 X26.7887 Y-32.1411 F120.00
G01 X26.7926 Y-32.1514 F120.00
G01 X26.8070 Y-32.1860 F120.00
G01 X26.8139 Y-32.2011 F120.00
G01 X26.8219 Y-32.2156 F120.00
G01 X26.8309 Y-32.2295 F120.00
G01 X26.8409 Y-32.2427 F120.00
G01 X26.8481 Y-32.2510 F120.00
G01 X26.8558 Y-32.2590 F120.00
G01 X27.2449 Y-32.6481 F120.00
G01 X27.2573 Y-32.6591 F120.00
G01 X27.2705 Y-32.6691 F120.00
G01 X27.2844 Y-32.6781 F120.00
G01 X27.2940 Y-32.6836 F120.00
G01 X27.3089 Y-32.6908 F120.00
G01 X27.3486 Y-32.7074 F120.00
G01 X27.3589 Y-32.7113 F120.00
G01 X27.3694 Y-32.7148 F120.00
G01 X27.3854 Y-32.7190 F120.00
G01 X27.4017 Y-32.7221 F120.00
G01 X27.4127 Y-32.7234 F120.00
G01 X27.4292 Y-32.7244 F120.00
G01 X29.5764 Y-32.7245 F120.00
G01 X29.7262 Y-32.7543 F120.00
G01 X29.8673 Y-32.8128 F120.00
G01 X29.9944 Y-32.8976 F120.00
G01 X31.1024 Y-34.0056 F120.00
G01 X31.1872 Y-34.1327 F120.00
G01 X31.2457 Y-34.2738 F120.00
G01 X31.2755 Y-34.4236 F120.00
G01 X31.2755 Y-35.3005 F120.00
G01 X31.2758 Y-35.3115 F120.00
G01 X31.2772 Y-35.3280 F120.00
G01 X31.2798 Y-35.3444 F120.00
G01 X31.2837 Y-35.3605 F120.00
G01 X31.2887 Y-35.3763 F120.00
G01 X31.2926 Y-35.3866 F120.00
G01 X31.3115 Y-35.4313 F120.00
G01 X31.3191 Y-35.4461 F120.00
G01 X31.3248 Y-35.4555 F120.00
G01 X31.3309 Y-35.4647 F120.00
G01 X31.3375 Y-35.4736 F120.00
G01 X31.3445 Y-35.4821 F120.00
G01 X31.3519 Y-35.4903 F120.00
G01 X31.3597 Y-35.4981 F120.00
G01 X31.3679 Y-35.5055 F120.00
G01 X31.3808 Y-35.5159 F120.00
G01 X31.3898 Y-35.5222 F120.00
G01 X31.3992 Y-35.5281 F120.00
G01 X31.4088 Y-35.5336 F120.00
G01 X31.4237 Y-35.5408 F120.00
G01 X31.4685 Y-35.5594 F120.00
G01 X31.4789 Y-35.5631 F120.00
G01 X31.4895 Y-35.5663 F120.00
G01 X31.5056 Y-35.5702 F120.00
G01 X31.5165 Y-35.5721 F120.00
G01 X31.5274 Y-35.5734 F120.00
G01 X31.5385 Y-35.5742 F120.00
G01 X31.5495 Y-35.5745 F120.00
G01 X31.9635 Y-35.5745 F120.00
G01 X32.0304 Y-35.5813 F120.00
G01 X32.1486 Y-35.6205 F120.00
G01 X32.2532 Y-35.6850 F120.00
G01 X32.3400 Y-35.7718 F120.00
G01 X32.4045 Y-35.8764 F120.00
G01 X32.4437 Y-35.9946 F120.00
G01 X32.4505 Y-36.0615 F120.00
G01 X32.4505 Y-37.0385 F120.00
G01 X32.4437 Y-37.1054 F120.00
G01 X32.4045 Y-37.2236 F120.00
G01 X32.3400 Y-37.3282 F120.00
G01 X32.2532 Y-37.4150 F120.00
G01 X32.1486 Y-37.4795 F120.00
G01 X32.0304 Y-37.5187 F120.00
G01 X31.9635 Y-37.5255 F120.00
G01 X29.0365 Y-37.5255 F120.00
G01 X28.9696 Y-37.5187 F120.00
G01 X28.8514 Y-37.4795 F120.00
G01 X28.7468 Y-37.4150 F120.00
G01 X28.6600 Y-37.3282 F120.00
G01 X28.5955 Y-37.2236 F120.00
G01 X28.5563 Y-37.1054 F120.00
G01 X28.5495 Y-37.0385 F120.00
G01 X28.5495 Y-36.0614 F120.00
G01 X28.5563 Y-35.9946 F120.00
G01 X28.5955 Y-35.8764 F120.00
G01 X28.6600 Y-35.7718 F120.00
G01 X28.7468 Y-35.6850 F120.00
G01 X28.8514 Y-35.6205 F120.00
G01 X28.9696 Y-35.5813 F120.00
G01 X29.0365 Y-35.5745 F120.00
G01 X29.4505 Y-35.5745 F120.00
G01 X29.4671 Y-35.5739 F120.00
G01 X29.4835 Y-35.5721 F120.00
G01 X29.4944 Y-35.5702 F120.00
G01 X29.5052 Y-35.5678 F120.00
G01 X29.5211 Y-35.5631 F120.00
G01 X29.5366 Y-35.5574 F120.00
G01 X29.5813 Y-35.5385 F120.00
G01 X29.5912 Y-35.5336 F120.00
G01 X29.6008 Y-35.5281 F120.00
G01 X29.6147 Y-35.5191 F120.00
G01 X29.6236 Y-35.5125 F120.00
G01 X29.6321 Y-35.5055 F120.00
G01 X29.6442 Y-35.4942 F120.00
G01 X29.6519 Y-35.4862 F120.00
G01 X29.6591 Y-35.4779 F120.00
G01 X29.6659 Y-35.4692 F120.00
G01 X29.6722 Y-35.4602 F120.00
G01 X29.6781 Y-35.4508 F120.00
G01 X29.6836 Y-35.4412 F120.00
G01 X29.6908 Y-35.4263 F120.00
G01 X29.7094 Y-35.3815 F120.00
G01 X29.7148 Y-35.3658 F120.00
G01 X29.7190 Y-35.3498 F120.00
G01 X29.7212 Y-35.3390 F120.00
G01 X29.7228 Y-35.3280 F120.00
G01 X29.7242 Y-35.3115 F120.00
G01 X29.7245 Y-35.3005 F120.00
G01 X29.7245 Y-34.9347 F120.00
G01 X29.7242 Y-34.9237 F120.00
G01 X29.7234 Y-34.9127 F120.00
G01 X29.7212 Y-34.8962 F120.00
G01 X29.7190 Y-34.8854 F120.00
G01 X29.7163 Y-34.8747 F120.00
G01 X29.7113 Y-34.8589 F120.00
G01 X29.6908 Y-34.8089 F120.00
G01 X29.6861 Y-34.7989 F120.00
G01 X29.6781 Y-34.7844 F120.00
G01 X29.6722 Y-34.7751 F120.00
G01 X29.6625 Y-34.7616 F120.00
G01 X29.6555 Y-34.7531 F120.00
G01 X29.6442 Y-34.7410 F120.00
G01 X29.2590 Y-34.3558 F120.00
G01 X29.2510 Y-34.3481 F120.00
G01 X29.2384 Y-34.3375 F120.00
G01 X29.2249 Y-34.3278 F120.00
G01 X29.2156 Y-34.3219 F120.00
G01 X29.2011 Y-34.3139 F120.00
G01 X29.1860 Y-34.3070 F120.00
G01 X29.1463 Y-34.2906 F120.00
G01 X29.1306 Y-34.2852 F120.00
G01 X29.1146 Y-34.2810 F120.00
G01 X29.0983 Y-34.2779 F120.00
G01 X29.0873 Y-34.2766 F120.00
G01 X29.0763 Y-34.2758 F120.00
G01 X29.0653 Y-34.2755 F120.00
G01 X26.9236 Y-34.2755 F120.00
G01 X26.7738 Y-34.2457 F120.00
G01 X26.6327 Y-34.1872 F120.00
G01 X26.5056 Y-34.1024 F120.00
G01 X25.3976 Y-32.9944 F120.00
G01 X25.3128 Y-32.8673 F120.00
G01 X25.2543 Y-32.7262 F120.00
G01 X25.2245 Y-32.5764 F120.00
G01 X25.2245 Y-31.6995 F120.00
G01 X25.2239 Y-31.6829 F120.00
G01 X25.2228 Y-31.6720 F120.00
G01 X25.2212 Y-31.6610 F120.00
G01 X25.2190 Y-31.6502 F120.00
G01 X25.2163 Y-31.6395 F120.00
G01 X25.2113 Y-31.6237 F120.00
G01 X25.2074 Y-31.6134 F120.00
G01 X25.1930 Y-31.5787 F120.00
G01 X25.1861 Y-31.5637 F120.00
G01 X25.1781 Y-31.5492 F120.00
G01 X25.1691 Y-31.5353 F120.00
G01 X25.1625 Y-31.5264 F120.00
G01 X25.1519 Y-31.5138 F120.00
G01 X25.1403 Y-31.5019 F120.00
G01 X25.1321 Y-31.4945 F120.00
G01 X25.1192 Y-31.4841 F120.00
G01 X25.1055 Y-31.4748 F120.00
G01 X25.0961 Y-31.4691 F120.00
G01 X25.0813 Y-31.4615 F120.00
G01 X25.0366 Y-31.4426 F120.00
G01 X25.0263 Y-31.4387 F120.00
G01 X25.0158 Y-31.4352 F120.00
G01 X24.9998 Y-31.4310 F120.00
G01 X24.9890 Y-31.4288 F120.00
G01 X24.9780 Y-31.4272 F120.00
G01 X24.9671 Y-31.4261 F120.00
G01 X24.9505 Y-31.4255 F120.00
G01 X24.5365 Y-31.4255 F120.00
G01 X24.4696 Y-31.4187 F120.00
G01 X24.3514 Y-31.3795 F120.00
G01 X24.2468 Y-31.3150 F120.00
G01 X24.2296 Y-31.2981 F120.00
G01 X24.2212 Y-31.2909 F120.00
G01 X24.2125 Y-31.2841 F120.00
G01 X24.2035 Y-31.2778 F120.00
G01 X24.1942 Y-31.2719 F120.00
G01 X24.1845 Y-31.2664 F120.00
G01 X24.1747 Y-31.2615 F120.00
G01 X24.1248 Y-31.2406 F120.00
G01 X24.1144 Y-31.2369 F120.00
G01 X24.1038 Y-31.2337 F120.00
G01 X24.0877 Y-31.2298 F120.00
G01 X24.0769 Y-31.2279 F120.00
G01 X24.0659 Y-31.2266 F120.00
G01 X24.0494 Y-31.2256 F120.00
G01 X23.4562 Y-31.2255 F120.00
G01 X23.4451 Y-31.2258 F120.00
G01 X23.4341 Y-31.2266 F120.00
G01 X23.4177 Y-31.2288 F120.00
G01 X23.4069 Y-31.2310 F120.00
G01 X23.3962 Y-31.2337 F120.00
G01 X23.3856 Y-31.2369 F120.00
G01 X23.3752 Y-31.2406 F120.00
G01 X23.3303 Y-31.2592 F120.00
G01 X23.3204 Y-31.2639 F120.00
G01 X23.3106 Y-31.2691 F120.00
G01 X23.2965 Y-31.2778 F120.00
G01 X23.2831 Y-31.2875 F120.00
G01 X23.2704 Y-31.2981 F120.00
G01 X23.2532 Y-31.3150 F120.00
G01 X23.1486 Y-31.3795 F120.00
G01 X23.0304 Y-31.4187 F120.00
G01 X22.9635 Y-31.4255 F120.00
G01 X20.0365 Y-31.4255 F120.00
G01 X19.9696 Y-31.4187 F120.00
G01 X19.8514 Y-31.3795 F120.00
G01 X19.7468 Y-31.3150 F120.00
G01 X19.6600 Y-31.2282 F120.00
G01 X19.5955 Y-31.1236 F120.00
G01 X19.5563 Y-31.0054 F120.00
G01 X19.5495 Y-30.9385 F120.00
G01 X19.5495 Y-29.9614 F120.00
G01 X19.5563 Y-29.8946 F120.00
G01 X19.5955 Y-29.7764 F120.00
G01 X19.6600 Y-29.6718 F120.00
G01 X19.7468 Y-29.5850 F120.00
G01 X19.8514 Y-29.5205 F120.00
G01 X19.9696 Y-29.4813 F120.00
G01 X20.0365 Y-29.4745 F120.00
G01 X22.9635 Y-29.4745 F120.00
G01 X23.0304 Y-29.4813 F120.00
G01 X23.1486 Y-29.5205 F120.00
G01 X23.2532 Y-29.5850 F120.00
G01 X23.2704 Y-29.6019 F120.00
G01 X23.2831 Y-29.6125 F120.00
G01 X23.2965 Y-29.6222 F120.00
G01 X23.3106 Y-29.6309 F120.00
G01 X23.3204 Y-29.6361 F120.00
G01 X23.3303 Y-29.6408 F120.00
G01 X23.3752 Y-29.6594 F120.00
G01 X23.3856 Y-29.6631 F120.00
G01 X23.3962 Y-29.6663 F120.00
G01 X23.4069 Y-29.6690 F120.00
G01 X23.4177 Y-29.6712 F120.00
G01 X23.4341 Y-29.6734 F120.00
G01 X23.4451 Y-29.6742 F120.00
G01 X23.4562 Y-29.6745 F120.00
G01 X24.0438 Y-29.6745 F120.00
G01 X24.0549 Y-29.6742 F120.00
G01 X24.0714 Y-29.6728 F120.00
G01 X24.0823 Y-29.6712 F120.00
G01 X24.0931 Y-29.6690 F120.00
G01 X24.1092 Y-29.6648 F120.00
G01 X24.1196 Y-29.6613 F120.00
G01 X24.1299 Y-29.6574 F120.00
G01 X24.1646 Y-29.6430 F120.00
G01 X24.1796 Y-29.6361 F120.00
G01 X24.1894 Y-29.6309 F120.00
G01 X24.1989 Y-29.6252 F120.00
G01 X24.2080 Y-29.6191 F120.00
G01 X24.2169 Y-29.6125 F120.00
G01 X24.2296 Y-29.6019 F120.00
G01 X24.2468 Y-29.5850 F120.00
G01 X24.3514 Y-29.5205 F120.00
G01 X24.4696 Y-29.4813 F120.00
G01 X24.5365 Y-29.4745 F120.00
G01 X26.7163 Y-29.4745 F120.00
G01 X26.7273 Y-29.4742 F120.00
G01 X26.7383 Y-29.4734 F120.00
G01 X26.7548 Y-29.4712 F120.00
G01 X26.7656 Y-29.4690 F120.00
G01 X26.7763 Y-29.4663 F120.00
G01 X26.7921 Y-29.4613 F120.00
G01 X26.8370 Y-29.4430 F120.00
G01 X26.8471 Y-29.4385 F120.00
G01 X26.8570 Y-29.4336 F120.00
G01 X26.8666 Y-29.4281 F120.00
G01 X26.8759 Y-29.4222 F120.00
G01 X26.8850 Y-29.4159 F120.00
G01 X26.8937 Y-29.4091 F120.00
G01 X26.9020 Y-29.4019 F120.00
G01 X26.9100 Y-29.3942 F120.00
G01 X26.9176 Y-29.3862 F120.00
G01 X26.9249 Y-29.3779 F120.00
G01 X26.9317 Y-29.3692 F120.00
G01 X26.9380 Y-29.3602 F120.00
G01 X26.9467 Y-29.3461 F120.00
G01 X26.9519 Y-29.3363 F120.00
G01 X26.9588 Y-29.3213 F120.00
G01 X26.9732 Y-29.2866 F120.00
G01 X26.9789 Y-29.2711 F120.00
G01 X26.9821 Y-29.2605 F120.00
G01 X26.9848 Y-29.2498 F120.00
G01 X26.9870 Y-29.2390 F120.00
G01 X26.9886 Y-29.2280 F120.00
G01 X26.9897 Y-29.2171 F120.00
G01 X26.9902 Y-29.2060 F120.00
G01 X26.9902 Y-29.1950 F120.00
G01 X26.9897 Y-29.1839 F120.00
G01 X26.9886 Y-29.1730 F120.00
G01 X26.9870 Y-29.1620 F120.00
G01 X26.9835 Y-29.1458 F120.00
G01 X26.9789 Y-29.1299 F120.00
G01 X26.9732 Y-29.1144 F120.00
G01 X26.9566 Y-29.0747 F120.00
G01 X26.9494 Y-29.0598 F120.00
G01 X26.9410 Y-29.0455 F120.00
G01 X26.9349 Y-29.0363 F120.00
G01 X26.9283 Y-29.0274 F120.00
G01 X26.9213 Y-29.0189 F120.00
G01 X26.9100 Y-29.0068 F120.00
G01 X26.3976 Y-28.4944 F120.00
G01 X26.3128 Y-28.3673 F120.00
G01 X26.2543 Y-28.2262 F120.00
G01 X26.2357 Y-28.1329 F120.00
G01 X26.2315 Y-28.1169 F120.00
G01 X26.2261 Y-28.1014 F120.00
G01 X26.2197 Y-28.0862 F120.00
G01 X26.2147 Y-28.0764 F120.00
G01 X26.2094 Y-28.0668 F120.00
G01 X26.1848 Y-28.0279 F120.00
G01 X26.1752 Y-28.0145 F120.00
G01 X26.1682 Y-28.0059 F120.00
G01 X26.1608 Y-27.9978 F120.00
G01 X26.1531 Y-27.9900 F120.00
G01 X26.1407 Y-27.9790 F120.00
G01 X26.1276 Y-27.9689 F120.00
G01 X26.1185 Y-27.9628 F120.00
G01 X26.1091 Y-27.9571 F120.00
G01 X26.0994 Y-27.9519 F120.00
G01 X26.0894 Y-27.9471 F120.00
G01 X26.0793 Y-27.9429 F120.00
G01 X26.0637 Y-27.9374 F120.00
G01 X26.0167 Y-27.9252 F120.00
G01 X26.0060 Y-27.9227 F120.00
G01 X25.9951 Y-27.9208 F120.00
G01 X25.9786 Y-27.9189 F120.00
G01 X25.9621 Y-27.9182 F120.00
G01 X25.9511 Y-27.9184 F120.00
G01 X25.9400 Y-27.9192 F120.00
G01 X25.9236 Y-27.9213 F120.00
G01 X25.9074 Y-27.9247 F120.00
G01 X25.8967 Y-27.9276 F120.00
G01 X25.8862 Y-27.9310 F120.00
G01 X25.8708 Y-27.9371 F120.00
G01 X25.8608 Y-27.9417 F120.00
G01 X25.8511 Y-27.9469 F120.00
G01 X25.8047 Y-27.9747 F120.00
G01 X25.7912 Y-27.9843 F120.00
G01 X25.7785 Y-27.9949 F120.00
G01 X25.7705 Y-28.0025 F120.00
G01 X25.7628 Y-28.0105 F120.00
G01 X25.7521 Y-28.0231 F120.00
G01 X25.6968 Y-28.0968 F120.00
G01 X25.6334 Y-28.1443 F120.00
G01 X25.5553 Y-28.1734 F120.00
G01 X25.5358 Y-28.1755 F120.00
G01 X24.4642 Y-28.1755 F120.00
G01 X24.4447 Y-28.1734 F120.00
G01 X24.3666 Y-28.1443 F120.00
G01 X24.3032 Y-28.0968 F120.00
G01 X24.2556 Y-28.0332 F120.00
G01 X24.2478 Y-28.0150 F120.00
G01 X24.2400 Y-28.0000 F120.00
G01 X24.2310 Y-27.9855 F120.00
G01 X24.2209 Y-27.9718 F120.00
G01 X24.2099 Y-27.9589 F120.00
G01 X24.1979 Y-27.9468 F120.00
G01 X24.1664 Y-27.9176 F120.00
G01 X24.1579 Y-27.9104 F120.00
G01 X24.1491 Y-27.9037 F120.00
G01 X24.1354 Y-27.8945 F120.00
G01 X24.1210 Y-27.8863 F120.00
G01 X24.1060 Y-27.8792 F120.00
G01 X24.0957 Y-27.8751 F120.00
G01 X24.0853 Y-27.8715 F120.00
G01 X24.0694 Y-27.8671 F120.00
G01 X24.0531 Y-27.8638 F120.00
G01 X24.0367 Y-27.8618 F120.00
G01 X24.0201 Y-27.8610 F120.00
G01 X24.0091 Y-27.8611 F120.00
G01 X23.9606 Y-27.8631 F120.00
G01 X23.9441 Y-27.8651 F120.00
G01 X23.9279 Y-27.8683 F120.00
G01 X23.9172 Y-27.8711 F120.00
G01 X23.9067 Y-27.8744 F120.00
G01 X23.8912 Y-27.8804 F120.00
G01 X23.8812 Y-27.8850 F120.00
G01 X23.8714 Y-27.8900 F120.00
G01 X23.8572 Y-27.8985 F120.00
G01 X23.8480 Y-27.9048 F120.00
G01 X23.8392 Y-27.9115 F120.00
G01 X23.8308 Y-27.9186 F120.00
G01 X23.8227 Y-27.9261 F120.00
G01 X23.7894 Y-27.9614 F120.00
G01 X23.7786 Y-27.9739 F120.00
G01 X23.7687 Y-27.9872 F120.00
G01 X23.7598 Y-28.0012 F120.00
G01 X23.7520 Y-28.0158 F120.00
G01 X23.7444 Y-28.0333 F120.00
G01 X23.6968 Y-28.0968 F120.00
G01 X23.6334 Y-28.1443 F120.00
G01 X23.5553 Y-28.1734 F120.00
G01 X23.5358 Y-28.1755 F120.00
G01 X22.4642 Y-28.1755 F120.00
G01 X22.4447 Y-28.1734 F120.00
G01 X22.3666 Y-28.1443 F120.00
G01 X22.3032 Y-28.0968 F120.00
G01 X22.2556 Y-28.0332 F120.00
G01 X22.2478 Y-28.0150 F120.00
G01 X22.2400 Y-28.0000 F120.00
G01 X22.2310 Y-27.9855 F120.00
G01 X22.2209 Y-27.9718 F120.00
G01 X22.2099 Y-27.9589 F120.00
G01 X22.1979 Y-27.9468 F120.00
G01 X22.1664 Y-27.9176 F120.00
G01 X22.1579 Y-27.9104 F120.00
G01 X22.1491 Y-27.9037 F120.00
G01 X22.1354 Y-27.8945 F120.00
G01 X22.1210 Y-27.8863 F120.00
G01 X22.1060 Y-27.8792 F120.00
G01 X22.0906 Y-27.8733 F120.00
G01 X22.0747 Y-27.8684 F120.00
G01 X22.0586 Y-27.8648 F120.00
G01 X22.0476 Y-27.8630 F120.00
G01 X22.0367 Y-27.8618 F120.00
G01 X22.0201 Y-27.8610 F120.00
G01 X22.0091 Y-27.8611 F120.00
G01 X21.9606 Y-27.8631 F120.00
G01 X21.9441 Y-27.8651 F120.00
G01 X21.9279 Y-27.8683 F120.00
G01 X21.9172 Y-27.8711 F120.00
G01 X21.9067 Y-27.8744 F120.00
G01 X21.8963 Y-27.8783 F120.00
G01 X21.8862 Y-27.8826 F120.00
G01 X21.8762 Y-27.8875 F120.00
G01 X21.8666 Y-27.8928 F120.00
G01 X21.8526 Y-27.9016 F120.00
G01 X21.8436 Y-27.9081 F120.00
G01 X21.8350 Y-27.9150 F120.00
G01 X21.8227 Y-27.9261 F120.00
G01 X21.7894 Y-27.9614 F120.00
G01 X21.7786 Y-27.9739 F120.00
G01 X21.7687 Y-27.9872 F120.00
G01 X21.7598 Y-28.0012 F120.00
G01 X21.7520 Y-28.0158 F120.00
G01 X21.7444 Y-28.0333 F120.00
G01 X21.6968 Y-28.0968 F120.00
G01 X21.6334 Y-28.1443 F120.00
G01 X21.5553 Y-28.1734 F120.00
G01 X21.5358 Y-28.1755 F120.00
G01 X20.4642 Y-28.1755 F120.00
G01 X20.4447 Y-28.1734 F120.00
G01 X20.3666 Y-28.1443 F120.00
G01 X20.3032 Y-28.0968 F120.00
G01 X20.2557 Y-28.0334 F120.00
G01 X20.2266 Y-27.9553 F120.00
G01 X20.2245 Y-27.9358 F120.00
G01 X20.2244 Y-26.4559 F120.00
G01 X20.2239 Y-26.4448 F120.00
G01 X20.2220 Y-26.4282 F120.00
G01 X20.2201 Y-26.4173 F120.00
G01 X20.2162 Y-26.4010 F120.00
G01 X20.2130 Y-26.3904 F120.00
G01 X20.1995 Y-26.3506 F120.00
G01 X20.1929 Y-26.3354 F120.00
G01 X20.1879 Y-26.3255 F120.00
G01 X20.1824 Y-26.3159 F120.00
G01 X20.1733 Y-26.3020 F120.00
G01 X20.1632 Y-26.2888 F120.00
G01 X20.1559 Y-26.2804 F120.00
G01 X20.1443 Y-26.2686 F120.00
G01 X20.1318 Y-26.2576 F120.00
G01 X20.1185 Y-26.2476 F120.00
G01 X20.1093 Y-26.2415 F120.00
G01 X20.0626 Y-26.2141 F120.00
G01 X20.0477 Y-26.2069 F120.00
G01 X20.0375 Y-26.2027 F120.00
G01 X20.0218 Y-26.1974 F120.00
G01 X20.0058 Y-26.1932 F120.00
G01 X19.9949 Y-26.1911 F120.00
G01 X19.9840 Y-26.1895 F120.00
G01 X19.9675 Y-26.1882 F120.00
G01 X19.9509 Y-26.1881 F120.00
G01 X19.9399 Y-26.1886 F120.00
G01 X19.9289 Y-26.1898 F120.00
G01 X19.9180 Y-26.1914 F120.00
G01 X19.9018 Y-26.1949 F120.00
G01 X19.8655 Y-26.2042 F120.00
G01 X19.8496 Y-26.2089 F120.00
G01 X19.8341 Y-26.2147 F120.00
G01 X19.8240 Y-26.2193 F120.00
G01 X19.8142 Y-26.2243 F120.00
G01 X19.7999 Y-26.2327 F120.00
G01 X19.7834 Y-26.2443 F120.00
G01 X19.7053 Y-26.2734 F120.00
G01 X19.6858 Y-26.2755 F120.00
G01 X19.4495 Y-26.2755 F120.00
G01 X19.4385 Y-26.2758 F120.00
G01 X19.4220 Y-26.2772 F120.00
G01 X19.4056 Y-26.2798 F120.00
G01 X19.3948 Y-26.2822 F120.00
G01 X19.3789 Y-26.2869 F120.00
G01 X19.3634 Y-26.2926 F120.00
G01 X19.3237 Y-26.3092 F120.00
G01 X19.3137 Y-26.3139 F120.00
G01 X19.3039 Y-26.3191 F120.00
G01 X19.2898 Y-26.3278 F120.00
G01 X19.2764 Y-26.3375 F120.00
G01 X19.2638 Y-26.3481 F120.00
G01 X19.2558 Y-26.3558 F120.00
G01 X19.2481 Y-26.3638 F120.00
G01 X19.2375 Y-26.3764 F120.00
G01 X19.2278 Y-26.3898 F120.00
G01 X19.2191 Y-26.4039 F120.00
G01 X19.2139 Y-26.4137 F120.00
G01 X19.2092 Y-26.4237 F120.00
G01 X19.1926 Y-26.4634 F120.00
G01 X19.1869 Y-26.4789 F120.00
G01 X19.1822 Y-26.4948 F120.00
G01 X19.1788 Y-26.5110 F120.00
G01 X19.1766 Y-26.5274 F120.00
G01 X19.1756 Y-26.5440 F120.00
G01 X19.1755 Y-27.0264 F120.00
G01 X19.1457 Y-27.1762 F120.00
G01 X19.0872 Y-27.3173 F120.00
G01 X19.0024 Y-27.4444 F120.00
G01 X17.4862 Y-28.9606 F120.00
G01 X17.4788 Y-28.9688 F120.00
G01 X17.4685 Y-28.9817 F120.00
G01 X17.4621 Y-28.9906 F120.00
G01 X17.4535 Y-29.0047 F120.00
G01 X17.4483 Y-29.0143 F120.00
G01 X17.4318 Y-29.0490 F120.00
G01 X17.4273 Y-29.0590 F120.00
G01 X17.4233 Y-29.0693 F120.00
G01 X17.4198 Y-29.0798 F120.00
G01 X17.4169 Y-29.0904 F120.00
G01 X17.4144 Y-29.1011 F120.00
G01 X17.4125 Y-29.1120 F120.00
G01 X17.4111 Y-29.1229 F120.00
G01 X17.4103 Y-29.1339 F120.00
G01 X17.4100 Y-29.1449 F120.00
G01 X17.4103 Y-29.1559 F120.00
G01 X17.4110 Y-29.1669 F120.00
G01 X17.4124 Y-29.1779 F120.00
G01 X17.4153 Y-29.1941 F120.00
G01 X17.4195 Y-29.2101 F120.00
G01 X17.4337 Y-29.2565 F120.00
G01 X17.4376 Y-29.2669 F120.00
G01 X17.4445 Y-29.2819 F120.00
G01 X17.4524 Y-29.2965 F120.00
G01 X17.4614 Y-29.3104 F120.00
G01 X17.4714 Y-29.3236 F120.00
G01 X17.5509 Y-29.4210 F120.00
G01 X17.6239 Y-29.5609 F120.00
G01 X17.6677 Y-29.7139 F120.00
G01 X17.6755 Y-29.8019 F120.00
G01 X17.6755 Y-30.8981 F120.00
G01 X17.6677 Y-30.9861 F120.00
G01 X17.6239 Y-31.1392 F120.00
G01 X17.5509 Y-31.2790 F120.00
G01 X17.4512 Y-31.4012 F120.00
G01 X17.3290 Y-31.5009 F120.00
G01 X17.1891 Y-31.5739 F120.00
G01 X17.0361 Y-31.6177 F120.00
G01 X16.9481 Y-31.6255 F120.00
G01 X16.5440 Y-31.6256 F120.00
G01 X16.5329 Y-31.6261 F120.00
G01 X16.5165 Y-31.6279 F120.00
G01 X16.5056 Y-31.6298 F120.00
G01 X16.4895 Y-31.6337 F120.00
G01 X16.4737 Y-31.6387 F120.00
G01 X16.4634 Y-31.6426 F120.00
G01 X16.4237 Y-31.6592 F120.00
G01 X16.4088 Y-31.6664 F120.00
G01 X16.3945 Y-31.6748 F120.00
G01 X16.3853 Y-31.6809 F120.00
G01 X16.3721 Y-31.6909 F120.00
G01 X16.3597 Y-31.7019 F120.00
G01 X16.3481 Y-31.7138 F120.00
G01 X16.3375 Y-31.7264 F120.00
G01 X16.3278 Y-31.7398 F120.00
G01 X16.3191 Y-31.7539 F120.00
G01 X16.3139 Y-31.7637 F120.00
G01 X16.3092 Y-31.7737 F120.00
G01 X16.2926 Y-31.8134 F120.00
G01 X16.2869 Y-31.8289 F120.00
G01 X16.2822 Y-31.8448 F120.00
G01 X16.2788 Y-31.8610 F120.00
G01 X16.2772 Y-31.8720 F120.00
G01 X16.2761 Y-31.8829 F120.00
G01 X16.2755 Y-31.8995 F120.00
G01 X16.2755 Y-35.3885 F120.00
G01 X16.2761 Y-35.4048 F120.00
G01 X16.2771 Y-35.4156 F120.00
G01 X16.2787 Y-35.4264 F120.00
G01 X16.2808 Y-35.4371 F120.00
G01 X16.2834 Y-35.4476 F120.00
G01 X16.2883 Y-35.4632 F120.00
G01 X16.3009 Y-35.4990 F120.00
G01 X16.3051 Y-35.5091 F120.00
G01 X16.3121 Y-35.5238 F120.00
G01 X16.3202 Y-35.5380 F120.00
G01 X16.3293 Y-35.5515 F120.00
G01 X16.3359 Y-35.5601 F120.00
G01 X16.4364 Y-35.6852 F120.00
G01 X16.4443 Y-35.6945 F120.00
G01 X16.4527 Y-35.7033 F120.00
G01 X16.4642 Y-35.7147 F120.00
G01 X16.4726 Y-35.7223 F120.00
G01 X16.4813 Y-35.7294 F120.00
G01 X16.4904 Y-35.7361 F120.00
G01 X16.4998 Y-35.7423 F120.00
G01 X16.5095 Y-35.7481 F120.00
G01 X16.5195 Y-35.7533 F120.00
G01 X16.5297 Y-35.7581 F120.00
G01 X16.5401 Y-35.7623 F120.00
G01 X16.5508 Y-35.7660 F120.00
G01 X16.6028 Y-35.7810 F120.00
G01 X16.6136 Y-35.7833 F120.00
G01 X16.6245 Y-35.7851 F120.00
G01 X16.6355 Y-35.7863 F120.00
G01 X16.6465 Y-35.7871 F120.00
G01 X16.6576 Y-35.7872 F120.00
G01 X16.6686 Y-35.7868 F120.00
G01 X16.6851 Y-35.7852 F120.00
G01 X16.6960 Y-35.7835 F120.00
G01 X16.7068 Y-35.7812 F120.00
G01 X16.7175 Y-35.7784 F120.00
G01 X16.7280 Y-35.7751 F120.00
G01 X16.7435 Y-35.7692 F120.00
G01 X16.7585 Y-35.7622 F120.00
G01 X16.8011 Y-35.7388 F120.00
G01 X16.8105 Y-35.7331 F120.00
G01 X16.8196 Y-35.7268 F120.00
G01 X16.8284 Y-35.7202 F120.00
G01 X16.8369 Y-35.7131 F120.00
G01 X16.8450 Y-35.7056 F120.00
G01 X16.8564 Y-35.6936 F120.00
G01 X16.8636 Y-35.6852 F120.00
G01 X16.9623 Y-35.5623 F120.00
G01 X17.0726 Y-35.4737 F120.00
G01 X17.1994 Y-35.4108 F120.00
G01 X17.3411 Y-35.3755 F120.00
G01 X17.3565 Y-35.3745 F120.00
G01 X18.2435 Y-35.3745 F120.00
G01 X18.2589 Y-35.3755 F120.00
G01 X18.4006 Y-35.4108 F120.00
G01 X18.5274 Y-35.4737 F120.00
G01 X18.6377 Y-35.5623 F120.00
G01 X18.7260 Y-35.6722 F120.00
G01 X18.7339 Y-35.6815 F120.00
G01 X18.7451 Y-35.6935 F120.00
G01 X18.7531 Y-35.7013 F120.00
G01 X18.7659 Y-35.7121 F120.00
G01 X18.7749 Y-35.7188 F120.00
G01 X18.7841 Y-35.7250 F120.00
G01 X18.7937 Y-35.7308 F120.00
G01 X18.8086 Y-35.7385 F120.00
G01 X18.8586 Y-35.7594 F120.00
G01 X18.8742 Y-35.7648 F120.00
G01 X18.8902 Y-35.7690 F120.00
G01 X18.9065 Y-35.7721 F120.00
G01 X18.9230 Y-35.7739 F120.00
G01 X18.9395 Y-35.7745 F120.00
G01 X19.5438 Y-35.7745 F120.00
G01 X19.5549 Y-35.7742 F120.00
G01 X19.5659 Y-35.7734 F120.00
G01 X19.5823 Y-35.7712 F120.00
G01 X19.5931 Y-35.7690 F120.00
G01 X19.6038 Y-35.7663 F120.00
G01 X19.6144 Y-35.7631 F120.00
G01 X19.6248 Y-35.7594 F120.00
G01 X19.6697 Y-35.7408 F120.00
G01 X19.6796 Y-35.7361 F120.00
G01 X19.6894 Y-35.7309 F120.00
G01 X19.7035 Y-35.7222 F120.00
G01 X19.7169 Y-35.7125 F120.00
G01 X19.7296 Y-35.7019 F120.00
G01 X19.7468 Y-35.6850 F120.00
G01 X19.8514 Y-35.6205 F120.00
G01 X19.9696 Y-35.5813 F120.00
G01 X20.0365 Y-35.5745 F120.00
G01 X22.9635 Y-35.5745 F120.00
G01 X23.0304 Y-35.5813 F120.00
G01 X23.1486 Y-35.6205 F120.00
G01 X23.2532 Y-35.6850 F120.00
G01 X23.3400 Y-35.7718 F120.00
G01 X23.4045 Y-35.8764 F120.00
G01 X23.4437 Y-35.9946 F120.00
G01 X23.4505 Y-36.0615 F120.00
G01 X23.4505 Y-37.0385 F120.00
G01 X23.4437 Y-37.1054 F120.00
G01 X23.4045 Y-37.2236 F120.00
G01 X23.3400 Y-37.3282 F120.00
G01 X23.2532 Y-37.4150 F120.00
G01 X23.1486 Y-37.4795 F120.00
G01 X23.0304 Y-37.5187 F120.00
G01 X22.9635 Y-37.5255 F120.00
G01 X22.0040 Y-37.5256 F120.00
G01 X21.9874 Y-37.5266 F120.00
G01 X21.9765 Y-37.5279 F120.00
G01 X21.9656 Y-37.5298 F120.00
G01 X21.9495 Y-37.5337 F120.00
G01 X21.9389 Y-37.5369 F120.00
G01 X21.9234 Y-37.5426 F120.00
G01 X21.8837 Y-37.5592 F120.00
G01 X21.8737 Y-37.5639 F120.00
G01 X21.8639 Y-37.5691 F120.00
G01 X21.8498 Y-37.5778 F120.00
G01 X21.8364 Y-37.5875 F120.00
G01 X21.8238 Y-37.5981 F120.00
G01 X21.8119 Y-37.6097 F120.00
G01 X21.8009 Y-37.6221 F120.00
G01 X21.7909 Y-37.6353 F120.00
G01 X21.7819 Y-37.6492 F120.00
G01 X21.7739 Y-37.6637 F120.00
G01 X21.7670 Y-37.6787 F120.00
G01 X21.7487 Y-37.7237 F120.00
G01 X21.7437 Y-37.7395 F120.00
G01 X21.7398 Y-37.7556 F120.00
G01 X21.7379 Y-37.7665 F120.00
G01 X21.7366 Y-37.7774 F120.00
G01 X21.7358 Y-37.7885 F120.00
G01 X21.7355 Y-37.7995 F120.00
G01 X21.7355 Y-43.5858 F120.00
G01 X21.7334 Y-43.6053 F120.00
G01 X21.7043 Y-43.6834 F120.00
G01 X21.6568 Y-43.7468 F120.00
G01 X21.5934 Y-43.7943 F120.00
G01 X21.5153 Y-43.8234 F120.00
G01 X21.4958 Y-43.8255 F120.00
G01 X20.4242 Y-43.8255 F120.00
G01 X20.4048 Y-43.8234 F120.00
G01 X20.3261 Y-43.7939 F120.00
G01 X20.2632 Y-43.7468 F120.00
G01 X20.2157 Y-43.6834 F120.00
G01 X20.1866 Y-43.6053 F120.00
G01 X20.1845 Y-43.5858 F120.00
G01 X20.1845 Y-37.7876 F120.00
G01 X20.1842 Y-37.7768 F120.00
G01 X20.1835 Y-37.7661 F120.00
G01 X20.1822 Y-37.7554 F120.00
G01 X20.1804 Y-37.7447 F120.00
G01 X20.1781 Y-37.7342 F120.00
G01 X20.1753 Y-37.7238 F120.00
G01 X20.1657 Y-37.6918 F120.00
G01 X20.1621 Y-37.6814 F120.00
G01 X20.1579 Y-37.6711 F120.00
G01 X20.1532 Y-37.6611 F120.00
G01 X20.1481 Y-37.6512 F120.00
G01 X20.1394 Y-37.6370 F120.00
G01 X20.1331 Y-37.6279 F120.00
G01 X20.1228 Y-37.6149 F120.00
G01 X20.1154 Y-37.6066 F120.00
G01 X20.1075 Y-37.5987 F120.00
G01 X20.0994 Y-37.5913 F120.00
G01 X20.0908 Y-37.5842 F120.00
G01 X20.0550 Y-37.5574 F120.00
G01 X20.0410 Y-37.5482 F120.00
G01 X20.0313 Y-37.5427 F120.00
G01 X20.0214 Y-37.5377 F120.00
G01 X20.0060 Y-37.5310 F120.00
G01 X19.9955 Y-37.5273 F120.00
G01 X19.8514 Y-37.4795 F120.00
G01 X19.7468 Y-37.4150 F120.00
G01 X19.7336 Y-37.4019 F120.00
G01 X19.7212 Y-37.3909 F120.00
G01 X19.7080 Y-37.3809 F120.00
G01 X19.6942 Y-37.3719 F120.00
G01 X19.6845 Y-37.3664 F120.00
G01 X19.6697 Y-37.3592 F120.00
G01 X19.6196 Y-37.3387 F120.00
G01 X19.6092 Y-37.3352 F120.00
G01 X19.5985 Y-37.3322 F120.00
G01 X19.5823 Y-37.3288 F120.00
G01 X19.5659 Y-37.3266 F120.00
G01 X19.5494 Y-37.3256 F120.00
G01 X19.0460 Y-37.3255 F120.00
G01 X19.0304 Y-37.3260 F120.00
G01 X19.0148 Y-37.3277 F120.00
G01 X18.9833 Y-37.3330 F120.00
G01 X18.9727 Y-37.3356 F120.00
G01 X18.9623 Y-37.3386 F120.00
G01 X18.9520 Y-37.3421 F120.00
G01 X18.9370 Y-37.3484 F120.00
G01 X18.9224 Y-37.3557 F120.00
G01 X18.9130 Y-37.3611 F120.00
G01 X18.9039 Y-37.3670 F120.00
G01 X18.8908 Y-37.3766 F120.00
G01 X18.8500 Y-37.4119 F120.00
G01 X18.8421 Y-37.4196 F120.00
G01 X18.8309 Y-37.4318 F120.00
G01 X18.8239 Y-37.4403 F120.00
G01 X18.8174 Y-37.4492 F120.00
G01 X18.8085 Y-37.4631 F120.00
G01 X18.8006 Y-37.4777 F120.00
G01 X18.7263 Y-37.6274 F120.00
G01 X18.6348 Y-37.7412 F120.00
G01 X18.6222 Y-37.7545 F120.00
G01 X18.6116 Y-37.7676 F120.00
G01 X18.6020 Y-37.7814 F120.00
G01 X18.5788 Y-37.8196 F120.00
G01 X18.5735 Y-37.8294 F120.00
G01 X18.5687 Y-37.8396 F120.00
G01 X18.5644 Y-37.8499 F120.00
G01 X18.5589 Y-37.8658 F120.00
G01 X18.5546 Y-37.8820 F120.00
G01 X18.5457 Y-37.9262 F120.00
G01 X18.4872 Y-38.0673 F120.00
G01 X18.4024 Y-38.1944 F120.00
G01 X16.8558 Y-39.7410 F120.00
G01 X16.8445 Y-39.7531 F120.00
G01 X16.8341 Y-39.7660 F120.00
G01 X16.8278 Y-39.7751 F120.00
G01 X16.8219 Y-39.7844 F120.00
G01 X16.8139 Y-39.7989 F120.00
G01 X16.8070 Y-39.8140 F120.00
G01 X16.7926 Y-39.8486 F120.00
G01 X16.7887 Y-39.8589 F120.00
G01 X16.7852 Y-39.8694 F120.00
G01 X16.7810 Y-39.8854 F120.00
G01 X16.7788 Y-39.8962 F120.00
G01 X16.7766 Y-39.9127 F120.00
G01 X16.7756 Y-39.9292 F120.00
G01 X16.7755 Y-43.0764 F120.00
G01 X16.7457 Y-43.2262 F120.00
G01 X16.6872 Y-43.3673 F120.00
G01 X16.6024 Y-43.4944 F120.00
G01 X14.9944 Y-45.1024 F120.00
G01 X14.8673 Y-45.1872 F120.00
G01 X14.7262 Y-45.2457 F120.00
G01 X14.5764 Y-45.2755 F120.00
G01 X9.2934 Y-45.2755 F120.00
G01 X9.2774 Y-45.2761 F120.00
G01 X9.2667 Y-45.2771 F120.00
G01 X9.2508 Y-45.2796 F120.00
G01 X9.2199 Y-45.2863 F120.00
G01 X9.2042 Y-45.2907 F120.00
G01 X9.1888 Y-45.2963 F120.00
G01 X9.1738 Y-45.3030 F120.00
G01 X9.1594 Y-45.3108 F120.00
G01 X9.1455 Y-45.3196 F120.00
G01 X9.1324 Y-45.3293 F120.00
G01 X9.1240 Y-45.3364 F120.00
G01 X9.1160 Y-45.3438 F120.00
G01 X9.0828 Y-45.3791 F120.00
G01 X9.0755 Y-45.3873 F120.00
G01 X9.0653 Y-45.4004 F120.00
G01 X9.0591 Y-45.4095 F120.00
G01 X9.0533 Y-45.4188 F120.00
G01 X9.0479 Y-45.4286 F120.00
G01 X8.9968 Y-45.4968 F120.00
G01 X8.9334 Y-45.5443 F120.00
G01 X8.8553 Y-45.5734 F120.00
G01 X8.8358 Y-45.5755 F120.00
G01 X7.1642 Y-45.5755 F120.00
G01 X7.1447 Y-45.5734 F120.00
G01 X7.0666 Y-45.5443 F120.00
G01 X7.0032 Y-45.4968 F120.00
G01 X6.9557 Y-45.4334 F120.00
G01 X6.9266 Y-45.3553 F120.00
G01 X6.9245 Y-45.3358 F120.00
G01 X6.9245 Y-43.6642 F120.00
G01 X6.9266 Y-43.6447 F120.00
G01 X6.9557 Y-43.5666 F120.00
G01 X7.0032 Y-43.5032 F120.00
G01 X7.0666 Y-43.4557 F120.00
G01 X7.1447 Y-43.4266 F120.00
G01 X7.1642 Y-43.4245 F120.00
G01 X8.8358 Y-43.4245 F120.00
G01 X8.8553 Y-43.4266 F120.00
G01 X8.9334 Y-43.4557 F120.00
G01 X8.9968 Y-43.5032 F120.00
G01 X9.0479 Y-43.5714 F120.00
G01 X9.0554 Y-43.5847 F120.00
G01 X9.0695 Y-43.6068 F120.00
G01 X9.0756 Y-43.6158 F120.00
G01 X9.0822 Y-43.6246 F120.00
G01 X9.0928 Y-43.6371 F120.00
G01 X9.1043 Y-43.6487 F120.00
G01 X9.1166 Y-43.6595 F120.00
G01 X9.1297 Y-43.6694 F120.00
G01 X9.1434 Y-43.6783 F120.00
G01 X9.1529 Y-43.6837 F120.00
G01 X9.1627 Y-43.6886 F120.00
G01 X9.2073 Y-43.7074 F120.00
G01 X9.2176 Y-43.7113 F120.00
G01 X9.2334 Y-43.7163 F120.00
G01 X9.2495 Y-43.7202 F120.00
G01 X9.2659 Y-43.7228 F120.00
G01 X9.2824 Y-43.7242 F120.00
G01 X9.2934 Y-43.7245 F120.00
G01 X14.0653 Y-43.7245 F120.00
G01 X14.0763 Y-43.7242 F120.00
G01 X14.0873 Y-43.7234 F120.00
G01 X14.0983 Y-43.7221 F120.00
G01 X14.1092 Y-43.7202 F120.00
G01 X14.1200 Y-43.7178 F120.00
G01 X14.1306 Y-43.7148 F120.00
G01 X14.1463 Y-43.7094 F120.00
G01 X14.1911 Y-43.6908 F120.00
G01 X14.2011 Y-43.6861 F120.00
